(G-CODE GENERATED BY FLATCAM v8.994 - www.flatcam.org - Version Date: 2020/11/7)

(Name: blackMD_mother.drl_slot_mill_slot_cnc)
(Type: G-code from Geometry)
(Units: MM)

(Created on Wednesday, 06 March 2024 at 16:40)

(This preprocessor is the default preprocessor used by FlatCAM.)
(It is made to work with MACH3 compatible motion controllers.)

(TOOL DIAMETER: 0.8 mm)
(Feedrate_XY: 100.0 mm/min)
(Feedrate_Z: 80.0 mm/min)
(Feedrate rapids 1500.0 mm/min)

(Z_Cut: -1.6 mm)
(DepthPerCut: 0.2 mm <=>8 passes)
(Z_Move: 2.0 mm)
(Z Start: None mm)
(Z End: 2.0 mm)
(X,Y End: 0.0000, 0.0000 mm)
(Steps per circle: 64)
(Preprocessor Geometry: default)

(X range:    2.2309 ...    3.4311  mm)
(Y range:    9.3440 ...   89.9860  mm)

(Spindle Speed: 7000.0 RPM)
G21
G90
G94

G01 F100.00

G00 Z2.0000

M03 S7000.0
G4 P0.5
G01 F100.00
G00 X2.2309 Y10.6459
G01 F80.00
G01 Z-0.2000
G01 F100.00
G01 X2.2316 Y10.6754
G01 X2.2325 Y10.6901
G01 X2.2338 Y10.7047
G01 X2.2374 Y10.7340
G01 X2.2397 Y10.7485
G01 X2.2455 Y10.7774
G01 X2.2526 Y10.8060
G01 X2.2612 Y10.8341
G01 X2.2711 Y10.8619
G01 X2.2766 Y10.8756
G01 X2.2885 Y10.9025
G01 X2.2950 Y10.9157
G01 X2.3018 Y10.9288
G01 X2.3163 Y10.9544
G01 X2.3240 Y10.9670
G01 X2.3404 Y10.9914
G01 X2.3490 Y11.0034
G01 X2.3671 Y11.0266
G01 X2.3766 Y11.0379
G01 X2.3964 Y11.0597
G01 X2.4067 Y11.0702
G01 X2.4280 Y11.0906
G01 X2.4390 Y11.1003
G01 X2.4618 Y11.1190
G01 X2.4855 Y11.1365
G01 X2.4976 Y11.1449
G01 X2.5225 Y11.1606
G01 X2.5481 Y11.1751
G01 X2.5612 Y11.1819
G01 X2.5878 Y11.1945
G01 X2.6014 Y11.2003
G01 X2.6288 Y11.2109
G01 X2.6428 Y11.2157
G01 X2.6709 Y11.2243
G01 X2.6852 Y11.2280
G01 X2.7139 Y11.2345
G01 X2.7429 Y11.2395
G01 X2.7722 Y11.2431
G01 X2.8016 Y11.2453
G01 X2.8163 Y11.2458
G01 X2.8310 Y11.2460
G01 X2.8604 Y11.2453
G01 X2.8751 Y11.2444
G01 X2.9045 Y11.2415
G01 X2.9191 Y11.2395
G01 X2.9481 Y11.2345
G01 X2.9768 Y11.2280
G01 X2.9911 Y11.2243
G01 X3.0052 Y11.2202
G01 X3.0332 Y11.2109
G01 X3.0606 Y11.2003
G01 X3.0742 Y11.1945
G01 X3.1008 Y11.1819
G01 X3.1139 Y11.1751
G01 X3.1395 Y11.1606
G01 X3.1521 Y11.1529
G01 X3.1765 Y11.1365
G01 X3.1885 Y11.1279
G01 X3.2002 Y11.1190
G01 X3.2230 Y11.1003
G01 X3.2340 Y11.0906
G01 X3.2553 Y11.0702
G01 X3.2756 Y11.0489
G01 X3.2854 Y11.0379
G01 X3.3041 Y11.0151
G01 X3.3130 Y11.0034
G01 X3.3300 Y10.9793
G01 X3.3380 Y10.9670
G01 X3.3457 Y10.9544
G01 X3.3602 Y10.9288
G01 X3.3735 Y10.9025
G01 X3.3796 Y10.8891
G01 X3.3854 Y10.8756
G01 X3.3960 Y10.8481
G01 X3.4008 Y10.8341
G01 X3.4094 Y10.8060
G01 X3.4165 Y10.7774
G01 X3.4196 Y10.7630
G01 X3.4223 Y10.7485
G01 X3.4266 Y10.7194
G01 X3.4282 Y10.7047
G01 X3.4304 Y10.6754
G01 X3.4311 Y10.6459
G01 X3.4311 Y9.9441
G01 X3.4304 Y9.9146
G01 X3.4282 Y9.8853
G01 X3.4246 Y9.8560
G01 X3.4196 Y9.8270
G01 X3.4131 Y9.7983
G01 X3.4053 Y9.7699
G01 X3.4008 Y9.7559
G01 X3.3909 Y9.7281
G01 X3.3796 Y9.7009
G01 X3.3670 Y9.6743
G01 X3.3531 Y9.6483
G01 X3.3380 Y9.6230
G01 X3.3216 Y9.5986
G01 X3.3041 Y9.5749
G01 X3.2854 Y9.5521
G01 X3.2656 Y9.5303
G01 X3.2448 Y9.5095
G01 X3.2230 Y9.4897
G01 X3.2002 Y9.4710
G01 X3.1765 Y9.4535
G01 X3.1521 Y9.4371
G01 X3.1268 Y9.4220
G01 X3.1008 Y9.4081
G01 X3.0742 Y9.3955
G01 X3.0470 Y9.3842
G01 X3.0192 Y9.3743
G01 X2.9911 Y9.3657
G01 X2.9625 Y9.3586
G01 X2.9336 Y9.3528
G01 X2.9045 Y9.3485
G01 X2.8751 Y9.3456
G01 X2.8457 Y9.3442
G01 X2.8163 Y9.3442
G01 X2.7869 Y9.3456
G01 X2.7575 Y9.3485
G01 X2.7284 Y9.3528
G01 X2.6995 Y9.3586
G01 X2.6709 Y9.3657
G01 X2.6428 Y9.3743
G01 X2.6150 Y9.3842
G01 X2.5878 Y9.3955
G01 X2.5612 Y9.4081
G01 X2.5352 Y9.4220
G01 X2.5099 Y9.4371
G01 X2.4855 Y9.4535
G01 X2.4618 Y9.4710
G01 X2.4390 Y9.4897
G01 X2.4172 Y9.5095
G01 X2.3964 Y9.5303
G01 X2.3766 Y9.5521
G01 X2.3579 Y9.5749
G01 X2.3490 Y9.5866
G01 X2.3320 Y9.6107
G01 X2.3240 Y9.6230
G01 X2.3089 Y9.6483
G01 X2.3018 Y9.6612
G01 X2.2885 Y9.6875
G01 X2.2824 Y9.7009
G01 X2.2766 Y9.7144
G01 X2.2660 Y9.7419
G01 X2.2612 Y9.7559
G01 X2.2526 Y9.7840
G01 X2.2455 Y9.8126
G01 X2.2424 Y9.8270
G01 X2.2397 Y9.8415
G01 X2.2354 Y9.8706
G01 X2.2338 Y9.8853
G01 X2.2316 Y9.9146
G01 X2.2309 Y9.9441
G01 X2.2309 Y10.6459
G00 X2.2309 Y10.6459
G01 F80.00
G01 Z-0.4000
G01 F100.00
G01 X2.2316 Y10.6754
G01 X2.2325 Y10.6901
G01 X2.2338 Y10.7047
G01 X2.2374 Y10.7340
G01 X2.2397 Y10.7485
G01 X2.2455 Y10.7774
G01 X2.2526 Y10.8060
G01 X2.2612 Y10.8341
G01 X2.2711 Y10.8619
G01 X2.2766 Y10.8756
G01 X2.2885 Y10.9025
G01 X2.2950 Y10.9157
G01 X2.3018 Y10.9288
G01 X2.3163 Y10.9544
G01 X2.3240 Y10.9670
G01 X2.3404 Y10.9914
G01 X2.3490 Y11.0034
G01 X2.3671 Y11.0266
G01 X2.3766 Y11.0379
G01 X2.3964 Y11.0597
G01 X2.4067 Y11.0702
G01 X2.4280 Y11.0906
G01 X2.4390 Y11.1003
G01 X2.4618 Y11.1190
G01 X2.4855 Y11.1365
G01 X2.4976 Y11.1449
G01 X2.5225 Y11.1606
G01 X2.5481 Y11.1751
G01 X2.5612 Y11.1819
G01 X2.5878 Y11.1945
G01 X2.6014 Y11.2003
G01 X2.6288 Y11.2109
G01 X2.6428 Y11.2157
G01 X2.6709 Y11.2243
G01 X2.6852 Y11.2280
G01 X2.7139 Y11.2345
G01 X2.7429 Y11.2395
G01 X2.7722 Y11.2431
G01 X2.8016 Y11.2453
G01 X2.8163 Y11.2458
G01 X2.8310 Y11.2460
G01 X2.8604 Y11.2453
G01 X2.8751 Y11.2444
G01 X2.9045 Y11.2415
G01 X2.9191 Y11.2395
G01 X2.9481 Y11.2345
G01 X2.9768 Y11.2280
G01 X2.9911 Y11.2243
G01 X3.0052 Y11.2202
G01 X3.0332 Y11.2109
G01 X3.0606 Y11.2003
G01 X3.0742 Y11.1945
G01 X3.1008 Y11.1819
G01 X3.1139 Y11.1751
G01 X3.1395 Y11.1606
G01 X3.1521 Y11.1529
G01 X3.1765 Y11.1365
G01 X3.1885 Y11.1279
G01 X3.2002 Y11.1190
G01 X3.2230 Y11.1003
G01 X3.2340 Y11.0906
G01 X3.2553 Y11.0702
G01 X3.2756 Y11.0489
G01 X3.2854 Y11.0379
G01 X3.3041 Y11.0151
G01 X3.3130 Y11.0034
G01 X3.3300 Y10.9793
G01 X3.3380 Y10.9670
G01 X3.3457 Y10.9544
G01 X3.3602 Y10.9288
G01 X3.3735 Y10.9025
G01 X3.3796 Y10.8891
G01 X3.3854 Y10.8756
G01 X3.3960 Y10.8481
G01 X3.4008 Y10.8341
G01 X3.4094 Y10.8060
G01 X3.4165 Y10.7774
G01 X3.4196 Y10.7630
G01 X3.4223 Y10.7485
G01 X3.4266 Y10.7194
G01 X3.4282 Y10.7047
G01 X3.4304 Y10.6754
G01 X3.4311 Y10.6459
G01 X3.4311 Y9.9441
G01 X3.4304 Y9.9146
G01 X3.4282 Y9.8853
G01 X3.4246 Y9.8560
G01 X3.4196 Y9.8270
G01 X3.4131 Y9.7983
G01 X3.4053 Y9.7699
G01 X3.4008 Y9.7559
G01 X3.3909 Y9.7281
G01 X3.3796 Y9.7009
G01 X3.3670 Y9.6743
G01 X3.3531 Y9.6483
G01 X3.3380 Y9.6230
G01 X3.3216 Y9.5986
G01 X3.3041 Y9.5749
G01 X3.2854 Y9.5521
G01 X3.2656 Y9.5303
G01 X3.2448 Y9.5095
G01 X3.2230 Y9.4897
G01 X3.2002 Y9.4710
G01 X3.1765 Y9.4535
G01 X3.1521 Y9.4371
G01 X3.1268 Y9.4220
G01 X3.1008 Y9.4081
G01 X3.0742 Y9.3955
G01 X3.0470 Y9.3842
G01 X3.0192 Y9.3743
G01 X2.9911 Y9.3657
G01 X2.9625 Y9.3586
G01 X2.9336 Y9.3528
G01 X2.9045 Y9.3485
G01 X2.8751 Y9.3456
G01 X2.8457 Y9.3442
G01 X2.8163 Y9.3442
G01 X2.7869 Y9.3456
G01 X2.7575 Y9.3485
G01 X2.7284 Y9.3528
G01 X2.6995 Y9.3586
G01 X2.6709 Y9.3657
G01 X2.6428 Y9.3743
G01 X2.6150 Y9.3842
G01 X2.5878 Y9.3955
G01 X2.5612 Y9.4081
G01 X2.5352 Y9.4220
G01 X2.5099 Y9.4371
G01 X2.4855 Y9.4535
G01 X2.4618 Y9.4710
G01 X2.4390 Y9.4897
G01 X2.4172 Y9.5095
G01 X2.3964 Y9.5303
G01 X2.3766 Y9.5521
G01 X2.3579 Y9.5749
G01 X2.3490 Y9.5866
G01 X2.3320 Y9.6107
G01 X2.3240 Y9.6230
G01 X2.3089 Y9.6483
G01 X2.3018 Y9.6612
G01 X2.2885 Y9.6875
G01 X2.2824 Y9.7009
G01 X2.2766 Y9.7144
G01 X2.2660 Y9.7419
G01 X2.2612 Y9.7559
G01 X2.2526 Y9.7840
G01 X2.2455 Y9.8126
G01 X2.2424 Y9.8270
G01 X2.2397 Y9.8415
G01 X2.2354 Y9.8706
G01 X2.2338 Y9.8853
G01 X2.2316 Y9.9146
G01 X2.2309 Y9.9441
G01 X2.2309 Y10.6459
G00 X2.2309 Y10.6459
G01 F80.00
G01 Z-0.6000
G01 F100.00
G01 X2.2316 Y10.6754
G01 X2.2325 Y10.6901
G01 X2.2338 Y10.7047
G01 X2.2374 Y10.7340
G01 X2.2397 Y10.7485
G01 X2.2455 Y10.7774
G01 X2.2526 Y10.8060
G01 X2.2612 Y10.8341
G01 X2.2711 Y10.8619
G01 X2.2766 Y10.8756
G01 X2.2885 Y10.9025
G01 X2.2950 Y10.9157
G01 X2.3018 Y10.9288
G01 X2.3163 Y10.9544
G01 X2.3240 Y10.9670
G01 X2.3404 Y10.9914
G01 X2.3490 Y11.0034
G01 X2.3671 Y11.0266
G01 X2.3766 Y11.0379
G01 X2.3964 Y11.0597
G01 X2.4067 Y11.0702
G01 X2.4280 Y11.0906
G01 X2.4390 Y11.1003
G01 X2.4618 Y11.1190
G01 X2.4855 Y11.1365
G01 X2.4976 Y11.1449
G01 X2.5225 Y11.1606
G01 X2.5481 Y11.1751
G01 X2.5612 Y11.1819
G01 X2.5878 Y11.1945
G01 X2.6014 Y11.2003
G01 X2.6288 Y11.2109
G01 X2.6428 Y11.2157
G01 X2.6709 Y11.2243
G01 X2.6852 Y11.2280
G01 X2.7139 Y11.2345
G01 X2.7429 Y11.2395
G01 X2.7722 Y11.2431
G01 X2.8016 Y11.2453
G01 X2.8163 Y11.2458
G01 X2.8310 Y11.2460
G01 X2.8604 Y11.2453
G01 X2.8751 Y11.2444
G01 X2.9045 Y11.2415
G01 X2.9191 Y11.2395
G01 X2.9481 Y11.2345
G01 X2.9768 Y11.2280
G01 X2.9911 Y11.2243
G01 X3.0052 Y11.2202
G01 X3.0332 Y11.2109
G01 X3.0606 Y11.2003
G01 X3.0742 Y11.1945
G01 X3.1008 Y11.1819
G01 X3.1139 Y11.1751
G01 X3.1395 Y11.1606
G01 X3.1521 Y11.1529
G01 X3.1765 Y11.1365
G01 X3.1885 Y11.1279
G01 X3.2002 Y11.1190
G01 X3.2230 Y11.1003
G01 X3.2340 Y11.0906
G01 X3.2553 Y11.0702
G01 X3.2756 Y11.0489
G01 X3.2854 Y11.0379
G01 X3.3041 Y11.0151
G01 X3.3130 Y11.0034
G01 X3.3300 Y10.9793
G01 X3.3380 Y10.9670
G01 X3.3457 Y10.9544
G01 X3.3602 Y10.9288
G01 X3.3735 Y10.9025
G01 X3.3796 Y10.8891
G01 X3.3854 Y10.8756
G01 X3.3960 Y10.8481
G01 X3.4008 Y10.8341
G01 X3.4094 Y10.8060
G01 X3.4165 Y10.7774
G01 X3.4196 Y10.7630
G01 X3.4223 Y10.7485
G01 X3.4266 Y10.7194
G01 X3.4282 Y10.7047
G01 X3.4304 Y10.6754
G01 X3.4311 Y10.6459
G01 X3.4311 Y9.9441
G01 X3.4304 Y9.9146
G01 X3.4282 Y9.8853
G01 X3.4246 Y9.8560
G01 X3.4196 Y9.8270
G01 X3.4131 Y9.7983
G01 X3.4053 Y9.7699
G01 X3.4008 Y9.7559
G01 X3.3909 Y9.7281
G01 X3.3796 Y9.7009
G01 X3.3670 Y9.6743
G01 X3.3531 Y9.6483
G01 X3.3380 Y9.6230
G01 X3.3216 Y9.5986
G01 X3.3041 Y9.5749
G01 X3.2854 Y9.5521
G01 X3.2656 Y9.5303
G01 X3.2448 Y9.5095
G01 X3.2230 Y9.4897
G01 X3.2002 Y9.4710
G01 X3.1765 Y9.4535
G01 X3.1521 Y9.4371
G01 X3.1268 Y9.4220
G01 X3.1008 Y9.4081
G01 X3.0742 Y9.3955
G01 X3.0470 Y9.3842
G01 X3.0192 Y9.3743
G01 X2.9911 Y9.3657
G01 X2.9625 Y9.3586
G01 X2.9336 Y9.3528
G01 X2.9045 Y9.3485
G01 X2.8751 Y9.3456
G01 X2.8457 Y9.3442
G01 X2.8163 Y9.3442
G01 X2.7869 Y9.3456
G01 X2.7575 Y9.3485
G01 X2.7284 Y9.3528
G01 X2.6995 Y9.3586
G01 X2.6709 Y9.3657
G01 X2.6428 Y9.3743
G01 X2.6150 Y9.3842
G01 X2.5878 Y9.3955
G01 X2.5612 Y9.4081
G01 X2.5352 Y9.4220
G01 X2.5099 Y9.4371
G01 X2.4855 Y9.4535
G01 X2.4618 Y9.4710
G01 X2.4390 Y9.4897
G01 X2.4172 Y9.5095
G01 X2.3964 Y9.5303
G01 X2.3766 Y9.5521
G01 X2.3579 Y9.5749
G01 X2.3490 Y9.5866
G01 X2.3320 Y9.6107
G01 X2.3240 Y9.6230
G01 X2.3089 Y9.6483
G01 X2.3018 Y9.6612
G01 X2.2885 Y9.6875
G01 X2.2824 Y9.7009
G01 X2.2766 Y9.7144
G01 X2.2660 Y9.7419
G01 X2.2612 Y9.7559
G01 X2.2526 Y9.7840
G01 X2.2455 Y9.8126
G01 X2.2424 Y9.8270
G01 X2.2397 Y9.8415
G01 X2.2354 Y9.8706
G01 X2.2338 Y9.8853
G01 X2.2316 Y9.9146
G01 X2.2309 Y9.9441
G01 X2.2309 Y10.6459
G00 X2.2309 Y10.6459
G01 F80.00
G01 Z-0.8000
G01 F100.00
G01 X2.2316 Y10.6754
G01 X2.2325 Y10.6901
G01 X2.2338 Y10.7047
G01 X2.2374 Y10.7340
G01 X2.2397 Y10.7485
G01 X2.2455 Y10.7774
G01 X2.2526 Y10.8060
G01 X2.2612 Y10.8341
G01 X2.2711 Y10.8619
G01 X2.2766 Y10.8756
G01 X2.2885 Y10.9025
G01 X2.2950 Y10.9157
G01 X2.3018 Y10.9288
G01 X2.3163 Y10.9544
G01 X2.3240 Y10.9670
G01 X2.3404 Y10.9914
G01 X2.3490 Y11.0034
G01 X2.3671 Y11.0266
G01 X2.3766 Y11.0379
G01 X2.3964 Y11.0597
G01 X2.4067 Y11.0702
G01 X2.4280 Y11.0906
G01 X2.4390 Y11.1003
G01 X2.4618 Y11.1190
G01 X2.4855 Y11.1365
G01 X2.4976 Y11.1449
G01 X2.5225 Y11.1606
G01 X2.5481 Y11.1751
G01 X2.5612 Y11.1819
G01 X2.5878 Y11.1945
G01 X2.6014 Y11.2003
G01 X2.6288 Y11.2109
G01 X2.6428 Y11.2157
G01 X2.6709 Y11.2243
G01 X2.6852 Y11.2280
G01 X2.7139 Y11.2345
G01 X2.7429 Y11.2395
G01 X2.7722 Y11.2431
G01 X2.8016 Y11.2453
G01 X2.8163 Y11.2458
G01 X2.8310 Y11.2460
G01 X2.8604 Y11.2453
G01 X2.8751 Y11.2444
G01 X2.9045 Y11.2415
G01 X2.9191 Y11.2395
G01 X2.9481 Y11.2345
G01 X2.9768 Y11.2280
G01 X2.9911 Y11.2243
G01 X3.0052 Y11.2202
G01 X3.0332 Y11.2109
G01 X3.0606 Y11.2003
G01 X3.0742 Y11.1945
G01 X3.1008 Y11.1819
G01 X3.1139 Y11.1751
G01 X3.1395 Y11.1606
G01 X3.1521 Y11.1529
G01 X3.1765 Y11.1365
G01 X3.1885 Y11.1279
G01 X3.2002 Y11.1190
G01 X3.2230 Y11.1003
G01 X3.2340 Y11.0906
G01 X3.2553 Y11.0702
G01 X3.2756 Y11.0489
G01 X3.2854 Y11.0379
G01 X3.3041 Y11.0151
G01 X3.3130 Y11.0034
G01 X3.3300 Y10.9793
G01 X3.3380 Y10.9670
G01 X3.3457 Y10.9544
G01 X3.3602 Y10.9288
G01 X3.3735 Y10.9025
G01 X3.3796 Y10.8891
G01 X3.3854 Y10.8756
G01 X3.3960 Y10.8481
G01 X3.4008 Y10.8341
G01 X3.4094 Y10.8060
G01 X3.4165 Y10.7774
G01 X3.4196 Y10.7630
G01 X3.4223 Y10.7485
G01 X3.4266 Y10.7194
G01 X3.4282 Y10.7047
G01 X3.4304 Y10.6754
G01 X3.4311 Y10.6459
G01 X3.4311 Y9.9441
G01 X3.4304 Y9.9146
G01 X3.4282 Y9.8853
G01 X3.4246 Y9.8560
G01 X3.4196 Y9.8270
G01 X3.4131 Y9.7983
G01 X3.4053 Y9.7699
G01 X3.4008 Y9.7559
G01 X3.3909 Y9.7281
G01 X3.3796 Y9.7009
G01 X3.3670 Y9.6743
G01 X3.3531 Y9.6483
G01 X3.3380 Y9.6230
G01 X3.3216 Y9.5986
G01 X3.3041 Y9.5749
G01 X3.2854 Y9.5521
G01 X3.2656 Y9.5303
G01 X3.2448 Y9.5095
G01 X3.2230 Y9.4897
G01 X3.2002 Y9.4710
G01 X3.1765 Y9.4535
G01 X3.1521 Y9.4371
G01 X3.1268 Y9.4220
G01 X3.1008 Y9.4081
G01 X3.0742 Y9.3955
G01 X3.0470 Y9.3842
G01 X3.0192 Y9.3743
G01 X2.9911 Y9.3657
G01 X2.9625 Y9.3586
G01 X2.9336 Y9.3528
G01 X2.9045 Y9.3485
G01 X2.8751 Y9.3456
G01 X2.8457 Y9.3442
G01 X2.8163 Y9.3442
G01 X2.7869 Y9.3456
G01 X2.7575 Y9.3485
G01 X2.7284 Y9.3528
G01 X2.6995 Y9.3586
G01 X2.6709 Y9.3657
G01 X2.6428 Y9.3743
G01 X2.6150 Y9.3842
G01 X2.5878 Y9.3955
G01 X2.5612 Y9.4081
G01 X2.5352 Y9.4220
G01 X2.5099 Y9.4371
G01 X2.4855 Y9.4535
G01 X2.4618 Y9.4710
G01 X2.4390 Y9.4897
G01 X2.4172 Y9.5095
G01 X2.3964 Y9.5303
G01 X2.3766 Y9.5521
G01 X2.3579 Y9.5749
G01 X2.3490 Y9.5866
G01 X2.3320 Y9.6107
G01 X2.3240 Y9.6230
G01 X2.3089 Y9.6483
G01 X2.3018 Y9.6612
G01 X2.2885 Y9.6875
G01 X2.2824 Y9.7009
G01 X2.2766 Y9.7144
G01 X2.2660 Y9.7419
G01 X2.2612 Y9.7559
G01 X2.2526 Y9.7840
G01 X2.2455 Y9.8126
G01 X2.2424 Y9.8270
G01 X2.2397 Y9.8415
G01 X2.2354 Y9.8706
G01 X2.2338 Y9.8853
G01 X2.2316 Y9.9146
G01 X2.2309 Y9.9441
G01 X2.2309 Y10.6459
G00 X2.2309 Y10.6459
G01 F80.00
G01 Z-1.0000
G01 F100.00
G01 X2.2316 Y10.6754
G01 X2.2325 Y10.6901
G01 X2.2338 Y10.7047
G01 X2.2374 Y10.7340
G01 X2.2397 Y10.7485
G01 X2.2455 Y10.7774
G01 X2.2526 Y10.8060
G01 X2.2612 Y10.8341
G01 X2.2711 Y10.8619
G01 X2.2766 Y10.8756
G01 X2.2885 Y10.9025
G01 X2.2950 Y10.9157
G01 X2.3018 Y10.9288
G01 X2.3163 Y10.9544
G01 X2.3240 Y10.9670
G01 X2.3404 Y10.9914
G01 X2.3490 Y11.0034
G01 X2.3671 Y11.0266
G01 X2.3766 Y11.0379
G01 X2.3964 Y11.0597
G01 X2.4067 Y11.0702
G01 X2.4280 Y11.0906
G01 X2.4390 Y11.1003
G01 X2.4618 Y11.1190
G01 X2.4855 Y11.1365
G01 X2.4976 Y11.1449
G01 X2.5225 Y11.1606
G01 X2.5481 Y11.1751
G01 X2.5612 Y11.1819
G01 X2.5878 Y11.1945
G01 X2.6014 Y11.2003
G01 X2.6288 Y11.2109
G01 X2.6428 Y11.2157
G01 X2.6709 Y11.2243
G01 X2.6852 Y11.2280
G01 X2.7139 Y11.2345
G01 X2.7429 Y11.2395
G01 X2.7722 Y11.2431
G01 X2.8016 Y11.2453
G01 X2.8163 Y11.2458
G01 X2.8310 Y11.2460
G01 X2.8604 Y11.2453
G01 X2.8751 Y11.2444
G01 X2.9045 Y11.2415
G01 X2.9191 Y11.2395
G01 X2.9481 Y11.2345
G01 X2.9768 Y11.2280
G01 X2.9911 Y11.2243
G01 X3.0052 Y11.2202
G01 X3.0332 Y11.2109
G01 X3.0606 Y11.2003
G01 X3.0742 Y11.1945
G01 X3.1008 Y11.1819
G01 X3.1139 Y11.1751
G01 X3.1395 Y11.1606
G01 X3.1521 Y11.1529
G01 X3.1765 Y11.1365
G01 X3.1885 Y11.1279
G01 X3.2002 Y11.1190
G01 X3.2230 Y11.1003
G01 X3.2340 Y11.0906
G01 X3.2553 Y11.0702
G01 X3.2756 Y11.0489
G01 X3.2854 Y11.0379
G01 X3.3041 Y11.0151
G01 X3.3130 Y11.0034
G01 X3.3300 Y10.9793
G01 X3.3380 Y10.9670
G01 X3.3457 Y10.9544
G01 X3.3602 Y10.9288
G01 X3.3735 Y10.9025
G01 X3.3796 Y10.8891
G01 X3.3854 Y10.8756
G01 X3.3960 Y10.8481
G01 X3.4008 Y10.8341
G01 X3.4094 Y10.8060
G01 X3.4165 Y10.7774
G01 X3.4196 Y10.7630
G01 X3.4223 Y10.7485
G01 X3.4266 Y10.7194
G01 X3.4282 Y10.7047
G01 X3.4304 Y10.6754
G01 X3.4311 Y10.6459
G01 X3.4311 Y9.9441
G01 X3.4304 Y9.9146
G01 X3.4282 Y9.8853
G01 X3.4246 Y9.8560
G01 X3.4196 Y9.8270
G01 X3.4131 Y9.7983
G01 X3.4053 Y9.7699
G01 X3.4008 Y9.7559
G01 X3.3909 Y9.7281
G01 X3.3796 Y9.7009
G01 X3.3670 Y9.6743
G01 X3.3531 Y9.6483
G01 X3.3380 Y9.6230
G01 X3.3216 Y9.5986
G01 X3.3041 Y9.5749
G01 X3.2854 Y9.5521
G01 X3.2656 Y9.5303
G01 X3.2448 Y9.5095
G01 X3.2230 Y9.4897
G01 X3.2002 Y9.4710
G01 X3.1765 Y9.4535
G01 X3.1521 Y9.4371
G01 X3.1268 Y9.4220
G01 X3.1008 Y9.4081
G01 X3.0742 Y9.3955
G01 X3.0470 Y9.3842
G01 X3.0192 Y9.3743
G01 X2.9911 Y9.3657
G01 X2.9625 Y9.3586
G01 X2.9336 Y9.3528
G01 X2.9045 Y9.3485
G01 X2.8751 Y9.3456
G01 X2.8457 Y9.3442
G01 X2.8163 Y9.3442
G01 X2.7869 Y9.3456
G01 X2.7575 Y9.3485
G01 X2.7284 Y9.3528
G01 X2.6995 Y9.3586
G01 X2.6709 Y9.3657
G01 X2.6428 Y9.3743
G01 X2.6150 Y9.3842
G01 X2.5878 Y9.3955
G01 X2.5612 Y9.4081
G01 X2.5352 Y9.4220
G01 X2.5099 Y9.4371
G01 X2.4855 Y9.4535
G01 X2.4618 Y9.4710
G01 X2.4390 Y9.4897
G01 X2.4172 Y9.5095
G01 X2.3964 Y9.5303
G01 X2.3766 Y9.5521
G01 X2.3579 Y9.5749
G01 X2.3490 Y9.5866
G01 X2.3320 Y9.6107
G01 X2.3240 Y9.6230
G01 X2.3089 Y9.6483
G01 X2.3018 Y9.6612
G01 X2.2885 Y9.6875
G01 X2.2824 Y9.7009
G01 X2.2766 Y9.7144
G01 X2.2660 Y9.7419
G01 X2.2612 Y9.7559
G01 X2.2526 Y9.7840
G01 X2.2455 Y9.8126
G01 X2.2424 Y9.8270
G01 X2.2397 Y9.8415
G01 X2.2354 Y9.8706
G01 X2.2338 Y9.8853
G01 X2.2316 Y9.9146
G01 X2.2309 Y9.9441
G01 X2.2309 Y10.6459
G00 X2.2309 Y10.6459
G01 F80.00
G01 Z-1.2000
G01 F100.00
G01 X2.2316 Y10.6754
G01 X2.2325 Y10.6901
G01 X2.2338 Y10.7047
G01 X2.2374 Y10.7340
G01 X2.2397 Y10.7485
G01 X2.2455 Y10.7774
G01 X2.2526 Y10.8060
G01 X2.2612 Y10.8341
G01 X2.2711 Y10.8619
G01 X2.2766 Y10.8756
G01 X2.2885 Y10.9025
G01 X2.2950 Y10.9157
G01 X2.3018 Y10.9288
G01 X2.3163 Y10.9544
G01 X2.3240 Y10.9670
G01 X2.3404 Y10.9914
G01 X2.3490 Y11.0034
G01 X2.3671 Y11.0266
G01 X2.3766 Y11.0379
G01 X2.3964 Y11.0597
G01 X2.4067 Y11.0702
G01 X2.4280 Y11.0906
G01 X2.4390 Y11.1003
G01 X2.4618 Y11.1190
G01 X2.4855 Y11.1365
G01 X2.4976 Y11.1449
G01 X2.5225 Y11.1606
G01 X2.5481 Y11.1751
G01 X2.5612 Y11.1819
G01 X2.5878 Y11.1945
G01 X2.6014 Y11.2003
G01 X2.6288 Y11.2109
G01 X2.6428 Y11.2157
G01 X2.6709 Y11.2243
G01 X2.6852 Y11.2280
G01 X2.7139 Y11.2345
G01 X2.7429 Y11.2395
G01 X2.7722 Y11.2431
G01 X2.8016 Y11.2453
G01 X2.8163 Y11.2458
G01 X2.8310 Y11.2460
G01 X2.8604 Y11.2453
G01 X2.8751 Y11.2444
G01 X2.9045 Y11.2415
G01 X2.9191 Y11.2395
G01 X2.9481 Y11.2345
G01 X2.9768 Y11.2280
G01 X2.9911 Y11.2243
G01 X3.0052 Y11.2202
G01 X3.0332 Y11.2109
G01 X3.0606 Y11.2003
G01 X3.0742 Y11.1945
G01 X3.1008 Y11.1819
G01 X3.1139 Y11.1751
G01 X3.1395 Y11.1606
G01 X3.1521 Y11.1529
G01 X3.1765 Y11.1365
G01 X3.1885 Y11.1279
G01 X3.2002 Y11.1190
G01 X3.2230 Y11.1003
G01 X3.2340 Y11.0906
G01 X3.2553 Y11.0702
G01 X3.2756 Y11.0489
G01 X3.2854 Y11.0379
G01 X3.3041 Y11.0151
G01 X3.3130 Y11.0034
G01 X3.3300 Y10.9793
G01 X3.3380 Y10.9670
G01 X3.3457 Y10.9544
G01 X3.3602 Y10.9288
G01 X3.3735 Y10.9025
G01 X3.3796 Y10.8891
G01 X3.3854 Y10.8756
G01 X3.3960 Y10.8481
G01 X3.4008 Y10.8341
G01 X3.4094 Y10.8060
G01 X3.4165 Y10.7774
G01 X3.4196 Y10.7630
G01 X3.4223 Y10.7485
G01 X3.4266 Y10.7194
G01 X3.4282 Y10.7047
G01 X3.4304 Y10.6754
G01 X3.4311 Y10.6459
G01 X3.4311 Y9.9441
G01 X3.4304 Y9.9146
G01 X3.4282 Y9.8853
G01 X3.4246 Y9.8560
G01 X3.4196 Y9.8270
G01 X3.4131 Y9.7983
G01 X3.4053 Y9.7699
G01 X3.4008 Y9.7559
G01 X3.3909 Y9.7281
G01 X3.3796 Y9.7009
G01 X3.3670 Y9.6743
G01 X3.3531 Y9.6483
G01 X3.3380 Y9.6230
G01 X3.3216 Y9.5986
G01 X3.3041 Y9.5749
G01 X3.2854 Y9.5521
G01 X3.2656 Y9.5303
G01 X3.2448 Y9.5095
G01 X3.2230 Y9.4897
G01 X3.2002 Y9.4710
G01 X3.1765 Y9.4535
G01 X3.1521 Y9.4371
G01 X3.1268 Y9.4220
G01 X3.1008 Y9.4081
G01 X3.0742 Y9.3955
G01 X3.0470 Y9.3842
G01 X3.0192 Y9.3743
G01 X2.9911 Y9.3657
G01 X2.9625 Y9.3586
G01 X2.9336 Y9.3528
G01 X2.9045 Y9.3485
G01 X2.8751 Y9.3456
G01 X2.8457 Y9.3442
G01 X2.8163 Y9.3442
G01 X2.7869 Y9.3456
G01 X2.7575 Y9.3485
G01 X2.7284 Y9.3528
G01 X2.6995 Y9.3586
G01 X2.6709 Y9.3657
G01 X2.6428 Y9.3743
G01 X2.6150 Y9.3842
G01 X2.5878 Y9.3955
G01 X2.5612 Y9.4081
G01 X2.5352 Y9.4220
G01 X2.5099 Y9.4371
G01 X2.4855 Y9.4535
G01 X2.4618 Y9.4710
G01 X2.4390 Y9.4897
G01 X2.4172 Y9.5095
G01 X2.3964 Y9.5303
G01 X2.3766 Y9.5521
G01 X2.3579 Y9.5749
G01 X2.3490 Y9.5866
G01 X2.3320 Y9.6107
G01 X2.3240 Y9.6230
G01 X2.3089 Y9.6483
G01 X2.3018 Y9.6612
G01 X2.2885 Y9.6875
G01 X2.2824 Y9.7009
G01 X2.2766 Y9.7144
G01 X2.2660 Y9.7419
G01 X2.2612 Y9.7559
G01 X2.2526 Y9.7840
G01 X2.2455 Y9.8126
G01 X2.2424 Y9.8270
G01 X2.2397 Y9.8415
G01 X2.2354 Y9.8706
G01 X2.2338 Y9.8853
G01 X2.2316 Y9.9146
G01 X2.2309 Y9.9441
G01 X2.2309 Y10.6459
G00 X2.2309 Y10.6459
G01 F80.00
G01 Z-1.4000
G01 F100.00
G01 X2.2316 Y10.6754
G01 X2.2325 Y10.6901
G01 X2.2338 Y10.7047
G01 X2.2374 Y10.7340
G01 X2.2397 Y10.7485
G01 X2.2455 Y10.7774
G01 X2.2526 Y10.8060
G01 X2.2612 Y10.8341
G01 X2.2711 Y10.8619
G01 X2.2766 Y10.8756
G01 X2.2885 Y10.9025
G01 X2.2950 Y10.9157
G01 X2.3018 Y10.9288
G01 X2.3163 Y10.9544
G01 X2.3240 Y10.9670
G01 X2.3404 Y10.9914
G01 X2.3490 Y11.0034
G01 X2.3671 Y11.0266
G01 X2.3766 Y11.0379
G01 X2.3964 Y11.0597
G01 X2.4067 Y11.0702
G01 X2.4280 Y11.0906
G01 X2.4390 Y11.1003
G01 X2.4618 Y11.1190
G01 X2.4855 Y11.1365
G01 X2.4976 Y11.1449
G01 X2.5225 Y11.1606
G01 X2.5481 Y11.1751
G01 X2.5612 Y11.1819
G01 X2.5878 Y11.1945
G01 X2.6014 Y11.2003
G01 X2.6288 Y11.2109
G01 X2.6428 Y11.2157
G01 X2.6709 Y11.2243
G01 X2.6852 Y11.2280
G01 X2.7139 Y11.2345
G01 X2.7429 Y11.2395
G01 X2.7722 Y11.2431
G01 X2.8016 Y11.2453
G01 X2.8163 Y11.2458
G01 X2.8310 Y11.2460
G01 X2.8604 Y11.2453
G01 X2.8751 Y11.2444
G01 X2.9045 Y11.2415
G01 X2.9191 Y11.2395
G01 X2.9481 Y11.2345
G01 X2.9768 Y11.2280
G01 X2.9911 Y11.2243
G01 X3.0052 Y11.2202
G01 X3.0332 Y11.2109
G01 X3.0606 Y11.2003
G01 X3.0742 Y11.1945
G01 X3.1008 Y11.1819
G01 X3.1139 Y11.1751
G01 X3.1395 Y11.1606
G01 X3.1521 Y11.1529
G01 X3.1765 Y11.1365
G01 X3.1885 Y11.1279
G01 X3.2002 Y11.1190
G01 X3.2230 Y11.1003
G01 X3.2340 Y11.0906
G01 X3.2553 Y11.0702
G01 X3.2756 Y11.0489
G01 X3.2854 Y11.0379
G01 X3.3041 Y11.0151
G01 X3.3130 Y11.0034
G01 X3.3300 Y10.9793
G01 X3.3380 Y10.9670
G01 X3.3457 Y10.9544
G01 X3.3602 Y10.9288
G01 X3.3735 Y10.9025
G01 X3.3796 Y10.8891
G01 X3.3854 Y10.8756
G01 X3.3960 Y10.8481
G01 X3.4008 Y10.8341
G01 X3.4094 Y10.8060
G01 X3.4165 Y10.7774
G01 X3.4196 Y10.7630
G01 X3.4223 Y10.7485
G01 X3.4266 Y10.7194
G01 X3.4282 Y10.7047
G01 X3.4304 Y10.6754
G01 X3.4311 Y10.6459
G01 X3.4311 Y9.9441
G01 X3.4304 Y9.9146
G01 X3.4282 Y9.8853
G01 X3.4246 Y9.8560
G01 X3.4196 Y9.8270
G01 X3.4131 Y9.7983
G01 X3.4053 Y9.7699
G01 X3.4008 Y9.7559
G01 X3.3909 Y9.7281
G01 X3.3796 Y9.7009
G01 X3.3670 Y9.6743
G01 X3.3531 Y9.6483
G01 X3.3380 Y9.6230
G01 X3.3216 Y9.5986
G01 X3.3041 Y9.5749
G01 X3.2854 Y9.5521
G01 X3.2656 Y9.5303
G01 X3.2448 Y9.5095
G01 X3.2230 Y9.4897
G01 X3.2002 Y9.4710
G01 X3.1765 Y9.4535
G01 X3.1521 Y9.4371
G01 X3.1268 Y9.4220
G01 X3.1008 Y9.4081
G01 X3.0742 Y9.3955
G01 X3.0470 Y9.3842
G01 X3.0192 Y9.3743
G01 X2.9911 Y9.3657
G01 X2.9625 Y9.3586
G01 X2.9336 Y9.3528
G01 X2.9045 Y9.3485
G01 X2.8751 Y9.3456
G01 X2.8457 Y9.3442
G01 X2.8163 Y9.3442
G01 X2.7869 Y9.3456
G01 X2.7575 Y9.3485
G01 X2.7284 Y9.3528
G01 X2.6995 Y9.3586
G01 X2.6709 Y9.3657
G01 X2.6428 Y9.3743
G01 X2.6150 Y9.3842
G01 X2.5878 Y9.3955
G01 X2.5612 Y9.4081
G01 X2.5352 Y9.4220
G01 X2.5099 Y9.4371
G01 X2.4855 Y9.4535
G01 X2.4618 Y9.4710
G01 X2.4390 Y9.4897
G01 X2.4172 Y9.5095
G01 X2.3964 Y9.5303
G01 X2.3766 Y9.5521
G01 X2.3579 Y9.5749
G01 X2.3490 Y9.5866
G01 X2.3320 Y9.6107
G01 X2.3240 Y9.6230
G01 X2.3089 Y9.6483
G01 X2.3018 Y9.6612
G01 X2.2885 Y9.6875
G01 X2.2824 Y9.7009
G01 X2.2766 Y9.7144
G01 X2.2660 Y9.7419
G01 X2.2612 Y9.7559
G01 X2.2526 Y9.7840
G01 X2.2455 Y9.8126
G01 X2.2424 Y9.8270
G01 X2.2397 Y9.8415
G01 X2.2354 Y9.8706
G01 X2.2338 Y9.8853
G01 X2.2316 Y9.9146
G01 X2.2309 Y9.9441
G01 X2.2309 Y10.6459
G00 X2.2309 Y10.6459
G01 F80.00
G01 Z-1.6000
G01 F100.00
G01 X2.2316 Y10.6754
G01 X2.2325 Y10.6901
G01 X2.2338 Y10.7047
G01 X2.2374 Y10.7340
G01 X2.2397 Y10.7485
G01 X2.2455 Y10.7774
G01 X2.2526 Y10.8060
G01 X2.2612 Y10.8341
G01 X2.2711 Y10.8619
G01 X2.2766 Y10.8756
G01 X2.2885 Y10.9025
G01 X2.2950 Y10.9157
G01 X2.3018 Y10.9288
G01 X2.3163 Y10.9544
G01 X2.3240 Y10.9670
G01 X2.3404 Y10.9914
G01 X2.3490 Y11.0034
G01 X2.3671 Y11.0266
G01 X2.3766 Y11.0379
G01 X2.3964 Y11.0597
G01 X2.4067 Y11.0702
G01 X2.4280 Y11.0906
G01 X2.4390 Y11.1003
G01 X2.4618 Y11.1190
G01 X2.4855 Y11.1365
G01 X2.4976 Y11.1449
G01 X2.5225 Y11.1606
G01 X2.5481 Y11.1751
G01 X2.5612 Y11.1819
G01 X2.5878 Y11.1945
G01 X2.6014 Y11.2003
G01 X2.6288 Y11.2109
G01 X2.6428 Y11.2157
G01 X2.6709 Y11.2243
G01 X2.6852 Y11.2280
G01 X2.7139 Y11.2345
G01 X2.7429 Y11.2395
G01 X2.7722 Y11.2431
G01 X2.8016 Y11.2453
G01 X2.8163 Y11.2458
G01 X2.8310 Y11.2460
G01 X2.8604 Y11.2453
G01 X2.8751 Y11.2444
G01 X2.9045 Y11.2415
G01 X2.9191 Y11.2395
G01 X2.9481 Y11.2345
G01 X2.9768 Y11.2280
G01 X2.9911 Y11.2243
G01 X3.0052 Y11.2202
G01 X3.0332 Y11.2109
G01 X3.0606 Y11.2003
G01 X3.0742 Y11.1945
G01 X3.1008 Y11.1819
G01 X3.1139 Y11.1751
G01 X3.1395 Y11.1606
G01 X3.1521 Y11.1529
G01 X3.1765 Y11.1365
G01 X3.1885 Y11.1279
G01 X3.2002 Y11.1190
G01 X3.2230 Y11.1003
G01 X3.2340 Y11.0906
G01 X3.2553 Y11.0702
G01 X3.2756 Y11.0489
G01 X3.2854 Y11.0379
G01 X3.3041 Y11.0151
G01 X3.3130 Y11.0034
G01 X3.3300 Y10.9793
G01 X3.3380 Y10.9670
G01 X3.3457 Y10.9544
G01 X3.3602 Y10.9288
G01 X3.3735 Y10.9025
G01 X3.3796 Y10.8891
G01 X3.3854 Y10.8756
G01 X3.3960 Y10.8481
G01 X3.4008 Y10.8341
G01 X3.4094 Y10.8060
G01 X3.4165 Y10.7774
G01 X3.4196 Y10.7630
G01 X3.4223 Y10.7485
G01 X3.4266 Y10.7194
G01 X3.4282 Y10.7047
G01 X3.4304 Y10.6754
G01 X3.4311 Y10.6459
G01 X3.4311 Y9.9441
G01 X3.4304 Y9.9146
G01 X3.4282 Y9.8853
G01 X3.4246 Y9.8560
G01 X3.4196 Y9.8270
G01 X3.4131 Y9.7983
G01 X3.4053 Y9.7699
G01 X3.4008 Y9.7559
G01 X3.3909 Y9.7281
G01 X3.3796 Y9.7009
G01 X3.3670 Y9.6743
G01 X3.3531 Y9.6483
G01 X3.3380 Y9.6230
G01 X3.3216 Y9.5986
G01 X3.3041 Y9.5749
G01 X3.2854 Y9.5521
G01 X3.2656 Y9.5303
G01 X3.2448 Y9.5095
G01 X3.2230 Y9.4897
G01 X3.2002 Y9.4710
G01 X3.1765 Y9.4535
G01 X3.1521 Y9.4371
G01 X3.1268 Y9.4220
G01 X3.1008 Y9.4081
G01 X3.0742 Y9.3955
G01 X3.0470 Y9.3842
G01 X3.0192 Y9.3743
G01 X2.9911 Y9.3657
G01 X2.9625 Y9.3586
G01 X2.9336 Y9.3528
G01 X2.9045 Y9.3485
G01 X2.8751 Y9.3456
G01 X2.8457 Y9.3442
G01 X2.8163 Y9.3442
G01 X2.7869 Y9.3456
G01 X2.7575 Y9.3485
G01 X2.7284 Y9.3528
G01 X2.6995 Y9.3586
G01 X2.6709 Y9.3657
G01 X2.6428 Y9.3743
G01 X2.6150 Y9.3842
G01 X2.5878 Y9.3955
G01 X2.5612 Y9.4081
G01 X2.5352 Y9.4220
G01 X2.5099 Y9.4371
G01 X2.4855 Y9.4535
G01 X2.4618 Y9.4710
G01 X2.4390 Y9.4897
G01 X2.4172 Y9.5095
G01 X2.3964 Y9.5303
G01 X2.3766 Y9.5521
G01 X2.3579 Y9.5749
G01 X2.3490 Y9.5866
G01 X2.3320 Y9.6107
G01 X2.3240 Y9.6230
G01 X2.3089 Y9.6483
G01 X2.3018 Y9.6612
G01 X2.2885 Y9.6875
G01 X2.2824 Y9.7009
G01 X2.2766 Y9.7144
G01 X2.2660 Y9.7419
G01 X2.2612 Y9.7559
G01 X2.2526 Y9.7840
G01 X2.2455 Y9.8126
G01 X2.2424 Y9.8270
G01 X2.2397 Y9.8415
G01 X2.2354 Y9.8706
G01 X2.2338 Y9.8853
G01 X2.2316 Y9.9146
G01 X2.2309 Y9.9441
G01 X2.2309 Y10.6459
G00 Z2.0000
G00 X2.2309 Y89.3859
G01 F80.00
G01 Z-0.2000
G01 F100.00
G01 X2.2311 Y89.4006
G01 X2.2325 Y89.4301
G01 X2.2354 Y89.4594
G01 X2.2374 Y89.4740
G01 X2.2424 Y89.5030
G01 X2.2455 Y89.5174
G01 X2.2489 Y89.5317
G01 X2.2567 Y89.5601
G01 X2.2612 Y89.5741
G01 X2.2711 Y89.6019
G01 X2.2766 Y89.6156
G01 X2.2885 Y89.6425
G01 X2.3018 Y89.6688
G01 X2.3089 Y89.6817
G01 X2.3240 Y89.7070
G01 X2.3320 Y89.7193
G01 X2.3490 Y89.7434
G01 X2.3579 Y89.7551
G01 X2.3671 Y89.7666
G01 X2.3864 Y89.7889
G01 X2.4067 Y89.8102
G01 X2.4172 Y89.8205
G01 X2.4280 Y89.8306
G01 X2.4503 Y89.8498
G01 X2.4735 Y89.8679
G01 X2.4855 Y89.8765
G01 X2.4976 Y89.8849
G01 X2.5225 Y89.9006
G01 X2.5481 Y89.9151
G01 X2.5744 Y89.9284
G01 X2.5878 Y89.9345
G01 X2.6150 Y89.9458
G01 X2.6428 Y89.9557
G01 X2.6568 Y89.9602
G01 X2.6852 Y89.9680
G01 X2.6995 Y89.9714
G01 X2.7284 Y89.9772
G01 X2.7429 Y89.9795
G01 X2.7575 Y89.9815
G01 X2.7869 Y89.9844
G01 X2.8163 Y89.9858
G01 X2.8310 Y89.9860
G01 X2.8604 Y89.9853
G01 X2.8751 Y89.9844
G01 X2.9045 Y89.9815
G01 X2.9336 Y89.9772
G01 X2.9625 Y89.9714
G01 X2.9768 Y89.9680
G01 X3.0052 Y89.9602
G01 X3.0192 Y89.9557
G01 X3.0470 Y89.9458
G01 X3.0606 Y89.9403
G01 X3.0876 Y89.9284
G01 X3.1139 Y89.9151
G01 X3.1395 Y89.9006
G01 X3.1521 Y89.8929
G01 X3.1765 Y89.8765
G01 X3.1885 Y89.8679
G01 X3.2117 Y89.8498
G01 X3.2230 Y89.8403
G01 X3.2448 Y89.8205
G01 X3.2553 Y89.8102
G01 X3.2656 Y89.7997
G01 X3.2854 Y89.7779
G01 X3.3041 Y89.7551
G01 X3.3130 Y89.7434
G01 X3.3216 Y89.7314
G01 X3.3380 Y89.7070
G01 X3.3531 Y89.6817
G01 X3.3602 Y89.6688
G01 X3.3735 Y89.6425
G01 X3.3796 Y89.6291
G01 X3.3909 Y89.6019
G01 X3.3960 Y89.5881
G01 X3.4008 Y89.5741
G01 X3.4094 Y89.5460
G01 X3.4131 Y89.5317
G01 X3.4196 Y89.5030
G01 X3.4246 Y89.4740
G01 X3.4266 Y89.4594
G01 X3.4295 Y89.4301
G01 X3.4309 Y89.4006
G01 X3.4311 Y89.3859
G01 X3.4311 Y88.6841
G01 X3.4304 Y88.6546
G01 X3.4282 Y88.6253
G01 X3.4246 Y88.5960
G01 X3.4196 Y88.5670
G01 X3.4131 Y88.5383
G01 X3.4053 Y88.5099
G01 X3.3960 Y88.4819
G01 X3.3854 Y88.4544
G01 X3.3735 Y88.4275
G01 X3.3602 Y88.4012
G01 X3.3457 Y88.3756
G01 X3.3300 Y88.3507
G01 X3.3130 Y88.3266
G01 X3.2949 Y88.3034
G01 X3.2756 Y88.2811
G01 X3.2656 Y88.2703
G01 X3.2448 Y88.2495
G01 X3.2230 Y88.2297
G01 X3.2002 Y88.2110
G01 X3.1765 Y88.1935
G01 X3.1521 Y88.1771
G01 X3.1268 Y88.1620
G01 X3.1008 Y88.1481
G01 X3.0742 Y88.1355
G01 X3.0470 Y88.1242
G01 X3.0192 Y88.1143
G01 X2.9911 Y88.1057
G01 X2.9625 Y88.0986
G01 X2.9336 Y88.0928
G01 X2.9045 Y88.0885
G01 X2.8751 Y88.0856
G01 X2.8457 Y88.0842
G01 X2.8163 Y88.0842
G01 X2.7869 Y88.0856
G01 X2.7575 Y88.0885
G01 X2.7284 Y88.0928
G01 X2.6995 Y88.0986
G01 X2.6709 Y88.1057
G01 X2.6428 Y88.1143
G01 X2.6150 Y88.1242
G01 X2.5878 Y88.1355
G01 X2.5612 Y88.1481
G01 X2.5352 Y88.1620
G01 X2.5099 Y88.1771
G01 X2.4855 Y88.1935
G01 X2.4618 Y88.2110
G01 X2.4390 Y88.2297
G01 X2.4172 Y88.2495
G01 X2.3964 Y88.2703
G01 X2.3766 Y88.2921
G01 X2.3579 Y88.3149
G01 X2.3490 Y88.3266
G01 X2.3404 Y88.3386
G01 X2.3240 Y88.3630
G01 X2.3089 Y88.3883
G01 X2.3018 Y88.4012
G01 X2.2950 Y88.4143
G01 X2.2824 Y88.4409
G01 X2.2711 Y88.4681
G01 X2.2660 Y88.4819
G01 X2.2612 Y88.4959
G01 X2.2526 Y88.5240
G01 X2.2489 Y88.5383
G01 X2.2424 Y88.5670
G01 X2.2397 Y88.5815
G01 X2.2354 Y88.6106
G01 X2.2325 Y88.6399
G01 X2.2311 Y88.6694
G01 X2.2309 Y88.6841
G01 X2.2309 Y89.3859
G00 X2.2309 Y89.3859
G01 F80.00
G01 Z-0.4000
G01 F100.00
G01 X2.2311 Y89.4006
G01 X2.2325 Y89.4301
G01 X2.2354 Y89.4594
G01 X2.2374 Y89.4740
G01 X2.2424 Y89.5030
G01 X2.2455 Y89.5174
G01 X2.2489 Y89.5317
G01 X2.2567 Y89.5601
G01 X2.2612 Y89.5741
G01 X2.2711 Y89.6019
G01 X2.2766 Y89.6156
G01 X2.2885 Y89.6425
G01 X2.3018 Y89.6688
G01 X2.3089 Y89.6817
G01 X2.3240 Y89.7070
G01 X2.3320 Y89.7193
G01 X2.3490 Y89.7434
G01 X2.3579 Y89.7551
G01 X2.3671 Y89.7666
G01 X2.3864 Y89.7889
G01 X2.4067 Y89.8102
G01 X2.4172 Y89.8205
G01 X2.4280 Y89.8306
G01 X2.4503 Y89.8498
G01 X2.4735 Y89.8679
G01 X2.4855 Y89.8765
G01 X2.4976 Y89.8849
G01 X2.5225 Y89.9006
G01 X2.5481 Y89.9151
G01 X2.5744 Y89.9284
G01 X2.5878 Y89.9345
G01 X2.6150 Y89.9458
G01 X2.6428 Y89.9557
G01 X2.6568 Y89.9602
G01 X2.6852 Y89.9680
G01 X2.6995 Y89.9714
G01 X2.7284 Y89.9772
G01 X2.7429 Y89.9795
G01 X2.7575 Y89.9815
G01 X2.7869 Y89.9844
G01 X2.8163 Y89.9858
G01 X2.8310 Y89.9860
G01 X2.8604 Y89.9853
G01 X2.8751 Y89.9844
G01 X2.9045 Y89.9815
G01 X2.9336 Y89.9772
G01 X2.9625 Y89.9714
G01 X2.9768 Y89.9680
G01 X3.0052 Y89.9602
G01 X3.0192 Y89.9557
G01 X3.0470 Y89.9458
G01 X3.0606 Y89.9403
G01 X3.0876 Y89.9284
G01 X3.1139 Y89.9151
G01 X3.1395 Y89.9006
G01 X3.1521 Y89.8929
G01 X3.1765 Y89.8765
G01 X3.1885 Y89.8679
G01 X3.2117 Y89.8498
G01 X3.2230 Y89.8403
G01 X3.2448 Y89.8205
G01 X3.2553 Y89.8102
G01 X3.2656 Y89.7997
G01 X3.2854 Y89.7779
G01 X3.3041 Y89.7551
G01 X3.3130 Y89.7434
G01 X3.3216 Y89.7314
G01 X3.3380 Y89.7070
G01 X3.3531 Y89.6817
G01 X3.3602 Y89.6688
G01 X3.3735 Y89.6425
G01 X3.3796 Y89.6291
G01 X3.3909 Y89.6019
G01 X3.3960 Y89.5881
G01 X3.4008 Y89.5741
G01 X3.4094 Y89.5460
G01 X3.4131 Y89.5317
G01 X3.4196 Y89.5030
G01 X3.4246 Y89.4740
G01 X3.4266 Y89.4594
G01 X3.4295 Y89.4301
G01 X3.4309 Y89.4006
G01 X3.4311 Y89.3859
G01 X3.4311 Y88.6841
G01 X3.4304 Y88.6546
G01 X3.4282 Y88.6253
G01 X3.4246 Y88.5960
G01 X3.4196 Y88.5670
G01 X3.4131 Y88.5383
G01 X3.4053 Y88.5099
G01 X3.3960 Y88.4819
G01 X3.3854 Y88.4544
G01 X3.3735 Y88.4275
G01 X3.3602 Y88.4012
G01 X3.3457 Y88.3756
G01 X3.3300 Y88.3507
G01 X3.3130 Y88.3266
G01 X3.2949 Y88.3034
G01 X3.2756 Y88.2811
G01 X3.2656 Y88.2703
G01 X3.2448 Y88.2495
G01 X3.2230 Y88.2297
G01 X3.2002 Y88.2110
G01 X3.1765 Y88.1935
G01 X3.1521 Y88.1771
G01 X3.1268 Y88.1620
G01 X3.1008 Y88.1481
G01 X3.0742 Y88.1355
G01 X3.0470 Y88.1242
G01 X3.0192 Y88.1143
G01 X2.9911 Y88.1057
G01 X2.9625 Y88.0986
G01 X2.9336 Y88.0928
G01 X2.9045 Y88.0885
G01 X2.8751 Y88.0856
G01 X2.8457 Y88.0842
G01 X2.8163 Y88.0842
G01 X2.7869 Y88.0856
G01 X2.7575 Y88.0885
G01 X2.7284 Y88.0928
G01 X2.6995 Y88.0986
G01 X2.6709 Y88.1057
G01 X2.6428 Y88.1143
G01 X2.6150 Y88.1242
G01 X2.5878 Y88.1355
G01 X2.5612 Y88.1481
G01 X2.5352 Y88.1620
G01 X2.5099 Y88.1771
G01 X2.4855 Y88.1935
G01 X2.4618 Y88.2110
G01 X2.4390 Y88.2297
G01 X2.4172 Y88.2495
G01 X2.3964 Y88.2703
G01 X2.3766 Y88.2921
G01 X2.3579 Y88.3149
G01 X2.3490 Y88.3266
G01 X2.3404 Y88.3386
G01 X2.3240 Y88.3630
G01 X2.3089 Y88.3883
G01 X2.3018 Y88.4012
G01 X2.2950 Y88.4143
G01 X2.2824 Y88.4409
G01 X2.2711 Y88.4681
G01 X2.2660 Y88.4819
G01 X2.2612 Y88.4959
G01 X2.2526 Y88.5240
G01 X2.2489 Y88.5383
G01 X2.2424 Y88.5670
G01 X2.2397 Y88.5815
G01 X2.2354 Y88.6106
G01 X2.2325 Y88.6399
G01 X2.2311 Y88.6694
G01 X2.2309 Y88.6841
G01 X2.2309 Y89.3859
G00 X2.2309 Y89.3859
G01 F80.00
G01 Z-0.6000
G01 F100.00
G01 X2.2311 Y89.4006
G01 X2.2325 Y89.4301
G01 X2.2354 Y89.4594
G01 X2.2374 Y89.4740
G01 X2.2424 Y89.5030
G01 X2.2455 Y89.5174
G01 X2.2489 Y89.5317
G01 X2.2567 Y89.5601
G01 X2.2612 Y89.5741
G01 X2.2711 Y89.6019
G01 X2.2766 Y89.6156
G01 X2.2885 Y89.6425
G01 X2.3018 Y89.6688
G01 X2.3089 Y89.6817
G01 X2.3240 Y89.7070
G01 X2.3320 Y89.7193
G01 X2.3490 Y89.7434
G01 X2.3579 Y89.7551
G01 X2.3671 Y89.7666
G01 X2.3864 Y89.7889
G01 X2.4067 Y89.8102
G01 X2.4172 Y89.8205
G01 X2.4280 Y89.8306
G01 X2.4503 Y89.8498
G01 X2.4735 Y89.8679
G01 X2.4855 Y89.8765
G01 X2.4976 Y89.8849
G01 X2.5225 Y89.9006
G01 X2.5481 Y89.9151
G01 X2.5744 Y89.9284
G01 X2.5878 Y89.9345
G01 X2.6150 Y89.9458
G01 X2.6428 Y89.9557
G01 X2.6568 Y89.9602
G01 X2.6852 Y89.9680
G01 X2.6995 Y89.9714
G01 X2.7284 Y89.9772
G01 X2.7429 Y89.9795
G01 X2.7575 Y89.9815
G01 X2.7869 Y89.9844
G01 X2.8163 Y89.9858
G01 X2.8310 Y89.9860
G01 X2.8604 Y89.9853
G01 X2.8751 Y89.9844
G01 X2.9045 Y89.9815
G01 X2.9336 Y89.9772
G01 X2.9625 Y89.9714
G01 X2.9768 Y89.9680
G01 X3.0052 Y89.9602
G01 X3.0192 Y89.9557
G01 X3.0470 Y89.9458
G01 X3.0606 Y89.9403
G01 X3.0876 Y89.9284
G01 X3.1139 Y89.9151
G01 X3.1395 Y89.9006
G01 X3.1521 Y89.8929
G01 X3.1765 Y89.8765
G01 X3.1885 Y89.8679
G01 X3.2117 Y89.8498
G01 X3.2230 Y89.8403
G01 X3.2448 Y89.8205
G01 X3.2553 Y89.8102
G01 X3.2656 Y89.7997
G01 X3.2854 Y89.7779
G01 X3.3041 Y89.7551
G01 X3.3130 Y89.7434
G01 X3.3216 Y89.7314
G01 X3.3380 Y89.7070
G01 X3.3531 Y89.6817
G01 X3.3602 Y89.6688
G01 X3.3735 Y89.6425
G01 X3.3796 Y89.6291
G01 X3.3909 Y89.6019
G01 X3.3960 Y89.5881
G01 X3.4008 Y89.5741
G01 X3.4094 Y89.5460
G01 X3.4131 Y89.5317
G01 X3.4196 Y89.5030
G01 X3.4246 Y89.4740
G01 X3.4266 Y89.4594
G01 X3.4295 Y89.4301
G01 X3.4309 Y89.4006
G01 X3.4311 Y89.3859
G01 X3.4311 Y88.6841
G01 X3.4304 Y88.6546
G01 X3.4282 Y88.6253
G01 X3.4246 Y88.5960
G01 X3.4196 Y88.5670
G01 X3.4131 Y88.5383
G01 X3.4053 Y88.5099
G01 X3.3960 Y88.4819
G01 X3.3854 Y88.4544
G01 X3.3735 Y88.4275
G01 X3.3602 Y88.4012
G01 X3.3457 Y88.3756
G01 X3.3300 Y88.3507
G01 X3.3130 Y88.3266
G01 X3.2949 Y88.3034
G01 X3.2756 Y88.2811
G01 X3.2656 Y88.2703
G01 X3.2448 Y88.2495
G01 X3.2230 Y88.2297
G01 X3.2002 Y88.2110
G01 X3.1765 Y88.1935
G01 X3.1521 Y88.1771
G01 X3.1268 Y88.1620
G01 X3.1008 Y88.1481
G01 X3.0742 Y88.1355
G01 X3.0470 Y88.1242
G01 X3.0192 Y88.1143
G01 X2.9911 Y88.1057
G01 X2.9625 Y88.0986
G01 X2.9336 Y88.0928
G01 X2.9045 Y88.0885
G01 X2.8751 Y88.0856
G01 X2.8457 Y88.0842
G01 X2.8163 Y88.0842
G01 X2.7869 Y88.0856
G01 X2.7575 Y88.0885
G01 X2.7284 Y88.0928
G01 X2.6995 Y88.0986
G01 X2.6709 Y88.1057
G01 X2.6428 Y88.1143
G01 X2.6150 Y88.1242
G01 X2.5878 Y88.1355
G01 X2.5612 Y88.1481
G01 X2.5352 Y88.1620
G01 X2.5099 Y88.1771
G01 X2.4855 Y88.1935
G01 X2.4618 Y88.2110
G01 X2.4390 Y88.2297
G01 X2.4172 Y88.2495
G01 X2.3964 Y88.2703
G01 X2.3766 Y88.2921
G01 X2.3579 Y88.3149
G01 X2.3490 Y88.3266
G01 X2.3404 Y88.3386
G01 X2.3240 Y88.3630
G01 X2.3089 Y88.3883
G01 X2.3018 Y88.4012
G01 X2.2950 Y88.4143
G01 X2.2824 Y88.4409
G01 X2.2711 Y88.4681
G01 X2.2660 Y88.4819
G01 X2.2612 Y88.4959
G01 X2.2526 Y88.5240
G01 X2.2489 Y88.5383
G01 X2.2424 Y88.5670
G01 X2.2397 Y88.5815
G01 X2.2354 Y88.6106
G01 X2.2325 Y88.6399
G01 X2.2311 Y88.6694
G01 X2.2309 Y88.6841
G01 X2.2309 Y89.3859
G00 X2.2309 Y89.3859
G01 F80.00
G01 Z-0.8000
G01 F100.00
G01 X2.2311 Y89.4006
G01 X2.2325 Y89.4301
G01 X2.2354 Y89.4594
G01 X2.2374 Y89.4740
G01 X2.2424 Y89.5030
G01 X2.2455 Y89.5174
G01 X2.2489 Y89.5317
G01 X2.2567 Y89.5601
G01 X2.2612 Y89.5741
G01 X2.2711 Y89.6019
G01 X2.2766 Y89.6156
G01 X2.2885 Y89.6425
G01 X2.3018 Y89.6688
G01 X2.3089 Y89.6817
G01 X2.3240 Y89.7070
G01 X2.3320 Y89.7193
G01 X2.3490 Y89.7434
G01 X2.3579 Y89.7551
G01 X2.3671 Y89.7666
G01 X2.3864 Y89.7889
G01 X2.4067 Y89.8102
G01 X2.4172 Y89.8205
G01 X2.4280 Y89.8306
G01 X2.4503 Y89.8498
G01 X2.4735 Y89.8679
G01 X2.4855 Y89.8765
G01 X2.4976 Y89.8849
G01 X2.5225 Y89.9006
G01 X2.5481 Y89.9151
G01 X2.5744 Y89.9284
G01 X2.5878 Y89.9345
G01 X2.6150 Y89.9458
G01 X2.6428 Y89.9557
G01 X2.6568 Y89.9602
G01 X2.6852 Y89.9680
G01 X2.6995 Y89.9714
G01 X2.7284 Y89.9772
G01 X2.7429 Y89.9795
G01 X2.7575 Y89.9815
G01 X2.7869 Y89.9844
G01 X2.8163 Y89.9858
G01 X2.8310 Y89.9860
G01 X2.8604 Y89.9853
G01 X2.8751 Y89.9844
G01 X2.9045 Y89.9815
G01 X2.9336 Y89.9772
G01 X2.9625 Y89.9714
G01 X2.9768 Y89.9680
G01 X3.0052 Y89.9602
G01 X3.0192 Y89.9557
G01 X3.0470 Y89.9458
G01 X3.0606 Y89.9403
G01 X3.0876 Y89.9284
G01 X3.1139 Y89.9151
G01 X3.1395 Y89.9006
G01 X3.1521 Y89.8929
G01 X3.1765 Y89.8765
G01 X3.1885 Y89.8679
G01 X3.2117 Y89.8498
G01 X3.2230 Y89.8403
G01 X3.2448 Y89.8205
G01 X3.2553 Y89.8102
G01 X3.2656 Y89.7997
G01 X3.2854 Y89.7779
G01 X3.3041 Y89.7551
G01 X3.3130 Y89.7434
G01 X3.3216 Y89.7314
G01 X3.3380 Y89.7070
G01 X3.3531 Y89.6817
G01 X3.3602 Y89.6688
G01 X3.3735 Y89.6425
G01 X3.3796 Y89.6291
G01 X3.3909 Y89.6019
G01 X3.3960 Y89.5881
G01 X3.4008 Y89.5741
G01 X3.4094 Y89.5460
G01 X3.4131 Y89.5317
G01 X3.4196 Y89.5030
G01 X3.4246 Y89.4740
G01 X3.4266 Y89.4594
G01 X3.4295 Y89.4301
G01 X3.4309 Y89.4006
G01 X3.4311 Y89.3859
G01 X3.4311 Y88.6841
G01 X3.4304 Y88.6546
G01 X3.4282 Y88.6253
G01 X3.4246 Y88.5960
G01 X3.4196 Y88.5670
G01 X3.4131 Y88.5383
G01 X3.4053 Y88.5099
G01 X3.3960 Y88.4819
G01 X3.3854 Y88.4544
G01 X3.3735 Y88.4275
G01 X3.3602 Y88.4012
G01 X3.3457 Y88.3756
G01 X3.3300 Y88.3507
G01 X3.3130 Y88.3266
G01 X3.2949 Y88.3034
G01 X3.2756 Y88.2811
G01 X3.2656 Y88.2703
G01 X3.2448 Y88.2495
G01 X3.2230 Y88.2297
G01 X3.2002 Y88.2110
G01 X3.1765 Y88.1935
G01 X3.1521 Y88.1771
G01 X3.1268 Y88.1620
G01 X3.1008 Y88.1481
G01 X3.0742 Y88.1355
G01 X3.0470 Y88.1242
G01 X3.0192 Y88.1143
G01 X2.9911 Y88.1057
G01 X2.9625 Y88.0986
G01 X2.9336 Y88.0928
G01 X2.9045 Y88.0885
G01 X2.8751 Y88.0856
G01 X2.8457 Y88.0842
G01 X2.8163 Y88.0842
G01 X2.7869 Y88.0856
G01 X2.7575 Y88.0885
G01 X2.7284 Y88.0928
G01 X2.6995 Y88.0986
G01 X2.6709 Y88.1057
G01 X2.6428 Y88.1143
G01 X2.6150 Y88.1242
G01 X2.5878 Y88.1355
G01 X2.5612 Y88.1481
G01 X2.5352 Y88.1620
G01 X2.5099 Y88.1771
G01 X2.4855 Y88.1935
G01 X2.4618 Y88.2110
G01 X2.4390 Y88.2297
G01 X2.4172 Y88.2495
G01 X2.3964 Y88.2703
G01 X2.3766 Y88.2921
G01 X2.3579 Y88.3149
G01 X2.3490 Y88.3266
G01 X2.3404 Y88.3386
G01 X2.3240 Y88.3630
G01 X2.3089 Y88.3883
G01 X2.3018 Y88.4012
G01 X2.2950 Y88.4143
G01 X2.2824 Y88.4409
G01 X2.2711 Y88.4681
G01 X2.2660 Y88.4819
G01 X2.2612 Y88.4959
G01 X2.2526 Y88.5240
G01 X2.2489 Y88.5383
G01 X2.2424 Y88.5670
G01 X2.2397 Y88.5815
G01 X2.2354 Y88.6106
G01 X2.2325 Y88.6399
G01 X2.2311 Y88.6694
G01 X2.2309 Y88.6841
G01 X2.2309 Y89.3859
G00 X2.2309 Y89.3859
G01 F80.00
G01 Z-1.0000
G01 F100.00
G01 X2.2311 Y89.4006
G01 X2.2325 Y89.4301
G01 X2.2354 Y89.4594
G01 X2.2374 Y89.4740
G01 X2.2424 Y89.5030
G01 X2.2455 Y89.5174
G01 X2.2489 Y89.5317
G01 X2.2567 Y89.5601
G01 X2.2612 Y89.5741
G01 X2.2711 Y89.6019
G01 X2.2766 Y89.6156
G01 X2.2885 Y89.6425
G01 X2.3018 Y89.6688
G01 X2.3089 Y89.6817
G01 X2.3240 Y89.7070
G01 X2.3320 Y89.7193
G01 X2.3490 Y89.7434
G01 X2.3579 Y89.7551
G01 X2.3671 Y89.7666
G01 X2.3864 Y89.7889
G01 X2.4067 Y89.8102
G01 X2.4172 Y89.8205
G01 X2.4280 Y89.8306
G01 X2.4503 Y89.8498
G01 X2.4735 Y89.8679
G01 X2.4855 Y89.8765
G01 X2.4976 Y89.8849
G01 X2.5225 Y89.9006
G01 X2.5481 Y89.9151
G01 X2.5744 Y89.9284
G01 X2.5878 Y89.9345
G01 X2.6150 Y89.9458
G01 X2.6428 Y89.9557
G01 X2.6568 Y89.9602
G01 X2.6852 Y89.9680
G01 X2.6995 Y89.9714
G01 X2.7284 Y89.9772
G01 X2.7429 Y89.9795
G01 X2.7575 Y89.9815
G01 X2.7869 Y89.9844
G01 X2.8163 Y89.9858
G01 X2.8310 Y89.9860
G01 X2.8604 Y89.9853
G01 X2.8751 Y89.9844
G01 X2.9045 Y89.9815
G01 X2.9336 Y89.9772
G01 X2.9625 Y89.9714
G01 X2.9768 Y89.9680
G01 X3.0052 Y89.9602
G01 X3.0192 Y89.9557
G01 X3.0470 Y89.9458
G01 X3.0606 Y89.9403
G01 X3.0876 Y89.9284
G01 X3.1139 Y89.9151
G01 X3.1395 Y89.9006
G01 X3.1521 Y89.8929
G01 X3.1765 Y89.8765
G01 X3.1885 Y89.8679
G01 X3.2117 Y89.8498
G01 X3.2230 Y89.8403
G01 X3.2448 Y89.8205
G01 X3.2553 Y89.8102
G01 X3.2656 Y89.7997
G01 X3.2854 Y89.7779
G01 X3.3041 Y89.7551
G01 X3.3130 Y89.7434
G01 X3.3216 Y89.7314
G01 X3.3380 Y89.7070
G01 X3.3531 Y89.6817
G01 X3.3602 Y89.6688
G01 X3.3735 Y89.6425
G01 X3.3796 Y89.6291
G01 X3.3909 Y89.6019
G01 X3.3960 Y89.5881
G01 X3.4008 Y89.5741
G01 X3.4094 Y89.5460
G01 X3.4131 Y89.5317
G01 X3.4196 Y89.5030
G01 X3.4246 Y89.4740
G01 X3.4266 Y89.4594
G01 X3.4295 Y89.4301
G01 X3.4309 Y89.4006
G01 X3.4311 Y89.3859
G01 X3.4311 Y88.6841
G01 X3.4304 Y88.6546
G01 X3.4282 Y88.6253
G01 X3.4246 Y88.5960
G01 X3.4196 Y88.5670
G01 X3.4131 Y88.5383
G01 X3.4053 Y88.5099
G01 X3.3960 Y88.4819
G01 X3.3854 Y88.4544
G01 X3.3735 Y88.4275
G01 X3.3602 Y88.4012
G01 X3.3457 Y88.3756
G01 X3.3300 Y88.3507
G01 X3.3130 Y88.3266
G01 X3.2949 Y88.3034
G01 X3.2756 Y88.2811
G01 X3.2656 Y88.2703
G01 X3.2448 Y88.2495
G01 X3.2230 Y88.2297
G01 X3.2002 Y88.2110
G01 X3.1765 Y88.1935
G01 X3.1521 Y88.1771
G01 X3.1268 Y88.1620
G01 X3.1008 Y88.1481
G01 X3.0742 Y88.1355
G01 X3.0470 Y88.1242
G01 X3.0192 Y88.1143
G01 X2.9911 Y88.1057
G01 X2.9625 Y88.0986
G01 X2.9336 Y88.0928
G01 X2.9045 Y88.0885
G01 X2.8751 Y88.0856
G01 X2.8457 Y88.0842
G01 X2.8163 Y88.0842
G01 X2.7869 Y88.0856
G01 X2.7575 Y88.0885
G01 X2.7284 Y88.0928
G01 X2.6995 Y88.0986
G01 X2.6709 Y88.1057
G01 X2.6428 Y88.1143
G01 X2.6150 Y88.1242
G01 X2.5878 Y88.1355
G01 X2.5612 Y88.1481
G01 X2.5352 Y88.1620
G01 X2.5099 Y88.1771
G01 X2.4855 Y88.1935
G01 X2.4618 Y88.2110
G01 X2.4390 Y88.2297
G01 X2.4172 Y88.2495
G01 X2.3964 Y88.2703
G01 X2.3766 Y88.2921
G01 X2.3579 Y88.3149
G01 X2.3490 Y88.3266
G01 X2.3404 Y88.3386
G01 X2.3240 Y88.3630
G01 X2.3089 Y88.3883
G01 X2.3018 Y88.4012
G01 X2.2950 Y88.4143
G01 X2.2824 Y88.4409
G01 X2.2711 Y88.4681
G01 X2.2660 Y88.4819
G01 X2.2612 Y88.4959
G01 X2.2526 Y88.5240
G01 X2.2489 Y88.5383
G01 X2.2424 Y88.5670
G01 X2.2397 Y88.5815
G01 X2.2354 Y88.6106
G01 X2.2325 Y88.6399
G01 X2.2311 Y88.6694
G01 X2.2309 Y88.6841
G01 X2.2309 Y89.3859
G00 X2.2309 Y89.3859
G01 F80.00
G01 Z-1.2000
G01 F100.00
G01 X2.2311 Y89.4006
G01 X2.2325 Y89.4301
G01 X2.2354 Y89.4594
G01 X2.2374 Y89.4740
G01 X2.2424 Y89.5030
G01 X2.2455 Y89.5174
G01 X2.2489 Y89.5317
G01 X2.2567 Y89.5601
G01 X2.2612 Y89.5741
G01 X2.2711 Y89.6019
G01 X2.2766 Y89.6156
G01 X2.2885 Y89.6425
G01 X2.3018 Y89.6688
G01 X2.3089 Y89.6817
G01 X2.3240 Y89.7070
G01 X2.3320 Y89.7193
G01 X2.3490 Y89.7434
G01 X2.3579 Y89.7551
G01 X2.3671 Y89.7666
G01 X2.3864 Y89.7889
G01 X2.4067 Y89.8102
G01 X2.4172 Y89.8205
G01 X2.4280 Y89.8306
G01 X2.4503 Y89.8498
G01 X2.4735 Y89.8679
G01 X2.4855 Y89.8765
G01 X2.4976 Y89.8849
G01 X2.5225 Y89.9006
G01 X2.5481 Y89.9151
G01 X2.5744 Y89.9284
G01 X2.5878 Y89.9345
G01 X2.6150 Y89.9458
G01 X2.6428 Y89.9557
G01 X2.6568 Y89.9602
G01 X2.6852 Y89.9680
G01 X2.6995 Y89.9714
G01 X2.7284 Y89.9772
G01 X2.7429 Y89.9795
G01 X2.7575 Y89.9815
G01 X2.7869 Y89.9844
G01 X2.8163 Y89.9858
G01 X2.8310 Y89.9860
G01 X2.8604 Y89.9853
G01 X2.8751 Y89.9844
G01 X2.9045 Y89.9815
G01 X2.9336 Y89.9772
G01 X2.9625 Y89.9714
G01 X2.9768 Y89.9680
G01 X3.0052 Y89.9602
G01 X3.0192 Y89.9557
G01 X3.0470 Y89.9458
G01 X3.0606 Y89.9403
G01 X3.0876 Y89.9284
G01 X3.1139 Y89.9151
G01 X3.1395 Y89.9006
G01 X3.1521 Y89.8929
G01 X3.1765 Y89.8765
G01 X3.1885 Y89.8679
G01 X3.2117 Y89.8498
G01 X3.2230 Y89.8403
G01 X3.2448 Y89.8205
G01 X3.2553 Y89.8102
G01 X3.2656 Y89.7997
G01 X3.2854 Y89.7779
G01 X3.3041 Y89.7551
G01 X3.3130 Y89.7434
G01 X3.3216 Y89.7314
G01 X3.3380 Y89.7070
G01 X3.3531 Y89.6817
G01 X3.3602 Y89.6688
G01 X3.3735 Y89.6425
G01 X3.3796 Y89.6291
G01 X3.3909 Y89.6019
G01 X3.3960 Y89.5881
G01 X3.4008 Y89.5741
G01 X3.4094 Y89.5460
G01 X3.4131 Y89.5317
G01 X3.4196 Y89.5030
G01 X3.4246 Y89.4740
G01 X3.4266 Y89.4594
G01 X3.4295 Y89.4301
G01 X3.4309 Y89.4006
G01 X3.4311 Y89.3859
G01 X3.4311 Y88.6841
G01 X3.4304 Y88.6546
G01 X3.4282 Y88.6253
G01 X3.4246 Y88.5960
G01 X3.4196 Y88.5670
G01 X3.4131 Y88.5383
G01 X3.4053 Y88.5099
G01 X3.3960 Y88.4819
G01 X3.3854 Y88.4544
G01 X3.3735 Y88.4275
G01 X3.3602 Y88.4012
G01 X3.3457 Y88.3756
G01 X3.3300 Y88.3507
G01 X3.3130 Y88.3266
G01 X3.2949 Y88.3034
G01 X3.2756 Y88.2811
G01 X3.2656 Y88.2703
G01 X3.2448 Y88.2495
G01 X3.2230 Y88.2297
G01 X3.2002 Y88.2110
G01 X3.1765 Y88.1935
G01 X3.1521 Y88.1771
G01 X3.1268 Y88.1620
G01 X3.1008 Y88.1481
G01 X3.0742 Y88.1355
G01 X3.0470 Y88.1242
G01 X3.0192 Y88.1143
G01 X2.9911 Y88.1057
G01 X2.9625 Y88.0986
G01 X2.9336 Y88.0928
G01 X2.9045 Y88.0885
G01 X2.8751 Y88.0856
G01 X2.8457 Y88.0842
G01 X2.8163 Y88.0842
G01 X2.7869 Y88.0856
G01 X2.7575 Y88.0885
G01 X2.7284 Y88.0928
G01 X2.6995 Y88.0986
G01 X2.6709 Y88.1057
G01 X2.6428 Y88.1143
G01 X2.6150 Y88.1242
G01 X2.5878 Y88.1355
G01 X2.5612 Y88.1481
G01 X2.5352 Y88.1620
G01 X2.5099 Y88.1771
G01 X2.4855 Y88.1935
G01 X2.4618 Y88.2110
G01 X2.4390 Y88.2297
G01 X2.4172 Y88.2495
G01 X2.3964 Y88.2703
G01 X2.3766 Y88.2921
G01 X2.3579 Y88.3149
G01 X2.3490 Y88.3266
G01 X2.3404 Y88.3386
G01 X2.3240 Y88.3630
G01 X2.3089 Y88.3883
G01 X2.3018 Y88.4012
G01 X2.2950 Y88.4143
G01 X2.2824 Y88.4409
G01 X2.2711 Y88.4681
G01 X2.2660 Y88.4819
G01 X2.2612 Y88.4959
G01 X2.2526 Y88.5240
G01 X2.2489 Y88.5383
G01 X2.2424 Y88.5670
G01 X2.2397 Y88.5815
G01 X2.2354 Y88.6106
G01 X2.2325 Y88.6399
G01 X2.2311 Y88.6694
G01 X2.2309 Y88.6841
G01 X2.2309 Y89.3859
G00 X2.2309 Y89.3859
G01 F80.00
G01 Z-1.4000
G01 F100.00
G01 X2.2311 Y89.4006
G01 X2.2325 Y89.4301
G01 X2.2354 Y89.4594
G01 X2.2374 Y89.4740
G01 X2.2424 Y89.5030
G01 X2.2455 Y89.5174
G01 X2.2489 Y89.5317
G01 X2.2567 Y89.5601
G01 X2.2612 Y89.5741
G01 X2.2711 Y89.6019
G01 X2.2766 Y89.6156
G01 X2.2885 Y89.6425
G01 X2.3018 Y89.6688
G01 X2.3089 Y89.6817
G01 X2.3240 Y89.7070
G01 X2.3320 Y89.7193
G01 X2.3490 Y89.7434
G01 X2.3579 Y89.7551
G01 X2.3671 Y89.7666
G01 X2.3864 Y89.7889
G01 X2.4067 Y89.8102
G01 X2.4172 Y89.8205
G01 X2.4280 Y89.8306
G01 X2.4503 Y89.8498
G01 X2.4735 Y89.8679
G01 X2.4855 Y89.8765
G01 X2.4976 Y89.8849
G01 X2.5225 Y89.9006
G01 X2.5481 Y89.9151
G01 X2.5744 Y89.9284
G01 X2.5878 Y89.9345
G01 X2.6150 Y89.9458
G01 X2.6428 Y89.9557
G01 X2.6568 Y89.9602
G01 X2.6852 Y89.9680
G01 X2.6995 Y89.9714
G01 X2.7284 Y89.9772
G01 X2.7429 Y89.9795
G01 X2.7575 Y89.9815
G01 X2.7869 Y89.9844
G01 X2.8163 Y89.9858
G01 X2.8310 Y89.9860
G01 X2.8604 Y89.9853
G01 X2.8751 Y89.9844
G01 X2.9045 Y89.9815
G01 X2.9336 Y89.9772
G01 X2.9625 Y89.9714
G01 X2.9768 Y89.9680
G01 X3.0052 Y89.9602
G01 X3.0192 Y89.9557
G01 X3.0470 Y89.9458
G01 X3.0606 Y89.9403
G01 X3.0876 Y89.9284
G01 X3.1139 Y89.9151
G01 X3.1395 Y89.9006
G01 X3.1521 Y89.8929
G01 X3.1765 Y89.8765
G01 X3.1885 Y89.8679
G01 X3.2117 Y89.8498
G01 X3.2230 Y89.8403
G01 X3.2448 Y89.8205
G01 X3.2553 Y89.8102
G01 X3.2656 Y89.7997
G01 X3.2854 Y89.7779
G01 X3.3041 Y89.7551
G01 X3.3130 Y89.7434
G01 X3.3216 Y89.7314
G01 X3.3380 Y89.7070
G01 X3.3531 Y89.6817
G01 X3.3602 Y89.6688
G01 X3.3735 Y89.6425
G01 X3.3796 Y89.6291
G01 X3.3909 Y89.6019
G01 X3.3960 Y89.5881
G01 X3.4008 Y89.5741
G01 X3.4094 Y89.5460
G01 X3.4131 Y89.5317
G01 X3.4196 Y89.5030
G01 X3.4246 Y89.4740
G01 X3.4266 Y89.4594
G01 X3.4295 Y89.4301
G01 X3.4309 Y89.4006
G01 X3.4311 Y89.3859
G01 X3.4311 Y88.6841
G01 X3.4304 Y88.6546
G01 X3.4282 Y88.6253
G01 X3.4246 Y88.5960
G01 X3.4196 Y88.5670
G01 X3.4131 Y88.5383
G01 X3.4053 Y88.5099
G01 X3.3960 Y88.4819
G01 X3.3854 Y88.4544
G01 X3.3735 Y88.4275
G01 X3.3602 Y88.4012
G01 X3.3457 Y88.3756
G01 X3.3300 Y88.3507
G01 X3.3130 Y88.3266
G01 X3.2949 Y88.3034
G01 X3.2756 Y88.2811
G01 X3.2656 Y88.2703
G01 X3.2448 Y88.2495
G01 X3.2230 Y88.2297
G01 X3.2002 Y88.2110
G01 X3.1765 Y88.1935
G01 X3.1521 Y88.1771
G01 X3.1268 Y88.1620
G01 X3.1008 Y88.1481
G01 X3.0742 Y88.1355
G01 X3.0470 Y88.1242
G01 X3.0192 Y88.1143
G01 X2.9911 Y88.1057
G01 X2.9625 Y88.0986
G01 X2.9336 Y88.0928
G01 X2.9045 Y88.0885
G01 X2.8751 Y88.0856
G01 X2.8457 Y88.0842
G01 X2.8163 Y88.0842
G01 X2.7869 Y88.0856
G01 X2.7575 Y88.0885
G01 X2.7284 Y88.0928
G01 X2.6995 Y88.0986
G01 X2.6709 Y88.1057
G01 X2.6428 Y88.1143
G01 X2.6150 Y88.1242
G01 X2.5878 Y88.1355
G01 X2.5612 Y88.1481
G01 X2.5352 Y88.1620
G01 X2.5099 Y88.1771
G01 X2.4855 Y88.1935
G01 X2.4618 Y88.2110
G01 X2.4390 Y88.2297
G01 X2.4172 Y88.2495
G01 X2.3964 Y88.2703
G01 X2.3766 Y88.2921
G01 X2.3579 Y88.3149
G01 X2.3490 Y88.3266
G01 X2.3404 Y88.3386
G01 X2.3240 Y88.3630
G01 X2.3089 Y88.3883
G01 X2.3018 Y88.4012
G01 X2.2950 Y88.4143
G01 X2.2824 Y88.4409
G01 X2.2711 Y88.4681
G01 X2.2660 Y88.4819
G01 X2.2612 Y88.4959
G01 X2.2526 Y88.5240
G01 X2.2489 Y88.5383
G01 X2.2424 Y88.5670
G01 X2.2397 Y88.5815
G01 X2.2354 Y88.6106
G01 X2.2325 Y88.6399
G01 X2.2311 Y88.6694
G01 X2.2309 Y88.6841
G01 X2.2309 Y89.3859
G00 X2.2309 Y89.3859
G01 F80.00
G01 Z-1.6000
G01 F100.00
G01 X2.2311 Y89.4006
G01 X2.2325 Y89.4301
G01 X2.2354 Y89.4594
G01 X2.2374 Y89.4740
G01 X2.2424 Y89.5030
G01 X2.2455 Y89.5174
G01 X2.2489 Y89.5317
G01 X2.2567 Y89.5601
G01 X2.2612 Y89.5741
G01 X2.2711 Y89.6019
G01 X2.2766 Y89.6156
G01 X2.2885 Y89.6425
G01 X2.3018 Y89.6688
G01 X2.3089 Y89.6817
G01 X2.3240 Y89.7070
G01 X2.3320 Y89.7193
G01 X2.3490 Y89.7434
G01 X2.3579 Y89.7551
G01 X2.3671 Y89.7666
G01 X2.3864 Y89.7889
G01 X2.4067 Y89.8102
G01 X2.4172 Y89.8205
G01 X2.4280 Y89.8306
G01 X2.4503 Y89.8498
G01 X2.4735 Y89.8679
G01 X2.4855 Y89.8765
G01 X2.4976 Y89.8849
G01 X2.5225 Y89.9006
G01 X2.5481 Y89.9151
G01 X2.5744 Y89.9284
G01 X2.5878 Y89.9345
G01 X2.6150 Y89.9458
G01 X2.6428 Y89.9557
G01 X2.6568 Y89.9602
G01 X2.6852 Y89.9680
G01 X2.6995 Y89.9714
G01 X2.7284 Y89.9772
G01 X2.7429 Y89.9795
G01 X2.7575 Y89.9815
G01 X2.7869 Y89.9844
G01 X2.8163 Y89.9858
G01 X2.8310 Y89.9860
G01 X2.8604 Y89.9853
G01 X2.8751 Y89.9844
G01 X2.9045 Y89.9815
G01 X2.9336 Y89.9772
G01 X2.9625 Y89.9714
G01 X2.9768 Y89.9680
G01 X3.0052 Y89.9602
G01 X3.0192 Y89.9557
G01 X3.0470 Y89.9458
G01 X3.0606 Y89.9403
G01 X3.0876 Y89.9284
G01 X3.1139 Y89.9151
G01 X3.1395 Y89.9006
G01 X3.1521 Y89.8929
G01 X3.1765 Y89.8765
G01 X3.1885 Y89.8679
G01 X3.2117 Y89.8498
G01 X3.2230 Y89.8403
G01 X3.2448 Y89.8205
G01 X3.2553 Y89.8102
G01 X3.2656 Y89.7997
G01 X3.2854 Y89.7779
G01 X3.3041 Y89.7551
G01 X3.3130 Y89.7434
G01 X3.3216 Y89.7314
G01 X3.3380 Y89.7070
G01 X3.3531 Y89.6817
G01 X3.3602 Y89.6688
G01 X3.3735 Y89.6425
G01 X3.3796 Y89.6291
G01 X3.3909 Y89.6019
G01 X3.3960 Y89.5881
G01 X3.4008 Y89.5741
G01 X3.4094 Y89.5460
G01 X3.4131 Y89.5317
G01 X3.4196 Y89.5030
G01 X3.4246 Y89.4740
G01 X3.4266 Y89.4594
G01 X3.4295 Y89.4301
G01 X3.4309 Y89.4006
G01 X3.4311 Y89.3859
G01 X3.4311 Y88.6841
G01 X3.4304 Y88.6546
G01 X3.4282 Y88.6253
G01 X3.4246 Y88.5960
G01 X3.4196 Y88.5670
G01 X3.4131 Y88.5383
G01 X3.4053 Y88.5099
G01 X3.3960 Y88.4819
G01 X3.3854 Y88.4544
G01 X3.3735 Y88.4275
G01 X3.3602 Y88.4012
G01 X3.3457 Y88.3756
G01 X3.3300 Y88.3507
G01 X3.3130 Y88.3266
G01 X3.2949 Y88.3034
G01 X3.2756 Y88.2811
G01 X3.2656 Y88.2703
G01 X3.2448 Y88.2495
G01 X3.2230 Y88.2297
G01 X3.2002 Y88.2110
G01 X3.1765 Y88.1935
G01 X3.1521 Y88.1771
G01 X3.1268 Y88.1620
G01 X3.1008 Y88.1481
G01 X3.0742 Y88.1355
G01 X3.0470 Y88.1242
G01 X3.0192 Y88.1143
G01 X2.9911 Y88.1057
G01 X2.9625 Y88.0986
G01 X2.9336 Y88.0928
G01 X2.9045 Y88.0885
G01 X2.8751 Y88.0856
G01 X2.8457 Y88.0842
G01 X2.8163 Y88.0842
G01 X2.7869 Y88.0856
G01 X2.7575 Y88.0885
G01 X2.7284 Y88.0928
G01 X2.6995 Y88.0986
G01 X2.6709 Y88.1057
G01 X2.6428 Y88.1143
G01 X2.6150 Y88.1242
G01 X2.5878 Y88.1355
G01 X2.5612 Y88.1481
G01 X2.5352 Y88.1620
G01 X2.5099 Y88.1771
G01 X2.4855 Y88.1935
G01 X2.4618 Y88.2110
G01 X2.4390 Y88.2297
G01 X2.4172 Y88.2495
G01 X2.3964 Y88.2703
G01 X2.3766 Y88.2921
G01 X2.3579 Y88.3149
G01 X2.3490 Y88.3266
G01 X2.3404 Y88.3386
G01 X2.3240 Y88.3630
G01 X2.3089 Y88.3883
G01 X2.3018 Y88.4012
G01 X2.2950 Y88.4143
G01 X2.2824 Y88.4409
G01 X2.2711 Y88.4681
G01 X2.2660 Y88.4819
G01 X2.2612 Y88.4959
G01 X2.2526 Y88.5240
G01 X2.2489 Y88.5383
G01 X2.2424 Y88.5670
G01 X2.2397 Y88.5815
G01 X2.2354 Y88.6106
G01 X2.2325 Y88.6399
G01 X2.2311 Y88.6694
G01 X2.2309 Y88.6841
G01 X2.2309 Y89.3859
G00 Z2.0000
M05
G00 Z2.0000
G00 Z2.00
G00 X0.0 Y0.0


