(G-CODE GENERATED BY FLATCAM v8.994 - www.flatcam.org - Version Date: 2020/11/7)

(Name: blackMD_mother-Edge_Cuts.gbr_cutout_cnc)
(Type: G-code from Geometry)
(Units: MM)

(Created on Wednesday, 06 March 2024 at 16:28)

(This preprocessor is the default preprocessor used by FlatCAM.)
(It is made to work with MACH3 compatible motion controllers.)

(TOOL DIAMETER: 0.8 mm)
(Feedrate_XY: 100.0 mm/min)
(Feedrate_Z: 80.0 mm/min)
(Feedrate rapids 1500.0 mm/min)

(Z_Cut: -1.6 mm)
(DepthPerCut: 0.2 mm <=>8 passes)
(Z_Move: 2.0 mm)
(Z Start: None mm)
(Z End: 2.0 mm)
(X,Y End: 0.0000, 0.0000 mm)
(Steps per circle: 64)
(Preprocessor Geometry: default)

(X range:   -0.5750 ...   99.6350  mm)
(Y range:   -0.5750 ...   99.6350  mm)

(Spindle Speed: 7000.0 RPM)
G21
G90
G94

G01 F100.00


G00 Z2.0000

M03 S7000.0
G01 F100.00
G00 X48.9800 Y-0.5750
G01 F80.00
G01 Z-0.2000
G01 F100.00
G01 X-0.0750 Y-0.5750
G01 X-0.1240 Y-0.5726
G01 X-0.1726 Y-0.5654
G01 X-0.2202 Y-0.5535
G01 X-0.2664 Y-0.5370
G01 X-0.3107 Y-0.5160
G01 X-0.3528 Y-0.4908
G01 X-0.3922 Y-0.4615
G01 X-0.4286 Y-0.4286
G01 X-0.4615 Y-0.3922
G01 X-0.4908 Y-0.3528
G01 X-0.5160 Y-0.3107
G01 X-0.5370 Y-0.2664
G01 X-0.5535 Y-0.2202
G01 X-0.5654 Y-0.1726
G01 X-0.5726 Y-0.1240
G01 X-0.5750 Y-0.0750
G01 X-0.5750 Y48.9800
G00 X-0.5750 Y48.9800
G01 F80.00
G01 Z-0.4000
G01 F100.00
G01 X-0.5750 Y-0.0750
G01 X-0.5726 Y-0.1240
G01 X-0.5654 Y-0.1726
G01 X-0.5535 Y-0.2202
G01 X-0.5370 Y-0.2664
G01 X-0.5160 Y-0.3107
G01 X-0.4908 Y-0.3528
G01 X-0.4615 Y-0.3922
G01 X-0.4286 Y-0.4286
G01 X-0.3922 Y-0.4615
G01 X-0.3528 Y-0.4908
G01 X-0.3107 Y-0.5160
G01 X-0.2664 Y-0.5370
G01 X-0.2202 Y-0.5535
G01 X-0.1726 Y-0.5654
G01 X-0.1240 Y-0.5726
G01 X-0.0750 Y-0.5750
G01 X48.9800 Y-0.5750
G00 X48.9800 Y-0.5750
G01 F80.00
G01 Z-0.6000
G01 F100.00
G01 X-0.0750 Y-0.5750
G01 X-0.1240 Y-0.5726
G01 X-0.1726 Y-0.5654
G01 X-0.2202 Y-0.5535
G01 X-0.2664 Y-0.5370
G01 X-0.3107 Y-0.5160
G01 X-0.3528 Y-0.4908
G01 X-0.3922 Y-0.4615
G01 X-0.4286 Y-0.4286
G01 X-0.4615 Y-0.3922
G01 X-0.4908 Y-0.3528
G01 X-0.5160 Y-0.3107
G01 X-0.5370 Y-0.2664
G01 X-0.5535 Y-0.2202
G01 X-0.5654 Y-0.1726
G01 X-0.5726 Y-0.1240
G01 X-0.5750 Y-0.0750
G01 X-0.5750 Y48.9800
G00 X-0.5750 Y48.9800
G01 F80.00
G01 Z-0.8000
G01 F100.00
G01 X-0.5750 Y-0.0750
G01 X-0.5726 Y-0.1240
G01 X-0.5654 Y-0.1726
G01 X-0.5535 Y-0.2202
G01 X-0.5370 Y-0.2664
G01 X-0.5160 Y-0.3107
G01 X-0.4908 Y-0.3528
G01 X-0.4615 Y-0.3922
G01 X-0.4286 Y-0.4286
G01 X-0.3922 Y-0.4615
G01 X-0.3528 Y-0.4908
G01 X-0.3107 Y-0.5160
G01 X-0.2664 Y-0.5370
G01 X-0.2202 Y-0.5535
G01 X-0.1726 Y-0.5654
G01 X-0.1240 Y-0.5726
G01 X-0.0750 Y-0.5750
G01 X48.9800 Y-0.5750
G00 X48.9800 Y-0.5750
G01 F80.00
G01 Z-1.0000
G01 F100.00
G01 X-0.0750 Y-0.5750
G01 X-0.1240 Y-0.5726
G01 X-0.1726 Y-0.5654
G01 X-0.2202 Y-0.5535
G01 X-0.2664 Y-0.5370
G01 X-0.3107 Y-0.5160
G01 X-0.3528 Y-0.4908
G01 X-0.3922 Y-0.4615
G01 X-0.4286 Y-0.4286
G01 X-0.4615 Y-0.3922
G01 X-0.4908 Y-0.3528
G01 X-0.5160 Y-0.3107
G01 X-0.5370 Y-0.2664
G01 X-0.5535 Y-0.2202
G01 X-0.5654 Y-0.1726
G01 X-0.5726 Y-0.1240
G01 X-0.5750 Y-0.0750
G01 X-0.5750 Y48.9800
G00 X-0.5750 Y48.9800
G01 F80.00
G01 Z-1.2000
G01 F100.00
G01 X-0.5750 Y-0.0750
G01 X-0.5726 Y-0.1240
G01 X-0.5654 Y-0.1726
G01 X-0.5535 Y-0.2202
G01 X-0.5370 Y-0.2664
G01 X-0.5160 Y-0.3107
G01 X-0.4908 Y-0.3528
G01 X-0.4615 Y-0.3922
G01 X-0.4286 Y-0.4286
G01 X-0.3922 Y-0.4615
G01 X-0.3528 Y-0.4908
G01 X-0.3107 Y-0.5160
G01 X-0.2664 Y-0.5370
G01 X-0.2202 Y-0.5535
G01 X-0.1726 Y-0.5654
G01 X-0.1240 Y-0.5726
G01 X-0.0750 Y-0.5750
G01 X48.9800 Y-0.5750
G00 X48.9800 Y-0.5750
G01 F80.00
G01 Z-1.4000
G01 F100.00
G01 X-0.0750 Y-0.5750
G01 X-0.1240 Y-0.5726
G01 X-0.1726 Y-0.5654
G01 X-0.2202 Y-0.5535
G01 X-0.2664 Y-0.5370
G01 X-0.3107 Y-0.5160
G01 X-0.3528 Y-0.4908
G01 X-0.3922 Y-0.4615
G01 X-0.4286 Y-0.4286
G01 X-0.4615 Y-0.3922
G01 X-0.4908 Y-0.3528
G01 X-0.5160 Y-0.3107
G01 X-0.5370 Y-0.2664
G01 X-0.5535 Y-0.2202
G01 X-0.5654 Y-0.1726
G01 X-0.5726 Y-0.1240
G01 X-0.5750 Y-0.0750
G01 X-0.5750 Y48.9800
G00 X-0.5750 Y48.9800
G01 F80.00
G01 Z-1.6000
G01 F100.00
G01 X-0.5750 Y-0.0750
G01 X-0.5726 Y-0.1240
G01 X-0.5654 Y-0.1726
G01 X-0.5535 Y-0.2202
G01 X-0.5370 Y-0.2664
G01 X-0.5160 Y-0.3107
G01 X-0.4908 Y-0.3528
G01 X-0.4615 Y-0.3922
G01 X-0.4286 Y-0.4286
G01 X-0.3922 Y-0.4615
G01 X-0.3528 Y-0.4908
G01 X-0.3107 Y-0.5160
G01 X-0.2664 Y-0.5370
G01 X-0.2202 Y-0.5535
G01 X-0.1726 Y-0.5654
G01 X-0.1240 Y-0.5726
G01 X-0.0750 Y-0.5750
G01 X48.9800 Y-0.5750
G00 Z2.0000
G00 X-0.5750 Y50.2800
G01 F80.00
G01 Z-0.2000
G01 F100.00
G01 X-0.5750 Y99.1350
G01 X-0.5726 Y99.1840
G01 X-0.5654 Y99.2326
G01 X-0.5535 Y99.2802
G01 X-0.5370 Y99.3264
G01 X-0.5160 Y99.3707
G01 X-0.4908 Y99.4128
G01 X-0.4615 Y99.4522
G01 X-0.4286 Y99.4886
G01 X-0.3922 Y99.5215
G01 X-0.3528 Y99.5508
G01 X-0.3107 Y99.5760
G01 X-0.2664 Y99.5970
G01 X-0.2202 Y99.6135
G01 X-0.1726 Y99.6254
G01 X-0.1240 Y99.6326
G01 X-0.0750 Y99.6350
G01 X48.9800 Y99.6350
G00 X48.9800 Y99.6350
G01 F80.00
G01 Z-0.4000
G01 F100.00
G01 X-0.0750 Y99.6350
G01 X-0.1240 Y99.6326
G01 X-0.1726 Y99.6254
G01 X-0.2202 Y99.6135
G01 X-0.2664 Y99.5970
G01 X-0.3107 Y99.5760
G01 X-0.3528 Y99.5508
G01 X-0.3922 Y99.5215
G01 X-0.4286 Y99.4886
G01 X-0.4615 Y99.4522
G01 X-0.4908 Y99.4128
G01 X-0.5160 Y99.3707
G01 X-0.5370 Y99.3264
G01 X-0.5535 Y99.2802
G01 X-0.5654 Y99.2326
G01 X-0.5726 Y99.1840
G01 X-0.5750 Y99.1350
G01 X-0.5750 Y50.2800
G00 X-0.5750 Y50.2800
G01 F80.00
G01 Z-0.6000
G01 F100.00
G01 X-0.5750 Y99.1350
G01 X-0.5726 Y99.1840
G01 X-0.5654 Y99.2326
G01 X-0.5535 Y99.2802
G01 X-0.5370 Y99.3264
G01 X-0.5160 Y99.3707
G01 X-0.4908 Y99.4128
G01 X-0.4615 Y99.4522
G01 X-0.4286 Y99.4886
G01 X-0.3922 Y99.5215
G01 X-0.3528 Y99.5508
G01 X-0.3107 Y99.5760
G01 X-0.2664 Y99.5970
G01 X-0.2202 Y99.6135
G01 X-0.1726 Y99.6254
G01 X-0.1240 Y99.6326
G01 X-0.0750 Y99.6350
G01 X48.9800 Y99.6350
G00 X48.9800 Y99.6350
G01 F80.00
G01 Z-0.8000
G01 F100.00
G01 X-0.0750 Y99.6350
G01 X-0.1240 Y99.6326
G01 X-0.1726 Y99.6254
G01 X-0.2202 Y99.6135
G01 X-0.2664 Y99.5970
G01 X-0.3107 Y99.5760
G01 X-0.3528 Y99.5508
G01 X-0.3922 Y99.5215
G01 X-0.4286 Y99.4886
G01 X-0.4615 Y99.4522
G01 X-0.4908 Y99.4128
G01 X-0.5160 Y99.3707
G01 X-0.5370 Y99.3264
G01 X-0.5535 Y99.2802
G01 X-0.5654 Y99.2326
G01 X-0.5726 Y99.1840
G01 X-0.5750 Y99.1350
G01 X-0.5750 Y50.2800
G00 X-0.5750 Y50.2800
G01 F80.00
G01 Z-1.0000
G01 F100.00
G01 X-0.5750 Y99.1350
G01 X-0.5726 Y99.1840
G01 X-0.5654 Y99.2326
G01 X-0.5535 Y99.2802
G01 X-0.5370 Y99.3264
G01 X-0.5160 Y99.3707
G01 X-0.4908 Y99.4128
G01 X-0.4615 Y99.4522
G01 X-0.4286 Y99.4886
G01 X-0.3922 Y99.5215
G01 X-0.3528 Y99.5508
G01 X-0.3107 Y99.5760
G01 X-0.2664 Y99.5970
G01 X-0.2202 Y99.6135
G01 X-0.1726 Y99.6254
G01 X-0.1240 Y99.6326
G01 X-0.0750 Y99.6350
G01 X48.9800 Y99.6350
G00 X48.9800 Y99.6350
G01 F80.00
G01 Z-1.2000
G01 F100.00
G01 X-0.0750 Y99.6350
G01 X-0.1240 Y99.6326
G01 X-0.1726 Y99.6254
G01 X-0.2202 Y99.6135
G01 X-0.2664 Y99.5970
G01 X-0.3107 Y99.5760
G01 X-0.3528 Y99.5508
G01 X-0.3922 Y99.5215
G01 X-0.4286 Y99.4886
G01 X-0.4615 Y99.4522
G01 X-0.4908 Y99.4128
G01 X-0.5160 Y99.3707
G01 X-0.5370 Y99.3264
G01 X-0.5535 Y99.2802
G01 X-0.5654 Y99.2326
G01 X-0.5726 Y99.1840
G01 X-0.5750 Y99.1350
G01 X-0.5750 Y50.2800
G00 X-0.5750 Y50.2800
G01 F80.00
G01 Z-1.4000
G01 F100.00
G01 X-0.5750 Y99.1350
G01 X-0.5726 Y99.1840
G01 X-0.5654 Y99.2326
G01 X-0.5535 Y99.2802
G01 X-0.5370 Y99.3264
G01 X-0.5160 Y99.3707
G01 X-0.4908 Y99.4128
G01 X-0.4615 Y99.4522
G01 X-0.4286 Y99.4886
G01 X-0.3922 Y99.5215
G01 X-0.3528 Y99.5508
G01 X-0.3107 Y99.5760
G01 X-0.2664 Y99.5970
G01 X-0.2202 Y99.6135
G01 X-0.1726 Y99.6254
G01 X-0.1240 Y99.6326
G01 X-0.0750 Y99.6350
G01 X48.9800 Y99.6350
G00 X48.9800 Y99.6350
G01 F80.00
G01 Z-1.6000
G01 F100.00
G01 X-0.0750 Y99.6350
G01 X-0.1240 Y99.6326
G01 X-0.1726 Y99.6254
G01 X-0.2202 Y99.6135
G01 X-0.2664 Y99.5970
G01 X-0.3107 Y99.5760
G01 X-0.3528 Y99.5508
G01 X-0.3922 Y99.5215
G01 X-0.4286 Y99.4886
G01 X-0.4615 Y99.4522
G01 X-0.4908 Y99.4128
G01 X-0.5160 Y99.3707
G01 X-0.5370 Y99.3264
G01 X-0.5535 Y99.2802
G01 X-0.5654 Y99.2326
G01 X-0.5726 Y99.1840
G01 X-0.5750 Y99.1350
G01 X-0.5750 Y50.2800
G00 Z2.0000
G00 X50.2800 Y99.6350
G01 F80.00
G01 Z-0.2000
G01 F100.00
G01 X99.1350 Y99.6350
G01 X99.1840 Y99.6326
G01 X99.2326 Y99.6254
G01 X99.2802 Y99.6135
G01 X99.3264 Y99.5970
G01 X99.3707 Y99.5760
G01 X99.4128 Y99.5508
G01 X99.4522 Y99.5215
G01 X99.4886 Y99.4886
G01 X99.5215 Y99.4522
G01 X99.5508 Y99.4128
G01 X99.5760 Y99.3707
G01 X99.5970 Y99.3264
G01 X99.6135 Y99.2802
G01 X99.6254 Y99.2326
G01 X99.6326 Y99.1840
G01 X99.6350 Y99.1350
G01 X99.6350 Y50.2800
G00 X99.6350 Y50.2800
G01 F80.00
G01 Z-0.4000
G01 F100.00
G01 X99.6350 Y99.1350
G01 X99.6326 Y99.1840
G01 X99.6254 Y99.2326
G01 X99.6135 Y99.2802
G01 X99.5970 Y99.3264
G01 X99.5760 Y99.3707
G01 X99.5508 Y99.4128
G01 X99.5215 Y99.4522
G01 X99.4886 Y99.4886
G01 X99.4522 Y99.5215
G01 X99.4128 Y99.5508
G01 X99.3707 Y99.5760
G01 X99.3264 Y99.5970
G01 X99.2802 Y99.6135
G01 X99.2326 Y99.6254
G01 X99.1840 Y99.6326
G01 X99.1350 Y99.6350
G01 X50.2800 Y99.6350
G00 X50.2800 Y99.6350
G01 F80.00
G01 Z-0.6000
G01 F100.00
G01 X99.1350 Y99.6350
G01 X99.1840 Y99.6326
G01 X99.2326 Y99.6254
G01 X99.2802 Y99.6135
G01 X99.3264 Y99.5970
G01 X99.3707 Y99.5760
G01 X99.4128 Y99.5508
G01 X99.4522 Y99.5215
G01 X99.4886 Y99.4886
G01 X99.5215 Y99.4522
G01 X99.5508 Y99.4128
G01 X99.5760 Y99.3707
G01 X99.5970 Y99.3264
G01 X99.6135 Y99.2802
G01 X99.6254 Y99.2326
G01 X99.6326 Y99.1840
G01 X99.6350 Y99.1350
G01 X99.6350 Y50.2800
G00 X99.6350 Y50.2800
G01 F80.00
G01 Z-0.8000
G01 F100.00
G01 X99.6350 Y99.1350
G01 X99.6326 Y99.1840
G01 X99.6254 Y99.2326
G01 X99.6135 Y99.2802
G01 X99.5970 Y99.3264
G01 X99.5760 Y99.3707
G01 X99.5508 Y99.4128
G01 X99.5215 Y99.4522
G01 X99.4886 Y99.4886
G01 X99.4522 Y99.5215
G01 X99.4128 Y99.5508
G01 X99.3707 Y99.5760
G01 X99.3264 Y99.5970
G01 X99.2802 Y99.6135
G01 X99.2326 Y99.6254
G01 X99.1840 Y99.6326
G01 X99.1350 Y99.6350
G01 X50.2800 Y99.6350
G00 X50.2800 Y99.6350
G01 F80.00
G01 Z-1.0000
G01 F100.00
G01 X99.1350 Y99.6350
G01 X99.1840 Y99.6326
G01 X99.2326 Y99.6254
G01 X99.2802 Y99.6135
G01 X99.3264 Y99.5970
G01 X99.3707 Y99.5760
G01 X99.4128 Y99.5508
G01 X99.4522 Y99.5215
G01 X99.4886 Y99.4886
G01 X99.5215 Y99.4522
G01 X99.5508 Y99.4128
G01 X99.5760 Y99.3707
G01 X99.5970 Y99.3264
G01 X99.6135 Y99.2802
G01 X99.6254 Y99.2326
G01 X99.6326 Y99.1840
G01 X99.6350 Y99.1350
G01 X99.6350 Y50.2800
G00 X99.6350 Y50.2800
G01 F80.00
G01 Z-1.2000
G01 F100.00
G01 X99.6350 Y99.1350
G01 X99.6326 Y99.1840
G01 X99.6254 Y99.2326
G01 X99.6135 Y99.2802
G01 X99.5970 Y99.3264
G01 X99.5760 Y99.3707
G01 X99.5508 Y99.4128
G01 X99.5215 Y99.4522
G01 X99.4886 Y99.4886
G01 X99.4522 Y99.5215
G01 X99.4128 Y99.5508
G01 X99.3707 Y99.5760
G01 X99.3264 Y99.5970
G01 X99.2802 Y99.6135
G01 X99.2326 Y99.6254
G01 X99.1840 Y99.6326
G01 X99.1350 Y99.6350
G01 X50.2800 Y99.6350
G00 X50.2800 Y99.6350
G01 F80.00
G01 Z-1.4000
G01 F100.00
G01 X99.1350 Y99.6350
G01 X99.1840 Y99.6326
G01 X99.2326 Y99.6254
G01 X99.2802 Y99.6135
G01 X99.3264 Y99.5970
G01 X99.3707 Y99.5760
G01 X99.4128 Y99.5508
G01 X99.4522 Y99.5215
G01 X99.4886 Y99.4886
G01 X99.5215 Y99.4522
G01 X99.5508 Y99.4128
G01 X99.5760 Y99.3707
G01 X99.5970 Y99.3264
G01 X99.6135 Y99.2802
G01 X99.6254 Y99.2326
G01 X99.6326 Y99.1840
G01 X99.6350 Y99.1350
G01 X99.6350 Y50.2800
G00 X99.6350 Y50.2800
G01 F80.00
G01 Z-1.6000
G01 F100.00
G01 X99.6350 Y99.1350
G01 X99.6326 Y99.1840
G01 X99.6254 Y99.2326
G01 X99.6135 Y99.2802
G01 X99.5970 Y99.3264
G01 X99.5760 Y99.3707
G01 X99.5508 Y99.4128
G01 X99.5215 Y99.4522
G01 X99.4886 Y99.4886
G01 X99.4522 Y99.5215
G01 X99.4128 Y99.5508
G01 X99.3707 Y99.5760
G01 X99.3264 Y99.5970
G01 X99.2802 Y99.6135
G01 X99.2326 Y99.6254
G01 X99.1840 Y99.6326
G01 X99.1350 Y99.6350
G01 X50.2800 Y99.6350
G00 Z2.0000
G00 X99.6350 Y48.9800
G01 F80.00
G01 Z-0.2000
G01 F100.00
G01 X99.6350 Y-0.0750
G01 X99.6326 Y-0.1240
G01 X99.6254 Y-0.1726
G01 X99.6135 Y-0.2202
G01 X99.5970 Y-0.2664
G01 X99.5760 Y-0.3107
G01 X99.5508 Y-0.3528
G01 X99.5215 Y-0.3922
G01 X99.4886 Y-0.4286
G01 X99.4522 Y-0.4615
G01 X99.4128 Y-0.4908
G01 X99.3707 Y-0.5160
G01 X99.3264 Y-0.5370
G01 X99.2802 Y-0.5535
G01 X99.2326 Y-0.5654
G01 X99.1840 Y-0.5726
G01 X99.1350 Y-0.5750
G01 X50.2800 Y-0.5750
G00 X50.2800 Y-0.5750
G01 F80.00
G01 Z-0.4000
G01 F100.00
G01 X99.1350 Y-0.5750
G01 X99.1840 Y-0.5726
G01 X99.2326 Y-0.5654
G01 X99.2802 Y-0.5535
G01 X99.3264 Y-0.5370
G01 X99.3707 Y-0.5160
G01 X99.4128 Y-0.4908
G01 X99.4522 Y-0.4615
G01 X99.4886 Y-0.4286
G01 X99.5215 Y-0.3922
G01 X99.5508 Y-0.3528
G01 X99.5760 Y-0.3107
G01 X99.5970 Y-0.2664
G01 X99.6135 Y-0.2202
G01 X99.6254 Y-0.1726
G01 X99.6326 Y-0.1240
G01 X99.6350 Y-0.0750
G01 X99.6350 Y48.9800
G00 X99.6350 Y48.9800
G01 F80.00
G01 Z-0.6000
G01 F100.00
G01 X99.6350 Y-0.0750
G01 X99.6326 Y-0.1240
G01 X99.6254 Y-0.1726
G01 X99.6135 Y-0.2202
G01 X99.5970 Y-0.2664
G01 X99.5760 Y-0.3107
G01 X99.5508 Y-0.3528
G01 X99.5215 Y-0.3922
G01 X99.4886 Y-0.4286
G01 X99.4522 Y-0.4615
G01 X99.4128 Y-0.4908
G01 X99.3707 Y-0.5160
G01 X99.3264 Y-0.5370
G01 X99.2802 Y-0.5535
G01 X99.2326 Y-0.5654
G01 X99.1840 Y-0.5726
G01 X99.1350 Y-0.5750
G01 X50.2800 Y-0.5750
G00 X50.2800 Y-0.5750
G01 F80.00
G01 Z-0.8000
G01 F100.00
G01 X99.1350 Y-0.5750
G01 X99.1840 Y-0.5726
G01 X99.2326 Y-0.5654
G01 X99.2802 Y-0.5535
G01 X99.3264 Y-0.5370
G01 X99.3707 Y-0.5160
G01 X99.4128 Y-0.4908
G01 X99.4522 Y-0.4615
G01 X99.4886 Y-0.4286
G01 X99.5215 Y-0.3922
G01 X99.5508 Y-0.3528
G01 X99.5760 Y-0.3107
G01 X99.5970 Y-0.2664
G01 X99.6135 Y-0.2202
G01 X99.6254 Y-0.1726
G01 X99.6326 Y-0.1240
G01 X99.6350 Y-0.0750
G01 X99.6350 Y48.9800
G00 X99.6350 Y48.9800
G01 F80.00
G01 Z-1.0000
G01 F100.00
G01 X99.6350 Y-0.0750
G01 X99.6326 Y-0.1240
G01 X99.6254 Y-0.1726
G01 X99.6135 Y-0.2202
G01 X99.5970 Y-0.2664
G01 X99.5760 Y-0.3107
G01 X99.5508 Y-0.3528
G01 X99.5215 Y-0.3922
G01 X99.4886 Y-0.4286
G01 X99.4522 Y-0.4615
G01 X99.4128 Y-0.4908
G01 X99.3707 Y-0.5160
G01 X99.3264 Y-0.5370
G01 X99.2802 Y-0.5535
G01 X99.2326 Y-0.5654
G01 X99.1840 Y-0.5726
G01 X99.1350 Y-0.5750
G01 X50.2800 Y-0.5750
G00 X50.2800 Y-0.5750
G01 F80.00
G01 Z-1.2000
G01 F100.00
G01 X99.1350 Y-0.5750
G01 X99.1840 Y-0.5726
G01 X99.2326 Y-0.5654
G01 X99.2802 Y-0.5535
G01 X99.3264 Y-0.5370
G01 X99.3707 Y-0.5160
G01 X99.4128 Y-0.4908
G01 X99.4522 Y-0.4615
G01 X99.4886 Y-0.4286
G01 X99.5215 Y-0.3922
G01 X99.5508 Y-0.3528
G01 X99.5760 Y-0.3107
G01 X99.5970 Y-0.2664
G01 X99.6135 Y-0.2202
G01 X99.6254 Y-0.1726
G01 X99.6326 Y-0.1240
G01 X99.6350 Y-0.0750
G01 X99.6350 Y48.9800
G00 X99.6350 Y48.9800
G01 F80.00
G01 Z-1.4000
G01 F100.00
G01 X99.6350 Y-0.0750
G01 X99.6326 Y-0.1240
G01 X99.6254 Y-0.1726
G01 X99.6135 Y-0.2202
G01 X99.5970 Y-0.2664
G01 X99.5760 Y-0.3107
G01 X99.5508 Y-0.3528
G01 X99.5215 Y-0.3922
G01 X99.4886 Y-0.4286
G01 X99.4522 Y-0.4615
G01 X99.4128 Y-0.4908
G01 X99.3707 Y-0.5160
G01 X99.3264 Y-0.5370
G01 X99.2802 Y-0.5535
G01 X99.2326 Y-0.5654
G01 X99.1840 Y-0.5726
G01 X99.1350 Y-0.5750
G01 X50.2800 Y-0.5750
G00 X50.2800 Y-0.5750
G01 F80.00
G01 Z-1.6000
G01 F100.00
G01 X99.1350 Y-0.5750
G01 X99.1840 Y-0.5726
G01 X99.2326 Y-0.5654
G01 X99.2802 Y-0.5535
G01 X99.3264 Y-0.5370
G01 X99.3707 Y-0.5160
G01 X99.4128 Y-0.4908
G01 X99.4522 Y-0.4615
G01 X99.4886 Y-0.4286
G01 X99.5215 Y-0.3922
G01 X99.5508 Y-0.3528
G01 X99.5760 Y-0.3107
G01 X99.5970 Y-0.2664
G01 X99.6135 Y-0.2202
G01 X99.6254 Y-0.1726
G01 X99.6326 Y-0.1240
G01 X99.6350 Y-0.0750
G01 X99.6350 Y48.9800
G00 Z2.0000
M05
G00 Z2.0000
G00 Z2.00
G00 X0.0 Y0.0


