(G-CODE GENERATED BY FLATCAM v8.994 - www.flatcam.org - Version Date: 2020/11/7)

(Name: blackMD_mother-F_Cu.gbr_iso_combined_cnc)
(Type: G-code from Geometry)
(Units: MM)

(Created on Wednesday, 06 March 2024 at 16:29)

(This preprocessor is the default preprocessor used by FlatCAM.)
(It is made to work with MACH3 compatible motion controllers.)

(TOOL DIAMETER: 0.01 mm)
(Feedrate_XY: 100.0 mm/min)
(Feedrate_Z: 80.0 mm/min)
(Feedrate rapids 1500.0 mm/min)

(Z_Cut: -0.2 mm)
(Z_Move: 2.0 mm)
(Z Start: None mm)
(Z End: 2.0 mm)
(X,Y End: 0.0000, 0.0000 mm)
(Steps per circle: 64)
(Preprocessor Geometry: default)

(X range:   -0.0800 ...   99.1400  mm)
(Y range:   -0.0800 ...   99.1400  mm)

(Spindle Speed: 7000.0 RPM)
G21
G90
G94

G01 F100.00


G00 Z2.0000

M03 S7000.0
G01 F100.00
G00 X4.0768 Y9.8388
G01 F80.00
G01 Z-0.2000
G01 F100.00
G01 X4.0768 Y10.8068
G01 X4.0368 Y11.0274
G01 X3.9580 Y11.2373
G01 X3.8430 Y11.4297
G01 X3.6955 Y11.5986
G01 X3.5202 Y11.7383
G01 X3.3228 Y11.8446
G01 X3.1096 Y11.9139
G01 X2.8874 Y11.9440
G01 X2.6635 Y11.9339
G01 X2.4449 Y11.8840
G01 X2.2387 Y11.7959
G01 X2.0516 Y11.6724
G01 X1.8896 Y11.5174
G01 X1.7578 Y11.3361
G01 X1.6605 Y11.1341
G01 X1.6009 Y10.9180
G01 X1.5858 Y10.7506
G01 X1.5858 Y9.7826
G01 X1.6259 Y9.5620
G01 X1.7046 Y9.3521
G01 X1.8196 Y9.1596
G01 X1.9671 Y8.9908
G01 X2.1424 Y8.8510
G01 X2.3398 Y8.7448
G01 X2.5531 Y8.6755
G01 X2.7752 Y8.6454
G01 X2.9992 Y8.6555
G01 X3.2178 Y8.7054
G01 X3.4239 Y8.7935
G01 X3.6110 Y8.9170
G01 X3.7731 Y9.0719
G01 X3.9048 Y9.2533
G01 X4.0021 Y9.4553
G01 X4.0618 Y9.6714
G01 X4.0768 Y9.8388
G00 Z2.0000
G00 X7.8638 Y7.6269
G01 F80.00
G01 Z-0.2000
G01 F100.00
G01 X7.7798 Y7.4620
G01 X7.7319 Y7.2831
G01 X7.7258 Y7.2065
G01 X7.7258 Y5.8829
G01 X7.7319 Y5.8062
G01 X7.7798 Y5.6274
G01 X7.8638 Y5.4625
G01 X7.9803 Y5.3186
G01 X8.1241 Y5.2022
G01 X8.2890 Y5.1181
G01 X8.4679 Y5.0702
G01 X8.5445 Y5.0642
G01 X10.1181 Y5.0642
G01 X10.1948 Y5.0702
G01 X10.3736 Y5.1181
G01 X10.5385 Y5.2022
G01 X10.5981 Y5.2504
G01 X10.6100 Y5.2589
G01 X10.6793 Y5.2792
G01 X29.0860 Y5.2792
G01 X29.1388 Y5.2678
G01 X29.1408 Y5.2667
G01 X29.1945 Y5.2200
G01 X29.2150 Y5.1503
G01 X29.2150 Y0.1245
G01 X29.2054 Y0.0800
G01 X36.8378 Y0.0800
G01 X36.8250 Y0.1245
G01 X36.8250 Y10.1480
G01 X36.8255 Y10.1565
G01 X36.8257 Y10.1730
G01 X36.8303 Y10.2419
G01 X36.8259 Y10.2807
G01 X36.8255 Y10.2882
G01 X36.8255 Y14.4327
G01 X36.8461 Y14.5016
G01 X36.8665 Y14.5329
G01 X36.9651 Y14.7576
G01 X37.0253 Y14.9955
G01 X37.0456 Y15.2400
G01 X37.0253 Y15.4845
G01 X36.9651 Y15.7224
G01 X36.8665 Y15.9471
G01 X36.8456 Y15.9792
G01 X36.8255 Y16.0477
G01 X36.8255 Y16.9727
G01 X36.8461 Y17.0416
G01 X36.8665 Y17.0729
G01 X36.9651 Y17.2976
G01 X37.0253 Y17.5355
G01 X37.0456 Y17.7800
G01 X37.0253 Y18.0245
G01 X36.9651 Y18.2624
G01 X36.8665 Y18.4871
G01 X36.8456 Y18.5192
G01 X36.8255 Y18.5883
G01 X36.8255 Y39.8808
G01 X36.8363 Y39.9325
G01 X36.9351 Y40.1576
G01 X36.9953 Y40.3955
G01 X37.0156 Y40.6400
G01 X36.9953 Y40.8845
G01 X36.9351 Y41.1224
G01 X36.8363 Y41.3475
G01 X36.8255 Y41.3992
G01 X36.8255 Y42.4213
G01 X36.8363 Y42.4725
G01 X36.9351 Y42.6976
G01 X36.9953 Y42.9355
G01 X37.0156 Y43.1800
G01 X36.9953 Y43.4245
G01 X36.9351 Y43.6624
G01 X36.8363 Y43.8875
G01 X36.8255 Y43.9392
G01 X36.8255 Y65.2318
G01 X36.8257 Y65.2341
G01 X36.8461 Y65.3016
G01 X36.8665 Y65.3329
G01 X36.9651 Y65.5576
G01 X37.0253 Y65.7955
G01 X37.0456 Y66.0400
G01 X37.0253 Y66.2845
G01 X36.9651 Y66.5224
G01 X36.8665 Y66.7471
G01 X36.8456 Y66.7792
G01 X36.8255 Y66.8477
G01 X36.8255 Y67.7718
G01 X36.8257 Y67.7741
G01 X36.8461 Y67.8416
G01 X36.8665 Y67.8729
G01 X36.9651 Y68.0976
G01 X37.0253 Y68.3355
G01 X37.0456 Y68.5800
G01 X37.0253 Y68.8245
G01 X36.9651 Y69.0624
G01 X36.8665 Y69.2871
G01 X36.8456 Y69.3192
G01 X36.8255 Y69.3883
G01 X36.8255 Y90.6318
G01 X36.8257 Y90.6341
G01 X36.8461 Y90.7016
G01 X36.8665 Y90.7329
G01 X36.9651 Y90.9576
G01 X37.0253 Y91.1955
G01 X37.0456 Y91.4400
G01 X37.0253 Y91.6845
G01 X36.9651 Y91.9224
G01 X36.8665 Y92.1471
G01 X36.8456 Y92.1792
G01 X36.8255 Y92.2477
G01 X36.8255 Y93.1718
G01 X36.8257 Y93.1741
G01 X36.8461 Y93.2416
G01 X36.8665 Y93.2729
G01 X36.9651 Y93.4976
G01 X37.0253 Y93.7355
G01 X37.0456 Y93.9800
G01 X37.0253 Y94.2245
G01 X36.9651 Y94.4624
G01 X36.8665 Y94.6871
G01 X36.8451 Y94.7200
G01 X36.8250 Y94.7888
G01 X36.8250 Y98.9355
G01 X36.8346 Y98.9800
G01 X29.2022 Y98.9800
G01 X29.2150 Y98.9355
G01 X29.2150 Y94.7878
G01 X29.1944 Y94.7192
G01 X29.1735 Y94.6871
G01 X29.0749 Y94.4624
G01 X29.0147 Y94.2245
G01 X28.9944 Y93.9800
G01 X29.0147 Y93.7355
G01 X29.0749 Y93.4976
G01 X29.1735 Y93.2729
G01 X29.1944 Y93.2408
G01 X29.2145 Y93.1719
G01 X29.2145 Y92.2467
G01 X29.1939 Y92.1784
G01 X29.1735 Y92.1471
G01 X29.0749 Y91.9224
G01 X29.0147 Y91.6845
G01 X28.9944 Y91.4400
G01 X29.0147 Y91.1955
G01 X29.0749 Y90.9576
G01 X29.1735 Y90.7329
G01 X29.1944 Y90.7008
G01 X29.2145 Y90.6319
G01 X29.2145 Y87.3211
G01 X29.2139 Y87.3108
G01 X29.1889 Y87.2441
G01 X29.1878 Y87.2430
G01 X29.1318 Y87.2011
G01 X29.1302 Y87.2003
G01 X29.0580 Y87.1953
G01 X28.9944 Y87.2300
G01 X25.0554 Y91.1690
G01 X24.9860 Y91.2415
G01 X24.9824 Y91.2441
G01 X24.9675 Y91.2568
G01 X24.9643 Y91.2601
G01 X24.8817 Y91.3173
G01 X24.8017 Y91.3754
G01 X24.7977 Y91.3774
G01 X24.7808 Y91.3872
G01 X24.7771 Y91.3898
G01 X24.6869 Y91.4307
G01 X24.5965 Y91.4743
G01 X24.5921 Y91.4755
G01 X24.5737 Y91.4822
G01 X24.5697 Y91.4840
G01 X24.4724 Y91.5085
G01 X24.3769 Y91.5349
G01 X24.3723 Y91.5353
G01 X24.3531 Y91.5386
G01 X24.3488 Y91.5396
G01 X24.2500 Y91.5463
G01 X24.2068 Y91.5502
G01 X24.1904 Y91.5503
G01 X24.1215 Y91.5550
G01 X24.0827 Y91.5506
G01 X24.0752 Y91.5502
G01 X10.2636 Y91.5502
G01 X10.1948 Y91.5708
G01 X10.1634 Y91.5912
G01 X9.9387 Y91.6898
G01 X9.7008 Y91.7500
G01 X9.5176 Y91.7652
G01 X9.1451 Y91.7652
G01 X8.9618 Y91.7500
G01 X8.7240 Y91.6898
G01 X8.4993 Y91.5912
G01 X8.2939 Y91.4570
G01 X8.1133 Y91.2908
G01 X7.9627 Y91.0972
G01 X7.8459 Y90.8814
G01 X7.7662 Y90.6494
G01 X7.7258 Y90.4074
G01 X7.7258 Y90.1620
G01 X7.7662 Y89.9200
G01 X7.8459 Y89.6879
G01 X7.9627 Y89.4721
G01 X8.1134 Y89.2785
G01 X8.2757 Y89.1289
G01 X8.3105 Y89.0745
G01 X8.3127 Y89.0034
G01 X8.3120 Y89.0008
G01 X8.2756 Y88.9402
G01 X8.1133 Y88.7908
G01 X7.9627 Y88.5972
G01 X7.8459 Y88.3814
G01 X7.7662 Y88.1494
G01 X7.7258 Y87.9074
G01 X7.7258 Y87.6620
G01 X7.7662 Y87.4200
G01 X7.8459 Y87.1879
G01 X7.9627 Y86.9721
G01 X8.1121 Y86.7801
G01 X8.1348 Y86.7341
G01 X8.1353 Y86.7319
G01 X8.1328 Y86.6606
G01 X8.0923 Y86.6017
G01 X7.9803 Y86.5107
G01 X7.8638 Y86.3669
G01 X7.7798 Y86.2020
G01 X7.7319 Y86.0231
G01 X7.7258 Y85.9465
G01 X7.7258 Y84.6229
G01 X7.7319 Y84.5462
G01 X7.7798 Y84.3674
G01 X7.8638 Y84.2025
G01 X7.9803 Y84.0586
G01 X8.1241 Y83.9422
G01 X8.2890 Y83.8581
G01 X8.4679 Y83.8102
G01 X8.5445 Y83.8042
G01 X10.1181 Y83.8042
G01 X10.1948 Y83.8102
G01 X10.3736 Y83.8581
G01 X10.5385 Y83.9422
G01 X10.6824 Y84.0586
G01 X10.7988 Y84.2025
G01 X10.8829 Y84.3674
G01 X10.9308 Y84.5462
G01 X10.9368 Y84.6229
G01 X10.9368 Y85.9465
G01 X10.9308 Y86.0231
G01 X10.8829 Y86.2020
G01 X10.8167 Y86.3318
G01 X10.8040 Y86.3725
G01 X10.8140 Y86.4424
G01 X10.8152 Y86.4450
G01 X10.8621 Y86.4987
G01 X10.9307 Y86.5191
G01 X21.0740 Y86.5192
G01 X21.1020 Y86.5159
G01 X21.1649 Y86.4814
G01 X24.6670 Y82.9793
G01 X24.8543 Y82.8496
G01 X25.0617 Y82.7554
G01 X25.2826 Y82.6997
G01 X25.5098 Y82.6844
G01 X25.7362 Y82.7099
G01 X25.9544 Y82.7754
G01 X26.1573 Y82.8788
G01 X26.3386 Y83.0168
G01 X26.4923 Y83.1850
G01 X26.6135 Y83.3778
G01 X26.6983 Y83.5893
G01 X26.7439 Y83.8124
G01 X26.7491 Y84.0402
G01 X26.7134 Y84.2651
G01 X26.6382 Y84.4802
G01 X26.5258 Y84.6783
G01 X26.4163 Y84.8093
G01 X22.5567 Y88.6690
G01 X22.4873 Y88.7415
G01 X22.4837 Y88.7441
G01 X22.4689 Y88.7568
G01 X22.4656 Y88.7601
G01 X22.4306 Y88.7844
G01 X22.4071 Y88.8054
G01 X22.4061 Y88.8069
G01 X22.3766 Y88.8719
G01 X22.3866 Y88.9424
G01 X22.3878 Y88.9450
G01 X22.4346 Y88.9987
G01 X22.5037 Y89.0191
G01 X23.5725 Y89.0192
G01 X23.6007 Y89.0159
G01 X23.6636 Y88.9814
G01 X29.1767 Y83.4683
G01 X29.1945 Y83.4460
G01 X29.2145 Y83.3771
G01 X29.2145 Y69.3873
G01 X29.1939 Y69.3184
G01 X29.1735 Y69.2871
G01 X29.0749 Y69.0624
G01 X29.0147 Y68.8245
G01 X28.9944 Y68.5800
G01 X29.0147 Y68.3355
G01 X29.0749 Y68.0976
G01 X29.1735 Y67.8729
G01 X29.1944 Y67.8408
G01 X29.2145 Y67.7717
G01 X29.2145 Y66.8467
G01 X29.1939 Y66.7784
G01 X29.1735 Y66.7471
G01 X29.0749 Y66.5224
G01 X29.0147 Y66.2845
G01 X28.9944 Y66.0400
G01 X29.0147 Y65.7955
G01 X29.0749 Y65.5576
G01 X29.1735 Y65.3329
G01 X29.1944 Y65.3008
G01 X29.2145 Y65.2317
G01 X29.2145 Y44.0332
G01 X29.1938 Y43.9642
G01 X29.1435 Y43.8871
G01 X29.0449 Y43.6624
G01 X28.9847 Y43.4245
G01 X28.9644 Y43.1800
G01 X28.9847 Y42.9355
G01 X29.0449 Y42.6976
G01 X29.1435 Y42.4729
G01 X29.1944 Y42.3950
G01 X29.2145 Y42.3258
G01 X29.2144 Y41.4925
G01 X29.1938 Y41.4242
G01 X29.1435 Y41.3471
G01 X29.0449 Y41.1224
G01 X28.9847 Y40.8845
G01 X28.9644 Y40.6400
G01 X28.9847 Y40.3955
G01 X29.0449 Y40.1576
G01 X29.1435 Y39.9329
G01 X29.1944 Y39.8550
G01 X29.2145 Y39.7858
G01 X29.2145 Y18.5873
G01 X29.1939 Y18.5184
G01 X29.1735 Y18.4871
G01 X29.0749 Y18.2624
G01 X29.0147 Y18.0245
G01 X28.9944 Y17.7800
G01 X29.0147 Y17.5355
G01 X29.0749 Y17.2976
G01 X29.1735 Y17.0729
G01 X29.1944 Y17.0408
G01 X29.2145 Y16.9723
G01 X29.2143 Y16.0460
G01 X29.1939 Y15.9784
G01 X29.1735 Y15.9471
G01 X29.0749 Y15.7224
G01 X29.0503 Y15.6252
G01 X29.0174 Y15.5673
G01 X28.7887 Y15.3384
G01 X28.7909 Y15.3237
G01 X28.7950 Y15.2400
G01 X28.7909 Y15.1562
G01 X28.7786 Y15.0732
G01 X28.7581 Y14.9916
G01 X28.7299 Y14.9128
G01 X28.6942 Y14.8372
G01 X28.6510 Y14.7652
G01 X28.6009 Y14.6976
G01 X28.5447 Y14.6356
G01 X28.4824 Y14.5791
G01 X28.4148 Y14.5290
G01 X28.3428 Y14.4858
G01 X28.2672 Y14.4501
G01 X28.1884 Y14.4219
G01 X28.1068 Y14.4014
G01 X28.0238 Y14.3891
G01 X27.9400 Y14.3850
G01 X27.8563 Y14.3891
G01 X27.8416 Y14.3913
G01 X26.3182 Y12.8679
G01 X26.2960 Y12.8502
G01 X26.2278 Y12.8302
G01 X25.4963 Y12.8302
G01 X25.3958 Y12.8324
G01 X25.3915 Y12.8317
G01 X25.3720 Y12.8302
G01 X25.3674 Y12.8302
G01 X25.2686 Y12.8123
G01 X25.2453 Y12.8102
G01 X10.2636 Y12.8102
G01 X10.1948 Y12.8308
G01 X10.1634 Y12.8512
G01 X9.9387 Y12.9498
G01 X9.7008 Y13.0100
G01 X9.5176 Y13.0252
G01 X9.1451 Y13.0252
G01 X8.9618 Y13.0100
G01 X8.7240 Y12.9498
G01 X8.4993 Y12.8512
G01 X8.2939 Y12.7170
G01 X8.1134 Y12.5508
G01 X7.9627 Y12.3572
G01 X7.8459 Y12.1414
G01 X7.7662 Y11.9094
G01 X7.7258 Y11.6674
G01 X7.7258 Y11.4220
G01 X7.7662 Y11.1800
G01 X7.8459 Y10.9479
G01 X7.9627 Y10.7321
G01 X8.1134 Y10.5385
G01 X8.2753 Y10.3894
G01 X8.3099 Y10.3359
G01 X8.3106 Y10.3333
G01 X8.3126 Y10.2620
G01 X8.2759 Y10.2007
G01 X8.1134 Y10.0508
G01 X7.9627 Y9.8572
G01 X7.8459 Y9.6414
G01 X7.7662 Y9.4094
G01 X7.7258 Y9.1674
G01 X7.7258 Y8.9220
G01 X7.7662 Y8.6800
G01 X7.8459 Y8.4479
G01 X7.9627 Y8.2321
G01 X8.1121 Y8.0401
G01 X8.1348 Y7.9941
G01 X8.1353 Y7.9924
G01 X8.1328 Y7.9206
G01 X8.0923 Y7.8617
G01 X7.9803 Y7.7707
G01 X7.8638 Y7.6269
G00 Z2.0000
G00 X29.6276 Y15.2932
G01 F80.00
G01 Z-0.2000
G01 F100.00
G01 X26.5394 Y12.2050
G01 X25.4812 Y12.2050
G01 X25.4184 Y12.2019
G01 X25.3565 Y12.1927
G01 X25.3257 Y12.1850
G01 X10.0215 Y12.1850
G01 X9.9986 Y12.2057
G01 X9.9314 Y12.2555
G01 X9.8595 Y12.2987
G01 X9.7835 Y12.3346
G01 X9.7043 Y12.3629
G01 X9.6231 Y12.3832
G01 X9.5400 Y12.3956
G01 X9.4564 Y12.3997
G01 X9.2061 Y12.3997
G01 X9.1223 Y12.3955
G01 X9.0395 Y12.3832
G01 X8.9584 Y12.3629
G01 X8.8791 Y12.3346
G01 X8.8035 Y12.2988
G01 X8.7313 Y12.2556
G01 X8.6639 Y12.2056
G01 X8.6017 Y12.1493
G01 X8.5454 Y12.0871
G01 X8.4954 Y12.0197
G01 X8.4523 Y11.9477
G01 X8.4164 Y11.8719
G01 X8.3881 Y11.7926
G01 X8.3678 Y11.7115
G01 X8.3555 Y11.6287
G01 X8.3513 Y11.5449
G01 X8.3554 Y11.4609
G01 X8.3677 Y11.3780
G01 X8.3881 Y11.2965
G01 X8.4163 Y11.2177
G01 X8.4524 Y11.1414
G01 X8.4954 Y11.0697
G01 X8.5454 Y11.0023
G01 X8.6017 Y10.9401
G01 X8.6639 Y10.8838
G01 X8.7313 Y10.8338
G01 X8.8031 Y10.7908
G01 X8.8794 Y10.7547
G01 X8.9581 Y10.7265
G01 X9.0395 Y10.7061
G01 X9.1225 Y10.6938
G01 X9.2062 Y10.6897
G01 X9.4564 Y10.6897
G01 X9.5400 Y10.6938
G01 X9.6231 Y10.7061
G01 X9.7043 Y10.7264
G01 X9.7835 Y10.7548
G01 X9.8595 Y10.7907
G01 X9.9314 Y10.8338
G01 X9.9986 Y10.8837
G01 X10.0215 Y10.9044
G01 X25.4613 Y10.9044
G01 X25.5242 Y10.9075
G01 X25.5861 Y10.9166
G01 X25.6170 Y10.9244
G01 X26.8047 Y10.9244
G01 X26.8674 Y10.9274
G01 X26.9294 Y10.9366
G01 X26.9908 Y10.9520
G01 X27.0497 Y10.9731
G01 X27.1065 Y11.0000
G01 X27.1606 Y11.0324
G01 X27.2109 Y11.0697
G01 X27.2574 Y11.1118
G01 X30.5332 Y14.3876
G01 X30.5639 Y14.3891
G01 X30.6469 Y14.4015
G01 X30.7282 Y14.4218
G01 X30.8073 Y14.4501
G01 X30.8830 Y14.4860
G01 X30.9550 Y14.5291
G01 X31.0224 Y14.5791
G01 X31.0844 Y14.6353
G01 X31.1409 Y14.6976
G01 X31.1910 Y14.7652
G01 X31.2340 Y14.8370
G01 X31.2698 Y14.9126
G01 X31.2982 Y14.9919
G01 X31.3186 Y15.0734
G01 X31.3309 Y15.1562
G01 X31.3350 Y15.2398
G01 X31.3309 Y15.3238
G01 X31.3185 Y15.4069
G01 X31.2981 Y15.4884
G01 X31.2699 Y15.5672
G01 X31.2341 Y15.6429
G01 X31.1908 Y15.7151
G01 X31.1410 Y15.7823
G01 X31.1203 Y15.8052
G01 X31.1203 Y17.2148
G01 X31.1410 Y17.2377
G01 X31.1910 Y17.3051
G01 X31.2340 Y17.3770
G01 X31.2700 Y17.4529
G01 X31.2982 Y17.5318
G01 X31.3186 Y17.6132
G01 X31.3309 Y17.6962
G01 X31.3350 Y17.7800
G01 X31.3309 Y17.8638
G01 X31.3186 Y17.9468
G01 X31.2982 Y18.0282
G01 X31.2700 Y18.1071
G01 X31.2340 Y18.1830
G01 X31.1910 Y18.2549
G01 X31.1410 Y18.3223
G01 X31.1203 Y18.3452
G01 X31.1203 Y40.1102
G01 X31.1609 Y40.1650
G01 X31.2040 Y40.2370
G01 X31.2399 Y40.3128
G01 X31.2681 Y40.3916
G01 X31.2886 Y40.4734
G01 X31.3009 Y40.5562
G01 X31.3050 Y40.6400
G01 X31.3009 Y40.7238
G01 X31.2886 Y40.8066
G01 X31.2681 Y40.8884
G01 X31.2399 Y40.9672
G01 X31.2040 Y41.0430
G01 X31.1609 Y41.1150
G01 X31.1203 Y41.1698
G01 X31.1203 Y42.6502
G01 X31.1609 Y42.7050
G01 X31.2040 Y42.7770
G01 X31.2399 Y42.8528
G01 X31.2681 Y42.9316
G01 X31.2886 Y43.0134
G01 X31.3009 Y43.0962
G01 X31.3050 Y43.1800
G01 X31.3009 Y43.2638
G01 X31.2886 Y43.3466
G01 X31.2681 Y43.4284
G01 X31.2399 Y43.5072
G01 X31.2040 Y43.5830
G01 X31.1609 Y43.6550
G01 X31.1203 Y43.7098
G01 X31.1203 Y65.4748
G01 X31.1410 Y65.4977
G01 X31.1910 Y65.5651
G01 X31.2340 Y65.6370
G01 X31.2700 Y65.7129
G01 X31.2982 Y65.7918
G01 X31.3186 Y65.8732
G01 X31.3309 Y65.9562
G01 X31.3350 Y66.0400
G01 X31.3309 Y66.1238
G01 X31.3186 Y66.2068
G01 X31.2982 Y66.2882
G01 X31.2700 Y66.3671
G01 X31.2340 Y66.4430
G01 X31.1910 Y66.5149
G01 X31.1410 Y66.5823
G01 X31.1203 Y66.6052
G01 X31.1203 Y68.0148
G01 X31.1410 Y68.0377
G01 X31.1910 Y68.1051
G01 X31.2340 Y68.1770
G01 X31.2700 Y68.2529
G01 X31.2982 Y68.3318
G01 X31.3186 Y68.4132
G01 X31.3309 Y68.4962
G01 X31.3350 Y68.5800
G01 X31.3309 Y68.6638
G01 X31.3186 Y68.7468
G01 X31.2982 Y68.8282
G01 X31.2700 Y68.9071
G01 X31.2340 Y68.9830
G01 X31.1910 Y69.0549
G01 X31.1410 Y69.1223
G01 X31.1203 Y69.1452
G01 X31.1203 Y90.8748
G01 X31.1410 Y90.8977
G01 X31.1910 Y90.9651
G01 X31.2340 Y91.0370
G01 X31.2700 Y91.1129
G01 X31.2982 Y91.1918
G01 X31.3186 Y91.2732
G01 X31.3309 Y91.3562
G01 X31.3350 Y91.4400
G01 X31.3309 Y91.5238
G01 X31.3186 Y91.6068
G01 X31.2982 Y91.6882
G01 X31.2700 Y91.7671
G01 X31.2340 Y91.8430
G01 X31.1910 Y91.9149
G01 X31.1410 Y91.9823
G01 X31.1203 Y92.0052
G01 X31.1203 Y93.4148
G01 X31.1410 Y93.4377
G01 X31.1910 Y93.5051
G01 X31.2340 Y93.5770
G01 X31.2700 Y93.6529
G01 X31.2982 Y93.7318
G01 X31.3186 Y93.8132
G01 X31.3309 Y93.8962
G01 X31.3350 Y93.9800
G01 X31.3309 Y94.0638
G01 X31.3186 Y94.1468
G01 X31.2982 Y94.2282
G01 X31.2699 Y94.3072
G01 X31.2340 Y94.3830
G01 X31.1909 Y94.4550
G01 X31.1409 Y94.5224
G01 X31.0846 Y94.5846
G01 X31.0224 Y94.6409
G01 X30.9550 Y94.6909
G01 X30.8830 Y94.7340
G01 X30.8072 Y94.7699
G01 X30.7282 Y94.7982
G01 X30.6468 Y94.8186
G01 X30.5638 Y94.8309
G01 X30.4800 Y94.8350
G01 X30.3962 Y94.8309
G01 X30.3132 Y94.8186
G01 X30.2318 Y94.7982
G01 X30.1528 Y94.7699
G01 X30.0770 Y94.7340
G01 X30.0050 Y94.6909
G01 X29.9376 Y94.6409
G01 X29.8756 Y94.5847
G01 X29.8191 Y94.5224
G01 X29.7692 Y94.4552
G01 X29.7258 Y94.3828
G01 X29.6901 Y94.3072
G01 X29.6618 Y94.2282
G01 X29.6414 Y94.1468
G01 X29.6291 Y94.0637
G01 X29.6250 Y93.9800
G01 X29.6291 Y93.8962
G01 X29.6414 Y93.8132
G01 X29.6619 Y93.7317
G01 X29.6901 Y93.6528
G01 X29.7260 Y93.5768
G01 X29.7692 Y93.5049
G01 X29.8190 Y93.4377
G01 X29.8397 Y93.4148
G01 X29.8397 Y92.0052
G01 X29.8190 Y91.9823
G01 X29.7690 Y91.9149
G01 X29.7260 Y91.8430
G01 X29.6900 Y91.7671
G01 X29.6618 Y91.6882
G01 X29.6414 Y91.6068
G01 X29.6291 Y91.5238
G01 X29.6250 Y91.4400
G01 X29.6291 Y91.3562
G01 X29.6414 Y91.2732
G01 X29.6618 Y91.1918
G01 X29.6900 Y91.1129
G01 X29.7260 Y91.0370
G01 X29.7690 Y90.9651
G01 X29.8190 Y90.8977
G01 X29.8397 Y90.8748
G01 X29.8397 Y85.5005
G01 X24.6027 Y90.7375
G01 X24.5562 Y90.7796
G01 X24.5059 Y90.8169
G01 X24.4518 Y90.8494
G01 X24.3948 Y90.8763
G01 X24.3359 Y90.8974
G01 X24.2750 Y90.9127
G01 X24.2128 Y90.9219
G01 X24.1500 Y90.9250
G01 X10.0215 Y90.9250
G01 X9.9986 Y90.9457
G01 X9.9314 Y90.9955
G01 X9.8595 Y91.0387
G01 X9.7835 Y91.0746
G01 X9.7043 Y91.1029
G01 X9.6231 Y91.1232
G01 X9.5400 Y91.1356
G01 X9.4564 Y91.1397
G01 X9.2061 Y91.1397
G01 X9.1225 Y91.1356
G01 X9.0395 Y91.1232
G01 X8.9581 Y91.1029
G01 X8.8791 Y91.0746
G01 X8.8033 Y91.0387
G01 X8.7313 Y90.9956
G01 X8.6639 Y90.9456
G01 X8.6017 Y90.8893
G01 X8.5454 Y90.8271
G01 X8.4954 Y90.7597
G01 X8.4523 Y90.6877
G01 X8.4164 Y90.6119
G01 X8.3881 Y90.5329
G01 X8.3678 Y90.4515
G01 X8.3554 Y90.3685
G01 X8.3513 Y90.2847
G01 X8.3554 Y90.2009
G01 X8.3678 Y90.1179
G01 X8.3881 Y90.0365
G01 X8.4164 Y89.9575
G01 X8.4523 Y89.8816
G01 X8.4954 Y89.8097
G01 X8.5454 Y89.7423
G01 X8.6017 Y89.6801
G01 X8.6639 Y89.6238
G01 X8.7313 Y89.5738
G01 X8.8033 Y89.5306
G01 X8.8791 Y89.4948
G01 X8.9581 Y89.4665
G01 X9.0395 Y89.4461
G01 X9.1225 Y89.4338
G01 X9.2061 Y89.4297
G01 X9.4564 Y89.4297
G01 X9.5400 Y89.4338
G01 X9.6231 Y89.4461
G01 X9.7043 Y89.4664
G01 X9.7835 Y89.4948
G01 X9.8595 Y89.5307
G01 X9.9314 Y89.5738
G01 X9.9986 Y89.6237
G01 X10.0215 Y89.6444
G01 X23.8848 Y89.6444
G01 X29.8397 Y83.6894
G01 X29.8397 Y69.1452
G01 X29.8190 Y69.1223
G01 X29.7690 Y69.0549
G01 X29.7260 Y68.9830
G01 X29.6900 Y68.9071
G01 X29.6618 Y68.8282
G01 X29.6414 Y68.7468
G01 X29.6291 Y68.6638
G01 X29.6250 Y68.5800
G01 X29.6291 Y68.4962
G01 X29.6414 Y68.4132
G01 X29.6618 Y68.3318
G01 X29.6900 Y68.2529
G01 X29.7260 Y68.1770
G01 X29.7690 Y68.1051
G01 X29.8190 Y68.0377
G01 X29.8397 Y68.0148
G01 X29.8397 Y66.6052
G01 X29.8190 Y66.5823
G01 X29.7690 Y66.5149
G01 X29.7260 Y66.4430
G01 X29.6900 Y66.3671
G01 X29.6618 Y66.2882
G01 X29.6414 Y66.2068
G01 X29.6291 Y66.1238
G01 X29.6250 Y66.0400
G01 X29.6291 Y65.9562
G01 X29.6414 Y65.8732
G01 X29.6618 Y65.7918
G01 X29.6900 Y65.7129
G01 X29.7260 Y65.6370
G01 X29.7690 Y65.5651
G01 X29.8190 Y65.4977
G01 X29.8397 Y65.4748
G01 X29.8397 Y43.7783
G01 X29.7891 Y43.7224
G01 X29.7391 Y43.6550
G01 X29.6960 Y43.5830
G01 X29.6601 Y43.5072
G01 X29.6318 Y43.4282
G01 X29.6114 Y43.3468
G01 X29.5991 Y43.2638
G01 X29.5950 Y43.1800
G01 X29.5991 Y43.0962
G01 X29.6114 Y43.0132
G01 X29.6318 Y42.9318
G01 X29.6601 Y42.8528
G01 X29.6960 Y42.7770
G01 X29.7391 Y42.7050
G01 X29.7891 Y42.6376
G01 X29.8397 Y42.5817
G01 X29.8397 Y41.2383
G01 X29.7891 Y41.1824
G01 X29.7391 Y41.1150
G01 X29.6960 Y41.0430
G01 X29.6601 Y40.9672
G01 X29.6318 Y40.8882
G01 X29.6114 Y40.8068
G01 X29.5991 Y40.7238
G01 X29.5950 Y40.6400
G01 X29.5991 Y40.5562
G01 X29.6114 Y40.4732
G01 X29.6318 Y40.3918
G01 X29.6601 Y40.3128
G01 X29.6960 Y40.2370
G01 X29.7391 Y40.1650
G01 X29.7891 Y40.0976
G01 X29.8397 Y40.0417
G01 X29.8397 Y18.3452
G01 X29.8190 Y18.3223
G01 X29.7690 Y18.2549
G01 X29.7260 Y18.1830
G01 X29.6900 Y18.1071
G01 X29.6618 Y18.0282
G01 X29.6414 Y17.9468
G01 X29.6291 Y17.8638
G01 X29.6250 Y17.7800
G01 X29.6291 Y17.6962
G01 X29.6414 Y17.6132
G01 X29.6618 Y17.5318
G01 X29.6900 Y17.4529
G01 X29.7260 Y17.3770
G01 X29.7690 Y17.3051
G01 X29.8190 Y17.2377
G01 X29.8397 Y17.2148
G01 X29.8397 Y15.8052
G01 X29.8190 Y15.7823
G01 X29.7690 Y15.7149
G01 X29.7260 Y15.6430
G01 X29.6901 Y15.5672
G01 X29.6618 Y15.4882
G01 X29.6415 Y15.4069
G01 X29.6291 Y15.3239
G01 X29.6276 Y15.2932
G00 Z2.0000
G00 X33.6603 Y12.7531
G01 F80.00
G01 Z-0.2000
G01 F100.00
G01 X33.6603 Y14.6748
G01 X33.6810 Y14.6977
G01 X33.7310 Y14.7651
G01 X33.7740 Y14.8370
G01 X33.8100 Y14.9129
G01 X33.8382 Y14.9918
G01 X33.8586 Y15.0732
G01 X33.8709 Y15.1562
G01 X33.8750 Y15.2400
G01 X33.8709 Y15.3238
G01 X33.8586 Y15.4068
G01 X33.8382 Y15.4882
G01 X33.8100 Y15.5671
G01 X33.7740 Y15.6430
G01 X33.7310 Y15.7149
G01 X33.6810 Y15.7823
G01 X33.6603 Y15.8052
G01 X33.6603 Y17.2148
G01 X33.6810 Y17.2377
G01 X33.7310 Y17.3051
G01 X33.7740 Y17.3770
G01 X33.8100 Y17.4529
G01 X33.8382 Y17.5318
G01 X33.8586 Y17.6132
G01 X33.8709 Y17.6962
G01 X33.8750 Y17.7800
G01 X33.8709 Y17.8638
G01 X33.8586 Y17.9468
G01 X33.8382 Y18.0282
G01 X33.8100 Y18.1071
G01 X33.7740 Y18.1830
G01 X33.7310 Y18.2549
G01 X33.6810 Y18.3223
G01 X33.6603 Y18.3452
G01 X33.6603 Y40.1102
G01 X33.7009 Y40.1650
G01 X33.7440 Y40.2370
G01 X33.7799 Y40.3128
G01 X33.8081 Y40.3916
G01 X33.8286 Y40.4734
G01 X33.8409 Y40.5562
G01 X33.8450 Y40.6400
G01 X33.8409 Y40.7238
G01 X33.8286 Y40.8066
G01 X33.8081 Y40.8884
G01 X33.7799 Y40.9672
G01 X33.7440 Y41.0430
G01 X33.7009 Y41.1150
G01 X33.6603 Y41.1698
G01 X33.6603 Y42.6502
G01 X33.7009 Y42.7050
G01 X33.7440 Y42.7770
G01 X33.7799 Y42.8528
G01 X33.8081 Y42.9316
G01 X33.8286 Y43.0134
G01 X33.8409 Y43.0962
G01 X33.8450 Y43.1800
G01 X33.8409 Y43.2638
G01 X33.8286 Y43.3466
G01 X33.8081 Y43.4284
G01 X33.7799 Y43.5072
G01 X33.7440 Y43.5830
G01 X33.7009 Y43.6550
G01 X33.6603 Y43.7098
G01 X33.6603 Y65.4748
G01 X33.6810 Y65.4977
G01 X33.7310 Y65.5651
G01 X33.7740 Y65.6370
G01 X33.8100 Y65.7129
G01 X33.8382 Y65.7918
G01 X33.8586 Y65.8732
G01 X33.8709 Y65.9562
G01 X33.8750 Y66.0400
G01 X33.8709 Y66.1238
G01 X33.8586 Y66.2068
G01 X33.8382 Y66.2882
G01 X33.8100 Y66.3671
G01 X33.7740 Y66.4430
G01 X33.7310 Y66.5149
G01 X33.6810 Y66.5823
G01 X33.6603 Y66.6052
G01 X33.6603 Y68.0148
G01 X33.6810 Y68.0377
G01 X33.7310 Y68.1051
G01 X33.7740 Y68.1770
G01 X33.8100 Y68.2529
G01 X33.8382 Y68.3318
G01 X33.8586 Y68.4132
G01 X33.8709 Y68.4962
G01 X33.8750 Y68.5800
G01 X33.8709 Y68.6638
G01 X33.8586 Y68.7468
G01 X33.8382 Y68.8282
G01 X33.8100 Y68.9071
G01 X33.7740 Y68.9830
G01 X33.7310 Y69.0549
G01 X33.6810 Y69.1223
G01 X33.6603 Y69.1452
G01 X33.6603 Y90.8748
G01 X33.6810 Y90.8977
G01 X33.7310 Y90.9651
G01 X33.7740 Y91.0370
G01 X33.8100 Y91.1129
G01 X33.8382 Y91.1918
G01 X33.8586 Y91.2732
G01 X33.8709 Y91.3562
G01 X33.8750 Y91.4400
G01 X33.8709 Y91.5238
G01 X33.8586 Y91.6068
G01 X33.8382 Y91.6882
G01 X33.8100 Y91.7671
G01 X33.7740 Y91.8430
G01 X33.7310 Y91.9149
G01 X33.6810 Y91.9823
G01 X33.6603 Y92.0052
G01 X33.6603 Y93.4148
G01 X33.6810 Y93.4377
G01 X33.7310 Y93.5051
G01 X33.7740 Y93.5770
G01 X33.8100 Y93.6529
G01 X33.8382 Y93.7318
G01 X33.8586 Y93.8132
G01 X33.8709 Y93.8962
G01 X33.8750 Y93.9800
G01 X33.8709 Y94.0638
G01 X33.8586 Y94.1468
G01 X33.8382 Y94.2282
G01 X33.8099 Y94.3072
G01 X33.7740 Y94.3830
G01 X33.7309 Y94.4550
G01 X33.6809 Y94.5224
G01 X33.6246 Y94.5846
G01 X33.5624 Y94.6409
G01 X33.4950 Y94.6909
G01 X33.4230 Y94.7340
G01 X33.3472 Y94.7699
G01 X33.2682 Y94.7982
G01 X33.1868 Y94.8186
G01 X33.1038 Y94.8309
G01 X33.0200 Y94.8350
G01 X32.9362 Y94.8309
G01 X32.8532 Y94.8186
G01 X32.7718 Y94.7982
G01 X32.6928 Y94.7699
G01 X32.6170 Y94.7340
G01 X32.5450 Y94.6909
G01 X32.4776 Y94.6409
G01 X32.4154 Y94.5846
G01 X32.3591 Y94.5224
G01 X32.3091 Y94.4550
G01 X32.2660 Y94.3830
G01 X32.2301 Y94.3072
G01 X32.2018 Y94.2282
G01 X32.1814 Y94.1468
G01 X32.1691 Y94.0638
G01 X32.1650 Y93.9800
G01 X32.1691 Y93.8962
G01 X32.1814 Y93.8132
G01 X32.2018 Y93.7318
G01 X32.2300 Y93.6529
G01 X32.2660 Y93.5770
G01 X32.3090 Y93.5051
G01 X32.3590 Y93.4377
G01 X32.3797 Y93.4148
G01 X32.3797 Y92.0052
G01 X32.3590 Y91.9823
G01 X32.3090 Y91.9149
G01 X32.2660 Y91.8430
G01 X32.2300 Y91.7671
G01 X32.2018 Y91.6882
G01 X32.1814 Y91.6068
G01 X32.1691 Y91.5238
G01 X32.1650 Y91.4400
G01 X32.1691 Y91.3562
G01 X32.1814 Y91.2732
G01 X32.2018 Y91.1918
G01 X32.2300 Y91.1129
G01 X32.2660 Y91.0370
G01 X32.3090 Y90.9651
G01 X32.3590 Y90.8977
G01 X32.3797 Y90.8748
G01 X32.3797 Y69.1452
G01 X32.3590 Y69.1223
G01 X32.3090 Y69.0549
G01 X32.2660 Y68.9830
G01 X32.2300 Y68.9071
G01 X32.2018 Y68.8282
G01 X32.1814 Y68.7468
G01 X32.1691 Y68.6638
G01 X32.1650 Y68.5800
G01 X32.1691 Y68.4962
G01 X32.1814 Y68.4132
G01 X32.2018 Y68.3318
G01 X32.2300 Y68.2529
G01 X32.2660 Y68.1770
G01 X32.3090 Y68.1051
G01 X32.3590 Y68.0377
G01 X32.3797 Y68.0148
G01 X32.3797 Y66.6052
G01 X32.3590 Y66.5823
G01 X32.3090 Y66.5149
G01 X32.2660 Y66.4430
G01 X32.2300 Y66.3671
G01 X32.2018 Y66.2882
G01 X32.1814 Y66.2068
G01 X32.1691 Y66.1238
G01 X32.1650 Y66.0400
G01 X32.1691 Y65.9562
G01 X32.1814 Y65.8732
G01 X32.2018 Y65.7918
G01 X32.2300 Y65.7129
G01 X32.2660 Y65.6370
G01 X32.3090 Y65.5651
G01 X32.3590 Y65.4977
G01 X32.3797 Y65.4748
G01 X32.3797 Y43.7783
G01 X32.3291 Y43.7224
G01 X32.2791 Y43.6550
G01 X32.2360 Y43.5830
G01 X32.2001 Y43.5072
G01 X32.1718 Y43.4282
G01 X32.1514 Y43.3468
G01 X32.1391 Y43.2638
G01 X32.1350 Y43.1800
G01 X32.1391 Y43.0962
G01 X32.1514 Y43.0132
G01 X32.1718 Y42.9318
G01 X32.2001 Y42.8528
G01 X32.2360 Y42.7770
G01 X32.2791 Y42.7050
G01 X32.3291 Y42.6376
G01 X32.3797 Y42.5817
G01 X32.3797 Y41.2383
G01 X32.3291 Y41.1824
G01 X32.2791 Y41.1150
G01 X32.2360 Y41.0430
G01 X32.2001 Y40.9672
G01 X32.1718 Y40.8882
G01 X32.1514 Y40.8068
G01 X32.1391 Y40.7238
G01 X32.1350 Y40.6400
G01 X32.1391 Y40.5562
G01 X32.1514 Y40.4732
G01 X32.1718 Y40.3918
G01 X32.2001 Y40.3128
G01 X32.2360 Y40.2370
G01 X32.2791 Y40.1650
G01 X32.3291 Y40.0976
G01 X32.3797 Y40.0417
G01 X32.3797 Y18.3452
G01 X32.3590 Y18.3223
G01 X32.3090 Y18.2549
G01 X32.2660 Y18.1830
G01 X32.2300 Y18.1071
G01 X32.2018 Y18.0282
G01 X32.1814 Y17.9468
G01 X32.1691 Y17.8638
G01 X32.1650 Y17.7800
G01 X32.1691 Y17.6962
G01 X32.1814 Y17.6132
G01 X32.2018 Y17.5318
G01 X32.2300 Y17.4529
G01 X32.2660 Y17.3770
G01 X32.3090 Y17.3051
G01 X32.3590 Y17.2377
G01 X32.3797 Y17.2148
G01 X32.3797 Y15.8052
G01 X32.3590 Y15.7823
G01 X32.3090 Y15.7149
G01 X32.2660 Y15.6430
G01 X32.2300 Y15.5671
G01 X32.2018 Y15.4882
G01 X32.1814 Y15.4068
G01 X32.1691 Y15.3238
G01 X32.1650 Y15.2400
G01 X32.1691 Y15.1562
G01 X32.1814 Y15.0732
G01 X32.2018 Y14.9918
G01 X32.2300 Y14.9129
G01 X32.2660 Y14.8370
G01 X32.3090 Y14.7651
G01 X32.3590 Y14.6977
G01 X32.3797 Y14.6748
G01 X32.3797 Y13.0186
G01 X29.0461 Y9.6850
G01 X10.0215 Y9.6850
G01 X9.9986 Y9.7057
G01 X9.9314 Y9.7555
G01 X9.8595 Y9.7987
G01 X9.7835 Y9.8346
G01 X9.7043 Y9.8629
G01 X9.6231 Y9.8832
G01 X9.5400 Y9.8956
G01 X9.4564 Y9.8997
G01 X9.2061 Y9.8997
G01 X9.1223 Y9.8955
G01 X9.0395 Y9.8832
G01 X8.9584 Y9.8629
G01 X8.8791 Y9.8346
G01 X8.8035 Y9.7988
G01 X8.7313 Y9.7556
G01 X8.6639 Y9.7056
G01 X8.6017 Y9.6493
G01 X8.5454 Y9.5871
G01 X8.4954 Y9.5197
G01 X8.4523 Y9.4477
G01 X8.4164 Y9.3719
G01 X8.3881 Y9.2926
G01 X8.3678 Y9.2115
G01 X8.3554 Y9.1282
G01 X8.3513 Y9.0447
G01 X8.3554 Y8.9611
G01 X8.3677 Y8.8781
G01 X8.3882 Y8.7963
G01 X8.4164 Y8.7175
G01 X8.4524 Y8.6414
G01 X8.4954 Y8.5697
G01 X8.5454 Y8.5023
G01 X8.6017 Y8.4401
G01 X8.6639 Y8.3838
G01 X8.7313 Y8.3338
G01 X8.8031 Y8.2908
G01 X8.8794 Y8.2547
G01 X8.9581 Y8.2265
G01 X9.0395 Y8.2061
G01 X9.1225 Y8.1938
G01 X9.2062 Y8.1897
G01 X9.4564 Y8.1897
G01 X9.5400 Y8.1938
G01 X9.6231 Y8.2061
G01 X9.7043 Y8.2264
G01 X9.7835 Y8.2548
G01 X9.8595 Y8.2907
G01 X9.9314 Y8.3338
G01 X9.9986 Y8.3837
G01 X10.0215 Y8.4044
G01 X29.1357 Y8.4044
G01 X29.1665 Y8.3966
G01 X29.2284 Y8.3875
G01 X29.2913 Y8.3844
G01 X29.3541 Y8.3874
G01 X29.4160 Y8.3966
G01 X29.4774 Y8.4120
G01 X29.5364 Y8.4331
G01 X29.5932 Y8.4600
G01 X29.6473 Y8.4924
G01 X29.6975 Y8.5297
G01 X29.7440 Y8.5718
G01 X33.4729 Y12.3007
G01 X33.5150 Y12.3471
G01 X33.5524 Y12.3976
G01 X33.5847 Y12.4515
G01 X33.6116 Y12.5083
G01 X33.6327 Y12.5675
G01 X33.6480 Y12.6284
G01 X33.6572 Y12.6906
G01 X33.6603 Y12.7531
G00 Z2.0000
G00 X36.2003 Y10.2131
G01 F80.00
G01 Z-0.2000
G01 F100.00
G01 X36.2003 Y14.6748
G01 X36.2210 Y14.6977
G01 X36.2710 Y14.7651
G01 X36.3140 Y14.8370
G01 X36.3500 Y14.9129
G01 X36.3782 Y14.9918
G01 X36.3986 Y15.0732
G01 X36.4109 Y15.1562
G01 X36.4150 Y15.2400
G01 X36.4109 Y15.3238
G01 X36.3986 Y15.4068
G01 X36.3782 Y15.4882
G01 X36.3500 Y15.5671
G01 X36.3140 Y15.6430
G01 X36.2710 Y15.7149
G01 X36.2210 Y15.7823
G01 X36.2003 Y15.8052
G01 X36.2003 Y17.2148
G01 X36.2210 Y17.2377
G01 X36.2710 Y17.3051
G01 X36.3140 Y17.3770
G01 X36.3500 Y17.4529
G01 X36.3782 Y17.5318
G01 X36.3986 Y17.6132
G01 X36.4109 Y17.6962
G01 X36.4150 Y17.7800
G01 X36.4109 Y17.8638
G01 X36.3986 Y17.9468
G01 X36.3782 Y18.0282
G01 X36.3500 Y18.1071
G01 X36.3140 Y18.1830
G01 X36.2710 Y18.2549
G01 X36.2210 Y18.3223
G01 X36.2003 Y18.3452
G01 X36.2003 Y40.1102
G01 X36.2409 Y40.1650
G01 X36.2840 Y40.2370
G01 X36.3199 Y40.3128
G01 X36.3481 Y40.3916
G01 X36.3686 Y40.4734
G01 X36.3809 Y40.5562
G01 X36.3850 Y40.6400
G01 X36.3809 Y40.7238
G01 X36.3686 Y40.8066
G01 X36.3481 Y40.8884
G01 X36.3199 Y40.9672
G01 X36.2840 Y41.0430
G01 X36.2409 Y41.1150
G01 X36.2003 Y41.1698
G01 X36.2003 Y42.6502
G01 X36.2409 Y42.7050
G01 X36.2840 Y42.7770
G01 X36.3199 Y42.8528
G01 X36.3481 Y42.9316
G01 X36.3686 Y43.0134
G01 X36.3809 Y43.0962
G01 X36.3850 Y43.1800
G01 X36.3809 Y43.2638
G01 X36.3686 Y43.3466
G01 X36.3481 Y43.4284
G01 X36.3199 Y43.5072
G01 X36.2840 Y43.5830
G01 X36.2409 Y43.6550
G01 X36.2003 Y43.7098
G01 X36.2003 Y65.4748
G01 X36.2210 Y65.4977
G01 X36.2710 Y65.5651
G01 X36.3140 Y65.6370
G01 X36.3500 Y65.7129
G01 X36.3782 Y65.7918
G01 X36.3986 Y65.8732
G01 X36.4109 Y65.9562
G01 X36.4150 Y66.0400
G01 X36.4109 Y66.1238
G01 X36.3986 Y66.2068
G01 X36.3782 Y66.2882
G01 X36.3500 Y66.3671
G01 X36.3140 Y66.4430
G01 X36.2710 Y66.5149
G01 X36.2210 Y66.5823
G01 X36.2003 Y66.6052
G01 X36.2003 Y68.0148
G01 X36.2210 Y68.0377
G01 X36.2710 Y68.1051
G01 X36.3140 Y68.1770
G01 X36.3500 Y68.2529
G01 X36.3782 Y68.3318
G01 X36.3986 Y68.4132
G01 X36.4109 Y68.4962
G01 X36.4150 Y68.5800
G01 X36.4109 Y68.6638
G01 X36.3986 Y68.7468
G01 X36.3782 Y68.8282
G01 X36.3500 Y68.9071
G01 X36.3140 Y68.9830
G01 X36.2710 Y69.0549
G01 X36.2210 Y69.1223
G01 X36.2003 Y69.1452
G01 X36.2003 Y90.8748
G01 X36.2210 Y90.8977
G01 X36.2710 Y90.9651
G01 X36.3140 Y91.0370
G01 X36.3500 Y91.1129
G01 X36.3782 Y91.1918
G01 X36.3986 Y91.2732
G01 X36.4109 Y91.3562
G01 X36.4150 Y91.4400
G01 X36.4109 Y91.5238
G01 X36.3986 Y91.6068
G01 X36.3782 Y91.6882
G01 X36.3500 Y91.7671
G01 X36.3140 Y91.8430
G01 X36.2710 Y91.9149
G01 X36.2210 Y91.9823
G01 X36.2003 Y92.0052
G01 X36.2003 Y93.4148
G01 X36.2210 Y93.4377
G01 X36.2710 Y93.5051
G01 X36.3140 Y93.5770
G01 X36.3500 Y93.6529
G01 X36.3782 Y93.7318
G01 X36.3986 Y93.8132
G01 X36.4109 Y93.8962
G01 X36.4150 Y93.9800
G01 X36.4109 Y94.0638
G01 X36.3986 Y94.1468
G01 X36.3782 Y94.2282
G01 X36.3499 Y94.3072
G01 X36.3140 Y94.3830
G01 X36.2709 Y94.4550
G01 X36.2209 Y94.5224
G01 X36.1646 Y94.5846
G01 X36.1024 Y94.6409
G01 X36.0350 Y94.6909
G01 X35.9630 Y94.7340
G01 X35.8872 Y94.7699
G01 X35.8082 Y94.7982
G01 X35.7268 Y94.8186
G01 X35.6438 Y94.8309
G01 X35.5600 Y94.8350
G01 X35.4762 Y94.8309
G01 X35.3932 Y94.8186
G01 X35.3118 Y94.7982
G01 X35.2328 Y94.7699
G01 X35.1570 Y94.7340
G01 X35.0850 Y94.6909
G01 X35.0176 Y94.6409
G01 X34.9554 Y94.5846
G01 X34.8991 Y94.5224
G01 X34.8491 Y94.4550
G01 X34.8060 Y94.3830
G01 X34.7701 Y94.3072
G01 X34.7418 Y94.2282
G01 X34.7214 Y94.1468
G01 X34.7091 Y94.0638
G01 X34.7050 Y93.9800
G01 X34.7091 Y93.8962
G01 X34.7214 Y93.8132
G01 X34.7418 Y93.7318
G01 X34.7700 Y93.6529
G01 X34.8060 Y93.5770
G01 X34.8490 Y93.5051
G01 X34.8990 Y93.4377
G01 X34.9197 Y93.4148
G01 X34.9197 Y92.0052
G01 X34.8990 Y91.9823
G01 X34.8490 Y91.9149
G01 X34.8060 Y91.8430
G01 X34.7700 Y91.7671
G01 X34.7418 Y91.6882
G01 X34.7214 Y91.6068
G01 X34.7091 Y91.5238
G01 X34.7050 Y91.4400
G01 X34.7091 Y91.3562
G01 X34.7214 Y91.2732
G01 X34.7418 Y91.1918
G01 X34.7700 Y91.1129
G01 X34.8060 Y91.0370
G01 X34.8490 Y90.9651
G01 X34.8990 Y90.8977
G01 X34.9197 Y90.8748
G01 X34.9197 Y69.1452
G01 X34.8990 Y69.1223
G01 X34.8490 Y69.0549
G01 X34.8060 Y68.9830
G01 X34.7700 Y68.9071
G01 X34.7418 Y68.8282
G01 X34.7214 Y68.7468
G01 X34.7091 Y68.6638
G01 X34.7050 Y68.5800
G01 X34.7091 Y68.4962
G01 X34.7214 Y68.4132
G01 X34.7418 Y68.3318
G01 X34.7700 Y68.2529
G01 X34.8060 Y68.1770
G01 X34.8490 Y68.1051
G01 X34.8990 Y68.0377
G01 X34.9197 Y68.0148
G01 X34.9197 Y66.6052
G01 X34.8990 Y66.5823
G01 X34.8490 Y66.5149
G01 X34.8060 Y66.4430
G01 X34.7700 Y66.3671
G01 X34.7418 Y66.2882
G01 X34.7214 Y66.2068
G01 X34.7091 Y66.1238
G01 X34.7050 Y66.0400
G01 X34.7091 Y65.9562
G01 X34.7214 Y65.8732
G01 X34.7418 Y65.7918
G01 X34.7700 Y65.7129
G01 X34.8060 Y65.6370
G01 X34.8490 Y65.5651
G01 X34.8990 Y65.4977
G01 X34.9197 Y65.4748
G01 X34.9197 Y43.7783
G01 X34.8691 Y43.7224
G01 X34.8191 Y43.6550
G01 X34.7760 Y43.5830
G01 X34.7401 Y43.5072
G01 X34.7118 Y43.4282
G01 X34.6914 Y43.3468
G01 X34.6791 Y43.2638
G01 X34.6750 Y43.1800
G01 X34.6791 Y43.0962
G01 X34.6914 Y43.0132
G01 X34.7118 Y42.9318
G01 X34.7401 Y42.8528
G01 X34.7760 Y42.7770
G01 X34.8191 Y42.7050
G01 X34.8691 Y42.6376
G01 X34.9197 Y42.5817
G01 X34.9197 Y41.2383
G01 X34.8691 Y41.1824
G01 X34.8191 Y41.1150
G01 X34.7760 Y41.0430
G01 X34.7401 Y40.9672
G01 X34.7118 Y40.8882
G01 X34.6914 Y40.8068
G01 X34.6791 Y40.7238
G01 X34.6750 Y40.6400
G01 X34.6791 Y40.5562
G01 X34.6914 Y40.4732
G01 X34.7118 Y40.3918
G01 X34.7401 Y40.3128
G01 X34.7760 Y40.2370
G01 X34.8191 Y40.1650
G01 X34.8691 Y40.0976
G01 X34.9197 Y40.0417
G01 X34.9197 Y18.3452
G01 X34.8990 Y18.3223
G01 X34.8490 Y18.2549
G01 X34.8060 Y18.1830
G01 X34.7700 Y18.1071
G01 X34.7418 Y18.0282
G01 X34.7214 Y17.9468
G01 X34.7091 Y17.8638
G01 X34.7050 Y17.7800
G01 X34.7091 Y17.6962
G01 X34.7214 Y17.6132
G01 X34.7418 Y17.5318
G01 X34.7700 Y17.4529
G01 X34.8060 Y17.3770
G01 X34.8490 Y17.3051
G01 X34.8990 Y17.2377
G01 X34.9197 Y17.2148
G01 X34.9197 Y15.8052
G01 X34.8990 Y15.7823
G01 X34.8490 Y15.7149
G01 X34.8060 Y15.6430
G01 X34.7700 Y15.5671
G01 X34.7418 Y15.4882
G01 X34.7214 Y15.4068
G01 X34.7091 Y15.3238
G01 X34.7050 Y15.2400
G01 X34.7091 Y15.1562
G01 X34.7214 Y15.0732
G01 X34.7418 Y14.9918
G01 X34.7700 Y14.9129
G01 X34.8060 Y14.8370
G01 X34.8490 Y14.7651
G01 X34.8990 Y14.6977
G01 X34.9197 Y14.6748
G01 X34.9197 Y10.4786
G01 X31.6261 Y7.1850
G01 X10.3078 Y7.1850
G01 X10.3064 Y7.1945
G01 X10.3003 Y7.2188
G01 X10.2919 Y7.2423
G01 X10.2813 Y7.2648
G01 X10.2682 Y7.2865
G01 X10.2534 Y7.3064
G01 X10.2365 Y7.3251
G01 X10.2181 Y7.3418
G01 X10.1982 Y7.3566
G01 X10.1763 Y7.3697
G01 X10.1539 Y7.3803
G01 X10.1303 Y7.3887
G01 X10.1061 Y7.3948
G01 X10.0814 Y7.3984
G01 X10.0563 Y7.3997
G01 X8.6063 Y7.3997
G01 X8.5816 Y7.3985
G01 X8.5563 Y7.3947
G01 X8.5323 Y7.3887
G01 X8.5085 Y7.3802
G01 X8.4861 Y7.3696
G01 X8.4647 Y7.3567
G01 X8.4446 Y7.3418
G01 X8.4262 Y7.3252
G01 X8.4091 Y7.3063
G01 X8.3943 Y7.2863
G01 X8.3814 Y7.2649
G01 X8.3707 Y7.2423
G01 X8.3624 Y7.2189
G01 X8.3562 Y7.1942
G01 X8.3526 Y7.1697
G01 X8.3513 Y7.1447
G01 X8.3513 Y5.9447
G01 X8.3526 Y5.9197
G01 X8.3562 Y5.8952
G01 X8.3623 Y5.8707
G01 X8.3706 Y5.8473
G01 X8.3816 Y5.8243
G01 X8.3943 Y5.8030
G01 X8.4092 Y5.7829
G01 X8.4260 Y5.7644
G01 X8.4446 Y5.7476
G01 X8.4647 Y5.7327
G01 X8.4861 Y5.7198
G01 X8.5087 Y5.7091
G01 X8.5321 Y5.7007
G01 X8.5568 Y5.6945
G01 X8.5813 Y5.6909
G01 X8.6063 Y5.6897
G01 X10.0563 Y5.6897
G01 X10.0814 Y5.6909
G01 X10.1061 Y5.6946
G01 X10.1303 Y5.7007
G01 X10.1539 Y5.7091
G01 X10.1763 Y5.7197
G01 X10.1982 Y5.7328
G01 X10.2181 Y5.7476
G01 X10.2365 Y5.7643
G01 X10.2534 Y5.7829
G01 X10.2682 Y5.8028
G01 X10.2813 Y5.8246
G01 X10.2919 Y5.8471
G01 X10.3003 Y5.8705
G01 X10.3064 Y5.8948
G01 X10.3078 Y5.9044
G01 X31.5625 Y5.9044
G01 X31.5864 Y5.8931
G01 X31.6456 Y5.8719
G01 X31.7064 Y5.8567
G01 X31.7684 Y5.8475
G01 X31.8316 Y5.8444
G01 X31.8941 Y5.8474
G01 X31.9560 Y5.8566
G01 X32.0174 Y5.8720
G01 X32.0764 Y5.8931
G01 X32.1332 Y5.9200
G01 X32.1873 Y5.9524
G01 X32.2375 Y5.9897
G01 X32.2840 Y6.0318
G01 X36.0129 Y9.7607
G01 X36.0550 Y9.8071
G01 X36.0924 Y9.8576
G01 X36.1247 Y9.9115
G01 X36.1516 Y9.9683
G01 X36.1727 Y10.0275
G01 X36.1880 Y10.0884
G01 X36.1972 Y10.1506
G01 X36.2003 Y10.2131
G00 Z2.0000
G00 X88.9863 Y4.1320
G01 F80.00
G01 Z-0.2000
G01 F100.00
G01 X88.9803 Y4.1709
G01 X88.9252 Y4.3444
G01 X88.8757 Y4.6317
G01 X88.8695 Y4.7528
G01 X88.8695 Y7.9472
G01 X88.8757 Y8.0683
G01 X88.9252 Y8.3556
G01 X88.9803 Y8.5291
G01 X88.9863 Y8.5680
G01 X88.9863 Y12.7108
G01 X88.9659 Y12.7804
G01 X88.9118 Y12.8275
G01 X88.9099 Y12.8284
G01 X88.8573 Y12.8397
G01 X77.5563 Y12.8397
G01 X77.5563 Y14.3071
G01 X77.5361 Y14.3757
G01 X77.4335 Y14.5329
G01 X77.3349 Y14.7576
G01 X77.2747 Y14.9955
G01 X77.2544 Y15.2400
G01 X77.2747 Y15.4845
G01 X77.3349 Y15.7224
G01 X77.4335 Y15.9471
G01 X77.5356 Y16.1035
G01 X77.5563 Y16.1724
G01 X77.5562 Y16.8475
G01 X77.5361 Y16.9157
G01 X77.4335 Y17.0729
G01 X77.3349 Y17.2976
G01 X77.2747 Y17.5355
G01 X77.2544 Y17.7800
G01 X77.2747 Y18.0245
G01 X77.3349 Y18.2624
G01 X77.4335 Y18.4871
G01 X77.5356 Y18.6435
G01 X77.5563 Y18.7124
G01 X77.5563 Y24.1408
G01 X77.5359 Y24.2104
G01 X77.4820 Y24.2573
G01 X77.4799 Y24.2584
G01 X77.4273 Y24.2697
G01 X64.9753 Y24.2697
G01 X64.9056 Y24.2492
G01 X64.8587 Y24.1954
G01 X64.8576 Y24.1933
G01 X64.8463 Y24.1407
G01 X64.8463 Y18.4232
G01 X64.8571 Y18.3718
G01 X64.9051 Y18.2624
G01 X64.9653 Y18.0245
G01 X64.9856 Y17.7800
G01 X64.9653 Y17.5355
G01 X64.9051 Y17.2976
G01 X64.8571 Y17.1882
G01 X64.8463 Y17.1366
G01 X64.8463 Y15.8830
G01 X64.8571 Y15.8318
G01 X64.9051 Y15.7224
G01 X64.9653 Y15.4845
G01 X64.9856 Y15.2400
G01 X64.9653 Y14.9955
G01 X64.9051 Y14.7576
G01 X64.8571 Y14.6482
G01 X64.8463 Y14.5966
G01 X64.8463 Y0.2587
G01 X64.8668 Y0.1890
G01 X64.9206 Y0.1420
G01 X64.9227 Y0.1410
G01 X64.9753 Y0.1297
G01 X88.8582 Y0.1297
G01 X88.9258 Y0.1496
G01 X88.9279 Y0.1508
G01 X88.9745 Y0.2048
G01 X88.9863 Y0.2586
G01 X88.9863 Y4.1320
G00 Z2.0000
G00 X99.0600 Y-0.0800
G01 F80.00
G01 Z-0.2000
G01 F100.00
G01 X99.0678 Y-0.0797
G01 X99.0756 Y-0.0785
G01 X99.0832 Y-0.0766
G01 X99.0906 Y-0.0739
G01 X99.0977 Y-0.0706
G01 X99.1045 Y-0.0665
G01 X99.1108 Y-0.0619
G01 X99.1166 Y-0.0566
G01 X99.1219 Y-0.0508
G01 X99.1265 Y-0.0445
G01 X99.1306 Y-0.0377
G01 X99.1339 Y-0.0306
G01 X99.1366 Y-0.0232
G01 X99.1385 Y-0.0156
G01 X99.1397 Y-0.0078
G01 X99.1400 Y0.0000
G01 X99.1400 Y99.0600
G01 X99.1397 Y99.0678
G01 X99.1385 Y99.0756
G01 X99.1366 Y99.0832
G01 X99.1339 Y99.0906
G01 X99.1306 Y99.0977
G01 X99.1265 Y99.1045
G01 X99.1219 Y99.1108
G01 X99.1166 Y99.1166
G01 X99.1108 Y99.1219
G01 X99.1045 Y99.1265
G01 X99.0977 Y99.1306
G01 X99.0906 Y99.1339
G01 X99.0832 Y99.1366
G01 X99.0756 Y99.1385
G01 X99.0678 Y99.1397
G01 X99.0600 Y99.1400
G01 X0.0000 Y99.1400
G01 X-0.0078 Y99.1397
G01 X-0.0156 Y99.1385
G01 X-0.0232 Y99.1366
G01 X-0.0306 Y99.1339
G01 X-0.0377 Y99.1306
G01 X-0.0445 Y99.1265
G01 X-0.0508 Y99.1219
G01 X-0.0566 Y99.1166
G01 X-0.0619 Y99.1108
G01 X-0.0665 Y99.1045
G01 X-0.0706 Y99.0977
G01 X-0.0739 Y99.0906
G01 X-0.0766 Y99.0832
G01 X-0.0785 Y99.0756
G01 X-0.0797 Y99.0678
G01 X-0.0800 Y99.0600
G01 X-0.0800 Y0.0000
G01 X-0.0797 Y-0.0078
G01 X-0.0785 Y-0.0156
G01 X-0.0766 Y-0.0232
G01 X-0.0739 Y-0.0306
G01 X-0.0706 Y-0.0377
G01 X-0.0665 Y-0.0445
G01 X-0.0619 Y-0.0508
G01 X-0.0566 Y-0.0566
G01 X-0.0508 Y-0.0619
G01 X-0.0445 Y-0.0665
G01 X-0.0377 Y-0.0706
G01 X-0.0306 Y-0.0739
G01 X-0.0232 Y-0.0766
G01 X-0.0156 Y-0.0785
G01 X-0.0078 Y-0.0797
G01 X0.0000 Y-0.0800
G01 X99.0600 Y-0.0800
G00 Z2.0000
G00 X77.4035 Y43.8871
G01 F80.00
G01 Z-0.2000
G01 F100.00
G01 X77.5355 Y44.0892
G01 X77.5563 Y44.1585
G01 X77.5563 Y49.5408
G01 X77.5358 Y49.6105
G01 X77.4810 Y49.6580
G01 X77.4273 Y49.6697
G01 X64.9753 Y49.6697
G01 X64.9056 Y49.6492
G01 X64.8584 Y49.5950
G01 X64.8576 Y49.5933
G01 X64.8463 Y49.5407
G01 X64.8463 Y43.7548
G01 X64.8570 Y43.7036
G01 X64.8751 Y43.6624
G01 X64.9353 Y43.4245
G01 X64.9556 Y43.1800
G01 X64.9353 Y42.9355
G01 X64.8751 Y42.6976
G01 X64.8570 Y42.6564
G01 X64.8463 Y42.6050
G01 X64.8463 Y41.2147
G01 X64.8570 Y41.1636
G01 X64.8751 Y41.1224
G01 X64.9353 Y40.8845
G01 X64.9556 Y40.6400
G01 X64.9353 Y40.3955
G01 X64.8751 Y40.1576
G01 X64.8570 Y40.1164
G01 X64.8463 Y40.0650
G01 X64.8463 Y25.0292
G01 X64.8667 Y24.9596
G01 X64.8677 Y24.9584
G01 X64.9215 Y24.9120
G01 X64.9753 Y24.9002
G01 X77.4271 Y24.9002
G01 X77.5627 Y24.8856
G01 X77.6136 Y24.8745
G01 X77.7625 Y24.8221
G01 X77.8952 Y24.7335
G01 X77.9477 Y24.6881
G01 X77.9795 Y24.6585
G01 X78.0777 Y24.5328
G01 X78.1415 Y24.3865
G01 X78.1518 Y24.3517
G01 X78.1902 Y24.2919
G01 X78.1920 Y24.2904
G01 X78.2559 Y24.2613
G01 X78.2752 Y24.2597
G01 X88.8573 Y24.2597
G01 X88.9269 Y24.2801
G01 X88.9281 Y24.2811
G01 X88.9745 Y24.3348
G01 X88.9863 Y24.3887
G01 X88.9863 Y29.5320
G01 X88.9803 Y29.5709
G01 X88.9252 Y29.7444
G01 X88.8757 Y30.0317
G01 X88.8695 Y30.1528
G01 X88.8695 Y33.3472
G01 X88.8757 Y33.4683
G01 X88.9252 Y33.7556
G01 X88.9803 Y33.9291
G01 X88.9863 Y33.9679
G01 X88.9863 Y38.1107
G01 X88.9659 Y38.1803
G01 X88.9649 Y38.1815
G01 X88.9112 Y38.2279
G01 X88.8573 Y38.2397
G01 X77.5563 Y38.2397
G01 X77.5563 Y39.6613
G01 X77.5360 Y39.7300
G01 X77.4035 Y39.9329
G01 X77.3049 Y40.1576
G01 X77.2447 Y40.3955
G01 X77.2244 Y40.6400
G01 X77.2447 Y40.8845
G01 X77.3049 Y41.1224
G01 X77.4035 Y41.3471
G01 X77.5355 Y41.5492
G01 X77.5563 Y41.6182
G01 X77.5562 Y42.2017
G01 X77.5360 Y42.2700
G01 X77.4035 Y42.4729
G01 X77.3049 Y42.6976
G01 X77.2447 Y42.9355
G01 X77.2244 Y43.1800
G01 X77.2447 Y43.4245
G01 X77.3049 Y43.6624
G01 X77.4035 Y43.8871
G00 Z2.0000
G00 X77.4335 Y69.2871
G01 F80.00
G01 Z-0.2000
G01 F100.00
G01 X77.5355 Y69.4432
G01 X77.5563 Y69.5125
G01 X77.5563 Y74.9408
G01 X77.5358 Y75.0105
G01 X77.4808 Y75.0580
G01 X77.4273 Y75.0697
G01 X64.9753 Y75.0697
G01 X64.9056 Y75.0492
G01 X64.8584 Y74.9950
G01 X64.8576 Y74.9933
G01 X64.8463 Y74.9407
G01 X64.8463 Y69.2232
G01 X64.8571 Y69.1718
G01 X64.9051 Y69.0624
G01 X64.9653 Y68.8245
G01 X64.9856 Y68.5800
G01 X64.9653 Y68.3355
G01 X64.9051 Y68.0976
G01 X64.8571 Y67.9882
G01 X64.8463 Y67.9366
G01 X64.8463 Y66.6830
G01 X64.8571 Y66.6318
G01 X64.9051 Y66.5224
G01 X64.9653 Y66.2845
G01 X64.9856 Y66.0400
G01 X64.9653 Y65.7955
G01 X64.9051 Y65.5576
G01 X64.8571 Y65.4482
G01 X64.8463 Y65.3966
G01 X64.8463 Y50.4292
G01 X64.8668 Y50.3595
G01 X64.9210 Y50.3122
G01 X64.9227 Y50.3115
G01 X64.9753 Y50.3002
G01 X77.4271 Y50.3002
G01 X77.5627 Y50.2856
G01 X77.6136 Y50.2745
G01 X77.7625 Y50.2221
G01 X77.8952 Y50.1335
G01 X77.9477 Y50.0881
G01 X77.9795 Y50.0585
G01 X78.0777 Y49.9328
G01 X78.1415 Y49.7865
G01 X78.1518 Y49.7517
G01 X78.1902 Y49.6919
G01 X78.1920 Y49.6904
G01 X78.2559 Y49.6613
G01 X78.2752 Y49.6597
G01 X88.8573 Y49.6597
G01 X88.9270 Y49.6801
G01 X88.9743 Y49.7344
G01 X88.9750 Y49.7361
G01 X88.9863 Y49.7887
G01 X88.9863 Y54.9321
G01 X88.9803 Y54.9709
G01 X88.9252 Y55.1444
G01 X88.8757 Y55.4317
G01 X88.8695 Y55.5528
G01 X88.8695 Y58.7472
G01 X88.8757 Y58.8683
G01 X88.9252 Y59.1556
G01 X88.9803 Y59.3291
G01 X88.9863 Y59.3680
G01 X88.9863 Y63.5107
G01 X88.9659 Y63.5803
G01 X88.9649 Y63.5815
G01 X88.9112 Y63.6279
G01 X88.8573 Y63.6397
G01 X77.5563 Y63.6397
G01 X77.5563 Y65.1071
G01 X77.5361 Y65.1757
G01 X77.4335 Y65.3329
G01 X77.3349 Y65.5576
G01 X77.2747 Y65.7955
G01 X77.2544 Y66.0400
G01 X77.2747 Y66.2845
G01 X77.3349 Y66.5224
G01 X77.4335 Y66.7471
G01 X77.5356 Y66.9035
G01 X77.5563 Y66.9723
G01 X77.5562 Y67.6475
G01 X77.5361 Y67.7157
G01 X77.4335 Y67.8729
G01 X77.3349 Y68.0976
G01 X77.2747 Y68.3355
G01 X77.2544 Y68.5800
G01 X77.2747 Y68.8245
G01 X77.3349 Y69.0624
G01 X77.4335 Y69.2871
G00 Z2.0000
G00 X77.4335 Y92.1471
G01 F80.00
G01 Z-0.2000
G01 F100.00
G01 X77.3349 Y91.9224
G01 X77.2747 Y91.6845
G01 X77.2544 Y91.4400
G01 X77.2747 Y91.1955
G01 X77.3349 Y90.9576
G01 X77.4335 Y90.7329
G01 X77.5361 Y90.5757
G01 X77.5563 Y90.5069
G01 X77.5563 Y87.7697
G01 X88.8573 Y87.7697
G01 X88.9112 Y87.7579
G01 X88.9658 Y87.7105
G01 X88.9863 Y87.6407
G01 X88.9863 Y84.7679
G01 X88.9803 Y84.7291
G01 X88.9252 Y84.5556
G01 X88.8757 Y84.2683
G01 X88.8695 Y84.1472
G01 X88.8695 Y80.9528
G01 X88.8757 Y80.8317
G01 X88.9252 Y80.5444
G01 X88.9803 Y80.3709
G01 X88.9863 Y80.3320
G01 X88.9863 Y75.1887
G01 X88.9745 Y75.1348
G01 X88.9271 Y75.0802
G01 X88.8573 Y75.0597
G01 X78.2752 Y75.0597
G01 X78.2559 Y75.0613
G01 X78.1920 Y75.0904
G01 X78.1902 Y75.0919
G01 X78.1518 Y75.1517
G01 X78.1415 Y75.1865
G01 X78.0777 Y75.3328
G01 X77.9795 Y75.4585
G01 X77.9477 Y75.4881
G01 X77.8952 Y75.5335
G01 X77.7625 Y75.6221
G01 X77.6136 Y75.6745
G01 X77.5627 Y75.6856
G01 X77.4271 Y75.7002
G01 X64.9753 Y75.7002
G01 X64.9215 Y75.7120
G01 X64.8676 Y75.7585
G01 X64.8662 Y75.7607
G01 X64.8463 Y75.8292
G01 X64.8463 Y90.7966
G01 X64.8571 Y90.8482
G01 X64.9051 Y90.9576
G01 X64.9653 Y91.1955
G01 X64.9856 Y91.4400
G01 X64.9653 Y91.6845
G01 X64.9051 Y91.9224
G01 X64.8571 Y92.0318
G01 X64.8463 Y92.0830
G01 X64.8463 Y93.3366
G01 X64.8571 Y93.3882
G01 X64.9051 Y93.4976
G01 X64.9653 Y93.7355
G01 X64.9856 Y93.9800
G01 X64.9653 Y94.2245
G01 X64.9051 Y94.4624
G01 X64.8571 Y94.5718
G01 X64.8463 Y94.6232
G01 X64.8463 Y98.9355
G01 X64.8559 Y98.9800
G01 X64.2030 Y98.9800
G01 X64.2158 Y98.9355
G01 X64.2158 Y94.6236
G01 X64.2294 Y94.4927
G01 X64.2397 Y94.4434
G01 X64.2696 Y94.3501
G01 X64.2900 Y94.3071
G01 X64.3181 Y94.2283
G01 X64.3385 Y94.1469
G01 X64.3509 Y94.0638
G01 X64.3550 Y93.9800
G01 X64.3509 Y93.8962
G01 X64.3385 Y93.8131
G01 X64.3181 Y93.7317
G01 X64.2900 Y93.6529
G01 X64.2696 Y93.6099
G01 X64.2397 Y93.5166
G01 X64.2294 Y93.4673
G01 X64.2158 Y93.3364
G01 X64.2158 Y92.0836
G01 X64.2294 Y91.9527
G01 X64.2397 Y91.9034
G01 X64.2696 Y91.8101
G01 X64.2900 Y91.7671
G01 X64.3181 Y91.6883
G01 X64.3385 Y91.6069
G01 X64.3509 Y91.5238
G01 X64.3550 Y91.4400
G01 X64.3509 Y91.3562
G01 X64.3385 Y91.2731
G01 X64.3181 Y91.1917
G01 X64.2900 Y91.1129
G01 X64.2696 Y91.0699
G01 X64.2397 Y90.9766
G01 X64.2294 Y90.9273
G01 X64.2158 Y90.7964
G01 X64.2158 Y75.8295
G01 X64.2359 Y75.6709
G01 X64.2416 Y75.6501
G01 X64.2612 Y75.5834
G01 X64.3272 Y75.4320
G01 X64.3378 Y75.3786
G01 X64.3166 Y75.3101
G01 X64.2939 Y75.2758
G01 X64.2415 Y75.1270
G01 X64.2304 Y75.0760
G01 X64.2158 Y74.9404
G01 X64.2158 Y69.2236
G01 X64.2294 Y69.0927
G01 X64.2397 Y69.0434
G01 X64.2696 Y68.9501
G01 X64.2900 Y68.9071
G01 X64.3181 Y68.8283
G01 X64.3385 Y68.7469
G01 X64.3509 Y68.6638
G01 X64.3550 Y68.5800
G01 X64.3509 Y68.4962
G01 X64.3385 Y68.4131
G01 X64.3181 Y68.3317
G01 X64.2900 Y68.2529
G01 X64.2696 Y68.2099
G01 X64.2397 Y68.1166
G01 X64.2294 Y68.0673
G01 X64.2158 Y67.9364
G01 X64.2158 Y66.6836
G01 X64.2294 Y66.5527
G01 X64.2397 Y66.5034
G01 X64.2696 Y66.4101
G01 X64.2900 Y66.3671
G01 X64.3181 Y66.2883
G01 X64.3385 Y66.2069
G01 X64.3509 Y66.1238
G01 X64.3550 Y66.0400
G01 X64.3509 Y65.9562
G01 X64.3385 Y65.8731
G01 X64.3181 Y65.7917
G01 X64.2900 Y65.7129
G01 X64.2696 Y65.6699
G01 X64.2397 Y65.5766
G01 X64.2294 Y65.5273
G01 X64.2158 Y65.3964
G01 X64.2158 Y50.4295
G01 X64.2359 Y50.2709
G01 X64.2416 Y50.2501
G01 X64.2612 Y50.1834
G01 X64.3272 Y50.0320
G01 X64.3378 Y49.9786
G01 X64.3166 Y49.9101
G01 X64.2939 Y49.8758
G01 X64.2415 Y49.7270
G01 X64.2304 Y49.6760
G01 X64.2158 Y49.5404
G01 X64.2158 Y43.7552
G01 X64.2294 Y43.6243
G01 X64.2397 Y43.5750
G01 X64.2737 Y43.4687
G01 X64.2882 Y43.4282
G01 X64.3086 Y43.3468
G01 X64.3209 Y43.2638
G01 X64.3250 Y43.1800
G01 X64.3209 Y43.0962
G01 X64.3086 Y43.0132
G01 X64.2882 Y42.9318
G01 X64.2737 Y42.8913
G01 X64.2397 Y42.7850
G01 X64.2294 Y42.7357
G01 X64.2158 Y42.6048
G01 X64.2158 Y41.2152
G01 X64.2294 Y41.0843
G01 X64.2397 Y41.0350
G01 X64.2737 Y40.9287
G01 X64.2882 Y40.8882
G01 X64.3086 Y40.8068
G01 X64.3209 Y40.7238
G01 X64.3250 Y40.6400
G01 X64.3209 Y40.5562
G01 X64.3086 Y40.4732
G01 X64.2882 Y40.3918
G01 X64.2737 Y40.3513
G01 X64.2397 Y40.2450
G01 X64.2294 Y40.1957
G01 X64.2158 Y40.0648
G01 X64.2158 Y25.0295
G01 X64.2359 Y24.8709
G01 X64.2416 Y24.8501
G01 X64.2612 Y24.7834
G01 X64.3272 Y24.6320
G01 X64.3378 Y24.5786
G01 X64.3166 Y24.5101
G01 X64.2939 Y24.4758
G01 X64.2415 Y24.3270
G01 X64.2304 Y24.2760
G01 X64.2158 Y24.1404
G01 X64.2158 Y18.4236
G01 X64.2294 Y18.2927
G01 X64.2397 Y18.2434
G01 X64.2696 Y18.1501
G01 X64.2900 Y18.1071
G01 X64.3181 Y18.0283
G01 X64.3385 Y17.9469
G01 X64.3509 Y17.8638
G01 X64.3550 Y17.7800
G01 X64.3509 Y17.6962
G01 X64.3385 Y17.6131
G01 X64.3181 Y17.5317
G01 X64.2900 Y17.4529
G01 X64.2696 Y17.4099
G01 X64.2397 Y17.3166
G01 X64.2294 Y17.2673
G01 X64.2158 Y17.1364
G01 X64.2158 Y15.8836
G01 X64.2294 Y15.7527
G01 X64.2397 Y15.7034
G01 X64.2696 Y15.6101
G01 X64.2900 Y15.5671
G01 X64.3181 Y15.4883
G01 X64.3385 Y15.4069
G01 X64.3509 Y15.3238
G01 X64.3550 Y15.2400
G01 X64.3509 Y15.1562
G01 X64.3385 Y15.0731
G01 X64.3181 Y14.9917
G01 X64.2900 Y14.9129
G01 X64.2696 Y14.8699
G01 X64.2397 Y14.7766
G01 X64.2294 Y14.7273
G01 X64.2158 Y14.5964
G01 X64.2158 Y0.2590
G01 X64.2308 Y0.1400
G01 X64.2217 Y0.0800
G01 X98.9800 Y0.0800
G01 X98.9800 Y0.1425
G01 X98.9355 Y0.1297
G01 X89.7458 Y0.1297
G01 X89.6920 Y0.1415
G01 X89.6375 Y0.1887
G01 X89.6367 Y0.1902
G01 X89.6168 Y0.2587
G01 X89.6168 Y4.1318
G01 X89.6093 Y4.2294
G01 X89.6036 Y4.2666
G01 X89.5870 Y4.3371
G01 X89.5598 Y4.4132
G01 X89.5239 Y4.5565
G01 X89.5022 Y4.7025
G01 X89.4950 Y4.8500
G01 X89.4950 Y7.8501
G01 X89.5022 Y7.9975
G01 X89.5239 Y8.1435
G01 X89.5598 Y8.2868
G01 X89.5870 Y8.3629
G01 X89.6036 Y8.4334
G01 X89.6093 Y8.4706
G01 X89.6168 Y8.5683
G01 X89.6168 Y12.7104
G01 X89.5968 Y12.8690
G01 X89.5911 Y12.8898
G01 X89.5715 Y12.9565
G01 X89.5077 Y13.1028
G01 X89.4095 Y13.2285
G01 X89.3777 Y13.2581
G01 X89.3252 Y13.3035
G01 X89.1925 Y13.3921
G01 X89.0436 Y13.4445
G01 X88.9927 Y13.4556
G01 X88.8571 Y13.4702
G01 X78.3158 Y13.4702
G01 X78.2619 Y13.4820
G01 X78.2082 Y13.5284
G01 X78.2071 Y13.5298
G01 X78.1868 Y13.5989
G01 X78.1868 Y14.3062
G01 X78.1668 Y14.4648
G01 X78.1611 Y14.4856
G01 X78.1415 Y14.5523
G01 X78.0776 Y14.6988
G01 X78.0746 Y14.7036
G01 X78.0291 Y14.7650
G01 X77.9861 Y14.8367
G01 X77.9500 Y14.9130
G01 X77.9218 Y14.9918
G01 X77.9014 Y15.0732
G01 X77.8891 Y15.1562
G01 X77.8850 Y15.2400
G01 X77.8891 Y15.3238
G01 X77.9014 Y15.4068
G01 X77.9218 Y15.4882
G01 X77.9500 Y15.5670
G01 X77.9861 Y15.6433
G01 X78.0291 Y15.7150
G01 X78.0671 Y15.7662
G01 X78.1330 Y15.9016
G01 X78.1395 Y15.9221
G01 X78.1596 Y15.9886
G01 X78.1863 Y16.1463
G01 X78.1868 Y16.1723
G01 X78.1868 Y16.8462
G01 X78.1668 Y17.0048
G01 X78.1611 Y17.0256
G01 X78.1415 Y17.0923
G01 X78.0776 Y17.2388
G01 X78.0746 Y17.2436
G01 X78.0291 Y17.3050
G01 X77.9859 Y17.3771
G01 X77.9501 Y17.4528
G01 X77.9219 Y17.5317
G01 X77.9014 Y17.6134
G01 X77.8891 Y17.6962
G01 X77.8850 Y17.7800
G01 X77.8891 Y17.8638
G01 X77.9014 Y17.9466
G01 X77.9219 Y18.0283
G01 X77.9501 Y18.1072
G01 X77.9859 Y18.1829
G01 X78.0291 Y18.2550
G01 X78.0671 Y18.3062
G01 X78.1330 Y18.4416
G01 X78.1395 Y18.4621
G01 X78.1596 Y18.5286
G01 X78.1863 Y18.6863
G01 X78.1868 Y18.7123
G01 X78.1868 Y23.5003
G01 X78.1987 Y23.5541
G01 X78.2450 Y23.6078
G01 X78.2465 Y23.6089
G01 X78.3158 Y23.6292
G01 X88.8570 Y23.6292
G01 X89.0156 Y23.6492
G01 X89.0364 Y23.6549
G01 X89.1031 Y23.6745
G01 X89.2545 Y23.7405
G01 X89.3079 Y23.7511
G01 X89.3764 Y23.7300
G01 X89.4107 Y23.7072
G01 X89.5595 Y23.6548
G01 X89.6105 Y23.6438
G01 X89.7461 Y23.6292
G01 X98.9355 Y23.6292
G01 X98.9800 Y23.6196
G01 X98.9800 Y24.2725
G01 X98.9355 Y24.2597
G01 X89.7458 Y24.2597
G01 X89.6932 Y24.2710
G01 X89.6912 Y24.2719
G01 X89.6373 Y24.3190
G01 X89.6168 Y24.3886
G01 X89.6168 Y29.5318
G01 X89.6093 Y29.6294
G01 X89.6036 Y29.6666
G01 X89.5870 Y29.7371
G01 X89.5598 Y29.8132
G01 X89.5239 Y29.9565
G01 X89.5022 Y30.1025
G01 X89.4950 Y30.2499
G01 X89.4950 Y33.2501
G01 X89.5022 Y33.3975
G01 X89.5239 Y33.5435
G01 X89.5598 Y33.6868
G01 X89.5870 Y33.7629
G01 X89.6036 Y33.8334
G01 X89.6093 Y33.8706
G01 X89.6168 Y33.9683
G01 X89.6168 Y38.1104
G01 X89.5968 Y38.2690
G01 X89.5911 Y38.2898
G01 X89.5715 Y38.3565
G01 X89.5077 Y38.5028
G01 X89.4095 Y38.6285
G01 X89.3777 Y38.6581
G01 X89.3252 Y38.7035
G01 X89.1925 Y38.7921
G01 X89.0436 Y38.8445
G01 X88.9927 Y38.8556
G01 X88.8571 Y38.8702
G01 X78.3149 Y38.8703
G01 X78.2620 Y38.8820
G01 X78.2080 Y38.9286
G01 X78.2067 Y38.9307
G01 X78.1869 Y38.9983
G01 X78.1868 Y39.6603
G01 X78.1668 Y39.8189
G01 X78.1611 Y39.8397
G01 X78.1415 Y39.9064
G01 X78.0776 Y40.0529
G01 X78.0651 Y40.0731
G01 X78.0488 Y40.0979
G01 X77.9990 Y40.1652
G01 X77.9560 Y40.2370
G01 X77.9200 Y40.3129
G01 X77.8918 Y40.3918
G01 X77.8714 Y40.4732
G01 X77.8591 Y40.5562
G01 X77.8550 Y40.6400
G01 X77.8591 Y40.7238
G01 X77.8714 Y40.8066
G01 X77.8919 Y40.8884
G01 X77.9201 Y40.9672
G01 X77.9560 Y41.0430
G01 X77.9991 Y41.1150
G01 X78.0488 Y41.1821
G01 X78.0630 Y41.2037
G01 X78.1330 Y41.3475
G01 X78.1395 Y41.3680
G01 X78.1596 Y41.4346
G01 X78.1863 Y41.5922
G01 X78.1868 Y41.6181
G01 X78.1868 Y42.2003
G01 X78.1668 Y42.3589
G01 X78.1611 Y42.3797
G01 X78.1415 Y42.4464
G01 X78.0776 Y42.5929
G01 X78.0651 Y42.6131
G01 X78.0488 Y42.6379
G01 X77.9990 Y42.7052
G01 X77.9560 Y42.7770
G01 X77.9200 Y42.8529
G01 X77.8918 Y42.9318
G01 X77.8714 Y43.0132
G01 X77.8591 Y43.0962
G01 X77.8550 Y43.1800
G01 X77.8591 Y43.2638
G01 X77.8714 Y43.3466
G01 X77.8919 Y43.4284
G01 X77.9201 Y43.5072
G01 X77.9560 Y43.5830
G01 X77.9991 Y43.6550
G01 X78.0488 Y43.7221
G01 X78.0630 Y43.7437
G01 X78.1330 Y43.8875
G01 X78.1395 Y43.9080
G01 X78.1596 Y43.9746
G01 X78.1863 Y44.1322
G01 X78.1868 Y44.1581
G01 X78.1868 Y48.9003
G01 X78.1987 Y48.9541
G01 X78.2450 Y49.0078
G01 X78.2468 Y49.0091
G01 X78.3158 Y49.0292
G01 X88.8570 Y49.0292
G01 X89.0156 Y49.0492
G01 X89.0364 Y49.0549
G01 X89.1031 Y49.0745
G01 X89.2494 Y49.1383
G01 X89.3752 Y49.2365
G01 X89.4047 Y49.2683
G01 X89.4502 Y49.3208
G01 X89.5388 Y49.4535
G01 X89.5845 Y49.5835
G01 X89.5896 Y49.5955
G01 X89.6365 Y49.6492
G01 X89.7058 Y49.6697
G01 X98.9355 Y49.6697
G01 X98.9800 Y49.6601
G01 X98.9800 Y50.3130
G01 X98.9355 Y50.3002
G01 X89.7458 Y50.3002
G01 X89.6920 Y50.3120
G01 X89.6377 Y50.3589
G01 X89.6367 Y50.3607
G01 X89.6168 Y50.4292
G01 X89.6168 Y54.9318
G01 X89.6093 Y55.0294
G01 X89.6036 Y55.0666
G01 X89.5870 Y55.1371
G01 X89.5598 Y55.2132
G01 X89.5239 Y55.3565
G01 X89.5022 Y55.5025
G01 X89.4950 Y55.6500
G01 X89.4950 Y58.6501
G01 X89.5022 Y58.7975
G01 X89.5239 Y58.9435
G01 X89.5598 Y59.0868
G01 X89.5870 Y59.1629
G01 X89.6036 Y59.2334
G01 X89.6093 Y59.2706
G01 X89.6168 Y59.3683
G01 X89.6168 Y63.5104
G01 X89.5968 Y63.6690
G01 X89.5911 Y63.6898
G01 X89.5715 Y63.7565
G01 X89.5077 Y63.9028
G01 X89.4095 Y64.0285
G01 X89.3777 Y64.0581
G01 X89.3252 Y64.1035
G01 X89.1925 Y64.1921
G01 X89.0436 Y64.2445
G01 X88.9927 Y64.2556
G01 X88.8571 Y64.2702
G01 X78.3158 Y64.2702
G01 X78.2620 Y64.2820
G01 X78.2081 Y64.3284
G01 X78.2067 Y64.3307
G01 X78.1868 Y64.3989
G01 X78.1868 Y65.1062
G01 X78.1668 Y65.2648
G01 X78.1611 Y65.2856
G01 X78.1415 Y65.3523
G01 X78.0776 Y65.4988
G01 X78.0746 Y65.5036
G01 X78.0291 Y65.5650
G01 X77.9861 Y65.6367
G01 X77.9500 Y65.7130
G01 X77.9218 Y65.7918
G01 X77.9014 Y65.8732
G01 X77.8891 Y65.9562
G01 X77.8850 Y66.0400
G01 X77.8891 Y66.1238
G01 X77.9014 Y66.2066
G01 X77.9219 Y66.2883
G01 X77.9501 Y66.3672
G01 X77.9859 Y66.4429
G01 X78.0291 Y66.5150
G01 X78.0671 Y66.5662
G01 X78.1330 Y66.7016
G01 X78.1395 Y66.7221
G01 X78.1596 Y66.7886
G01 X78.1863 Y66.9463
G01 X78.1868 Y66.9723
G01 X78.1868 Y67.6462
G01 X78.1668 Y67.8048
G01 X78.1611 Y67.8256
G01 X78.1415 Y67.8923
G01 X78.0776 Y68.0388
G01 X78.0746 Y68.0436
G01 X78.0291 Y68.1050
G01 X77.9861 Y68.1767
G01 X77.9500 Y68.2530
G01 X77.9218 Y68.3318
G01 X77.9014 Y68.4132
G01 X77.8891 Y68.4962
G01 X77.8850 Y68.5800
G01 X77.8891 Y68.6638
G01 X77.9014 Y68.7466
G01 X77.9219 Y68.8283
G01 X77.9501 Y68.9072
G01 X77.9859 Y68.9829
G01 X78.0291 Y69.0550
G01 X78.0671 Y69.1062
G01 X78.1330 Y69.2416
G01 X78.1395 Y69.2621
G01 X78.1596 Y69.3286
G01 X78.1863 Y69.4863
G01 X78.1868 Y69.5123
G01 X78.1868 Y74.3002
G01 X78.1981 Y74.3528
G01 X78.1987 Y74.3543
G01 X78.2461 Y74.4087
G01 X78.3158 Y74.4292
G01 X88.8570 Y74.4292
G01 X89.0156 Y74.4492
G01 X89.0364 Y74.4549
G01 X89.1031 Y74.4745
G01 X89.2494 Y74.5383
G01 X89.3752 Y74.6365
G01 X89.4047 Y74.6683
G01 X89.4502 Y74.7208
G01 X89.5388 Y74.8535
G01 X89.5845 Y74.9835
G01 X89.5896 Y74.9955
G01 X89.6365 Y75.0492
G01 X89.7061 Y75.0697
G01 X98.9355 Y75.0697
G01 X98.9800 Y75.0601
G01 X98.9800 Y75.7130
G01 X98.9355 Y75.7002
G01 X89.7458 Y75.7002
G01 X89.6920 Y75.7120
G01 X89.6376 Y75.7591
G01 X89.6367 Y75.7607
G01 X89.6168 Y75.8292
G01 X89.6168 Y80.3318
G01 X89.6093 Y80.4294
G01 X89.6036 Y80.4666
G01 X89.5870 Y80.5371
G01 X89.5598 Y80.6132
G01 X89.5239 Y80.7565
G01 X89.5022 Y80.9025
G01 X89.4950 Y81.0500
G01 X89.4950 Y84.0501
G01 X89.5022 Y84.1975
G01 X89.5239 Y84.3435
G01 X89.5598 Y84.4868
G01 X89.5870 Y84.5629
G01 X89.6036 Y84.6334
G01 X89.6093 Y84.6706
G01 X89.6168 Y84.7683
G01 X89.6168 Y87.6404
G01 X89.5968 Y87.7990
G01 X89.5911 Y87.8198
G01 X89.5715 Y87.8865
G01 X89.5077 Y88.0328
G01 X89.4095 Y88.1585
G01 X89.3777 Y88.1881
G01 X89.3252 Y88.2335
G01 X89.1925 Y88.3221
G01 X89.0436 Y88.3745
G01 X88.9927 Y88.3856
G01 X88.8571 Y88.4002
G01 X78.3158 Y88.4002
G01 X78.2620 Y88.4120
G01 X78.2078 Y88.4588
G01 X78.2067 Y88.4607
G01 X78.1868 Y88.5292
G01 X78.1868 Y90.5062
G01 X78.1668 Y90.6648
G01 X78.1611 Y90.6856
G01 X78.1415 Y90.7523
G01 X78.0776 Y90.8988
G01 X78.0746 Y90.9036
G01 X78.0291 Y90.9650
G01 X77.9859 Y91.0371
G01 X77.9501 Y91.1128
G01 X77.9219 Y91.1917
G01 X77.9014 Y91.2734
G01 X77.8891 Y91.3562
G01 X77.8850 Y91.4400
G01 X77.8891 Y91.5238
G01 X77.9014 Y91.6066
G01 X77.9219 Y91.6883
G01 X77.9501 Y91.7672
G01 X77.9859 Y91.8429
G01 X78.0291 Y91.9150
G01 X78.0671 Y91.9662
G01 X78.1330 Y92.1016
G01 X78.1395 Y92.1221
G01 X78.1596 Y92.1886
G01 X78.1863 Y92.3463
G01 X78.1868 Y92.3723
G01 X78.1868 Y93.0462
G01 X78.1668 Y93.2048
G01 X78.1611 Y93.2256
G01 X78.1415 Y93.2923
G01 X78.0776 Y93.4388
G01 X78.0746 Y93.4436
G01 X78.0291 Y93.5050
G01 X77.9861 Y93.5767
G01 X77.9500 Y93.6530
G01 X77.9218 Y93.7318
G01 X77.9014 Y93.8132
G01 X77.8891 Y93.8962
G01 X77.8850 Y93.9800
G01 X77.8891 Y94.0638
G01 X77.9014 Y94.1466
G01 X77.9219 Y94.2283
G01 X77.9501 Y94.3072
G01 X77.9859 Y94.3829
G01 X78.0291 Y94.4550
G01 X78.0671 Y94.5062
G01 X78.1330 Y94.6416
G01 X78.1395 Y94.6621
G01 X78.1596 Y94.7286
G01 X78.1863 Y94.8863
G01 X78.1868 Y94.9123
G01 X78.1868 Y98.9355
G01 X78.1964 Y98.9800
G01 X77.5435 Y98.9800
G01 X77.5563 Y98.9355
G01 X77.5563 Y94.9123
G01 X77.5356 Y94.8435
G01 X77.4335 Y94.6871
G01 X77.3349 Y94.4624
G01 X77.2747 Y94.2245
G01 X77.2544 Y93.9800
G01 X77.2747 Y93.7355
G01 X77.3349 Y93.4976
G01 X77.4335 Y93.2729
G01 X77.5361 Y93.1157
G01 X77.5563 Y93.0470
G01 X77.5563 Y92.3719
G01 X77.5355 Y92.3032
G01 X77.4335 Y92.1471
G00 Z2.0000
G00 X51.4345 Y98.9354
G01 F80.00
G01 Z-0.2000
G01 F100.00
G01 X51.4345 Y94.7893
G01 X51.4545 Y94.6307
G01 X51.4603 Y94.6099
G01 X51.4798 Y94.5432
G01 X51.5381 Y94.4097
G01 X51.5541 Y94.3829
G01 X51.5899 Y94.3073
G01 X51.6182 Y94.2281
G01 X51.6386 Y94.1468
G01 X51.6509 Y94.0640
G01 X51.6550 Y93.9800
G01 X51.6509 Y93.8960
G01 X51.6386 Y93.8132
G01 X51.6182 Y93.7319
G01 X51.5899 Y93.6527
G01 X51.5541 Y93.5771
G01 X51.5441 Y93.5604
G01 X51.5305 Y93.5294
G01 X51.4884 Y93.4429
G01 X51.4818 Y93.4224
G01 X51.4617 Y93.3558
G01 X51.4351 Y93.1982
G01 X51.4345 Y93.1723
G01 X51.4345 Y92.2493
G01 X51.4545 Y92.0907
G01 X51.4603 Y92.0699
G01 X51.4798 Y92.0032
G01 X51.5381 Y91.8697
G01 X51.5541 Y91.8429
G01 X51.5899 Y91.7673
G01 X51.6182 Y91.6881
G01 X51.6386 Y91.6068
G01 X51.6509 Y91.5240
G01 X51.6550 Y91.4400
G01 X51.6509 Y91.3560
G01 X51.6386 Y91.2732
G01 X51.6182 Y91.1919
G01 X51.5899 Y91.1127
G01 X51.5541 Y91.0371
G01 X51.5441 Y91.0204
G01 X51.5305 Y90.9894
G01 X51.4884 Y90.9029
G01 X51.4818 Y90.8824
G01 X51.4617 Y90.8158
G01 X51.4351 Y90.6582
G01 X51.4345 Y90.6323
G01 X51.4345 Y84.1369
G01 X51.4227 Y84.0833
G01 X51.3761 Y84.0293
G01 X51.3739 Y84.0281
G01 X51.3069 Y84.0084
G01 X51.0060 Y84.0082
G01 X50.9707 Y84.0054
G01 X50.8176 Y83.9609
G01 X50.6805 Y83.8798
G01 X50.5678 Y83.7672
G01 X50.4868 Y83.6301
G01 X50.4423 Y83.4770
G01 X50.4395 Y83.4417
G01 X50.4395 Y81.3137
G01 X50.4423 Y81.2784
G01 X50.4868 Y81.1253
G01 X50.5678 Y80.9882
G01 X50.6805 Y80.8755
G01 X50.8176 Y80.7944
G01 X50.9707 Y80.7500
G01 X51.0060 Y80.7472
G01 X51.3062 Y80.7471
G01 X51.3595 Y80.7353
G01 X51.4131 Y80.6890
G01 X51.4144 Y80.6872
G01 X51.4345 Y80.6183
G01 X51.4345 Y79.1332
G01 X51.4545 Y78.9746
G01 X51.4603 Y78.9538
G01 X51.4798 Y78.8871
G01 X51.5436 Y78.7408
G01 X51.6418 Y78.6150
G01 X51.6736 Y78.5855
G01 X51.7261 Y78.5400
G01 X51.8589 Y78.4514
G01 X51.9995 Y78.3987
G01 X52.0211 Y78.3803
G01 X52.0701 Y78.3827
G01 X52.1686 Y78.3778
G01 X52.2661 Y78.3634
G01 X52.3620 Y78.3393
G01 X52.4546 Y78.3062
G01 X52.5438 Y78.2640
G01 X52.6283 Y78.2133
G01 X52.7078 Y78.1544
G01 X52.7806 Y78.0883
G01 X52.8470 Y78.0150
G01 X52.9058 Y77.9358
G01 X52.9563 Y77.8514
G01 X52.9984 Y77.7625
G01 X53.0317 Y77.6694
G01 X53.0557 Y77.5737
G01 X53.0702 Y77.4762
G01 X53.0750 Y77.3777
G01 X53.0702 Y77.2792
G01 X53.0557 Y77.1816
G01 X53.0317 Y77.0859
G01 X52.9985 Y76.9931
G01 X52.9563 Y76.9039
G01 X52.9056 Y76.8193
G01 X52.8469 Y76.7401
G01 X52.7806 Y76.6670
G01 X52.7076 Y76.6008
G01 X52.6283 Y76.5421
G01 X52.5438 Y76.4913
G01 X52.4546 Y76.4492
G01 X52.3617 Y76.4160
G01 X52.2659 Y76.3920
G01 X52.1684 Y76.3775
G01 X52.0701 Y76.3727
G01 X52.0241 Y76.3749
G01 X51.9820 Y76.3484
G01 X51.9579 Y76.3399
G01 X51.8929 Y76.3152
G01 X51.7521 Y76.2401
G01 X51.6344 Y76.1324
G01 X51.6075 Y76.0983
G01 X51.5662 Y76.0424
G01 X51.4883 Y75.9031
G01 X51.4517 Y75.7753
G01 X51.4442 Y75.7333
G01 X51.4345 Y75.6223
G01 X51.4345 Y69.3893
G01 X51.4545 Y69.2307
G01 X51.4603 Y69.2099
G01 X51.4798 Y69.1432
G01 X51.5381 Y69.0097
G01 X51.5541 Y68.9829
G01 X51.5899 Y68.9073
G01 X51.6182 Y68.8281
G01 X51.6386 Y68.7468
G01 X51.6509 Y68.6640
G01 X51.6550 Y68.5800
G01 X51.6509 Y68.4960
G01 X51.6386 Y68.4132
G01 X51.6182 Y68.3319
G01 X51.5899 Y68.2527
G01 X51.5541 Y68.1771
G01 X51.5441 Y68.1604
G01 X51.5305 Y68.1294
G01 X51.4884 Y68.0429
G01 X51.4818 Y68.0224
G01 X51.4617 Y67.9558
G01 X51.4351 Y67.7982
G01 X51.4345 Y67.7723
G01 X51.4345 Y66.8493
G01 X51.4545 Y66.6907
G01 X51.4603 Y66.6699
G01 X51.4798 Y66.6032
G01 X51.5381 Y66.4697
G01 X51.5541 Y66.4429
G01 X51.5899 Y66.3673
G01 X51.6182 Y66.2881
G01 X51.6386 Y66.2068
G01 X51.6509 Y66.1240
G01 X51.6550 Y66.0400
G01 X51.6509 Y65.9560
G01 X51.6386 Y65.8732
G01 X51.6182 Y65.7919
G01 X51.5899 Y65.7127
G01 X51.5541 Y65.6371
G01 X51.5441 Y65.6204
G01 X51.5305 Y65.5894
G01 X51.4884 Y65.5029
G01 X51.4818 Y65.4824
G01 X51.4617 Y65.4158
G01 X51.4351 Y65.2582
G01 X51.4345 Y65.2323
G01 X51.4345 Y58.7369
G01 X51.4226 Y58.6832
G01 X51.3763 Y58.6296
G01 X51.3742 Y58.6281
G01 X51.3057 Y58.6082
G01 X51.0060 Y58.6082
G01 X50.9707 Y58.6054
G01 X50.8176 Y58.5609
G01 X50.6805 Y58.4798
G01 X50.5678 Y58.3672
G01 X50.4868 Y58.2301
G01 X50.4423 Y58.0770
G01 X50.4395 Y58.0417
G01 X50.4395 Y55.9137
G01 X50.4423 Y55.8784
G01 X50.4868 Y55.7253
G01 X50.5678 Y55.5882
G01 X50.6805 Y55.4755
G01 X50.8176 Y55.3944
G01 X50.9707 Y55.3500
G01 X51.0060 Y55.3472
G01 X51.3063 Y55.3471
G01 X51.3595 Y55.3353
G01 X51.4139 Y55.2881
G01 X51.4146 Y55.2866
G01 X51.4345 Y55.2183
G01 X51.4345 Y53.7332
G01 X51.4545 Y53.5746
G01 X51.4603 Y53.5538
G01 X51.4798 Y53.4871
G01 X51.5436 Y53.3408
G01 X51.6418 Y53.2150
G01 X51.6736 Y53.1855
G01 X51.7261 Y53.1400
G01 X51.8589 Y53.0514
G01 X51.9995 Y52.9987
G01 X52.0211 Y52.9803
G01 X52.0701 Y52.9827
G01 X52.1686 Y52.9778
G01 X52.2661 Y52.9634
G01 X52.3620 Y52.9393
G01 X52.4546 Y52.9062
G01 X52.5438 Y52.8640
G01 X52.6283 Y52.8133
G01 X52.7078 Y52.7544
G01 X52.7806 Y52.6883
G01 X52.8470 Y52.6150
G01 X52.9058 Y52.5358
G01 X52.9563 Y52.4514
G01 X52.9984 Y52.3625
G01 X53.0317 Y52.2694
G01 X53.0557 Y52.1737
G01 X53.0702 Y52.0762
G01 X53.0750 Y51.9778
G01 X53.0702 Y51.8792
G01 X53.0557 Y51.7816
G01 X53.0317 Y51.6859
G01 X52.9985 Y51.5931
G01 X52.9563 Y51.5039
G01 X52.9056 Y51.4193
G01 X52.8469 Y51.3401
G01 X52.7806 Y51.2670
G01 X52.7076 Y51.2008
G01 X52.6283 Y51.1421
G01 X52.5438 Y51.0913
G01 X52.4546 Y51.0492
G01 X52.3617 Y51.0160
G01 X52.2659 Y50.9920
G01 X52.1684 Y50.9775
G01 X52.0701 Y50.9727
G01 X52.0241 Y50.9749
G01 X51.9820 Y50.9484
G01 X51.9579 Y50.9399
G01 X51.8929 Y50.9152
G01 X51.7521 Y50.8401
G01 X51.6344 Y50.7324
G01 X51.6075 Y50.6983
G01 X51.5662 Y50.6424
G01 X51.4883 Y50.5031
G01 X51.4517 Y50.3753
G01 X51.4442 Y50.3333
G01 X51.4345 Y50.2223
G01 X51.4345 Y43.9406
G01 X51.4481 Y43.8097
G01 X51.4584 Y43.7604
G01 X51.4986 Y43.6351
G01 X51.5141 Y43.5996
G01 X51.5241 Y43.5829
G01 X51.5600 Y43.5070
G01 X51.5882 Y43.4282
G01 X51.6085 Y43.3470
G01 X51.6209 Y43.2638
G01 X51.6250 Y43.1800
G01 X51.6209 Y43.0960
G01 X51.6086 Y43.0132
G01 X51.5882 Y42.9319
G01 X51.5599 Y42.8527
G01 X51.5241 Y42.7771
G01 X51.5141 Y42.7604
G01 X51.4986 Y42.7250
G01 X51.4584 Y42.5996
G01 X51.4481 Y42.5503
G01 X51.4345 Y42.4194
G01 X51.4345 Y41.4006
G01 X51.4481 Y41.2697
G01 X51.4584 Y41.2204
G01 X51.4986 Y41.0951
G01 X51.5141 Y41.0596
G01 X51.5241 Y41.0429
G01 X51.5600 Y40.9670
G01 X51.5882 Y40.8882
G01 X51.6085 Y40.8070
G01 X51.6209 Y40.7238
G01 X51.6250 Y40.6400
G01 X51.6209 Y40.5562
G01 X51.6085 Y40.4730
G01 X51.5882 Y40.3918
G01 X51.5600 Y40.3130
G01 X51.5241 Y40.2371
G01 X51.5141 Y40.2204
G01 X51.4986 Y40.1850
G01 X51.4584 Y40.0596
G01 X51.4481 Y40.0103
G01 X51.4345 Y39.8794
G01 X51.4345 Y33.3369
G01 X51.4226 Y33.2832
G01 X51.3763 Y33.2296
G01 X51.3742 Y33.2281
G01 X51.3057 Y33.2082
G01 X51.0060 Y33.2082
G01 X50.9707 Y33.2054
G01 X50.8176 Y33.1609
G01 X50.6805 Y33.0798
G01 X50.5678 Y32.9672
G01 X50.4868 Y32.8301
G01 X50.4423 Y32.6770
G01 X50.4395 Y32.6417
G01 X50.4395 Y30.5137
G01 X50.4423 Y30.4784
G01 X50.4868 Y30.3253
G01 X50.5678 Y30.1882
G01 X50.6805 Y30.0755
G01 X50.8176 Y29.9944
G01 X50.9707 Y29.9500
G01 X51.0060 Y29.9472
G01 X51.3063 Y29.9471
G01 X51.3595 Y29.9353
G01 X51.4131 Y29.8890
G01 X51.4144 Y29.8872
G01 X51.4345 Y29.8183
G01 X51.4345 Y28.3332
G01 X51.4545 Y28.1746
G01 X51.4603 Y28.1538
G01 X51.4798 Y28.0871
G01 X51.5436 Y27.9408
G01 X51.6418 Y27.8150
G01 X51.6736 Y27.7855
G01 X51.7261 Y27.7400
G01 X51.8589 Y27.6514
G01 X51.9995 Y27.5987
G01 X52.0211 Y27.5803
G01 X52.0701 Y27.5827
G01 X52.1686 Y27.5778
G01 X52.2661 Y27.5634
G01 X52.3620 Y27.5393
G01 X52.4546 Y27.5062
G01 X52.5438 Y27.4640
G01 X52.6283 Y27.4133
G01 X52.7076 Y27.3546
G01 X52.7806 Y27.2883
G01 X52.8469 Y27.2152
G01 X52.9056 Y27.1360
G01 X52.9563 Y27.0514
G01 X52.9985 Y26.9623
G01 X53.0317 Y26.8694
G01 X53.0557 Y26.7737
G01 X53.0702 Y26.6759
G01 X53.0750 Y26.5777
G01 X53.0702 Y26.4792
G01 X53.0557 Y26.3816
G01 X53.0317 Y26.2859
G01 X52.9985 Y26.1931
G01 X52.9563 Y26.1039
G01 X52.9056 Y26.0193
G01 X52.8468 Y25.9400
G01 X52.7806 Y25.8670
G01 X52.7074 Y25.8007
G01 X52.6283 Y25.7421
G01 X52.5440 Y25.6915
G01 X52.4547 Y25.6492
G01 X52.3617 Y25.6160
G01 X52.2659 Y25.5920
G01 X52.1684 Y25.5775
G01 X52.0701 Y25.5727
G01 X52.0241 Y25.5749
G01 X51.9820 Y25.5484
G01 X51.9579 Y25.5399
G01 X51.8929 Y25.5152
G01 X51.7521 Y25.4401
G01 X51.6344 Y25.3324
G01 X51.6075 Y25.2983
G01 X51.5662 Y25.2424
G01 X51.4883 Y25.1031
G01 X51.4517 Y24.9753
G01 X51.4442 Y24.9333
G01 X51.4345 Y24.8223
G01 X51.4345 Y18.5893
G01 X51.4545 Y18.4307
G01 X51.4603 Y18.4099
G01 X51.4798 Y18.3432
G01 X51.5381 Y18.2097
G01 X51.5541 Y18.1829
G01 X51.5899 Y18.1073
G01 X51.6182 Y18.0281
G01 X51.6386 Y17.9468
G01 X51.6509 Y17.8640
G01 X51.6550 Y17.7800
G01 X51.6509 Y17.6960
G01 X51.6386 Y17.6132
G01 X51.6182 Y17.5319
G01 X51.5899 Y17.4527
G01 X51.5541 Y17.3771
G01 X51.5441 Y17.3604
G01 X51.5305 Y17.3294
G01 X51.4884 Y17.2429
G01 X51.4818 Y17.2224
G01 X51.4617 Y17.1558
G01 X51.4351 Y16.9982
G01 X51.4345 Y16.9723
G01 X51.4345 Y16.0493
G01 X51.4545 Y15.8907
G01 X51.4603 Y15.8699
G01 X51.4798 Y15.8032
G01 X51.5381 Y15.6697
G01 X51.5541 Y15.6429
G01 X51.5899 Y15.5673
G01 X51.6182 Y15.4881
G01 X51.6386 Y15.4068
G01 X51.6509 Y15.3240
G01 X51.6550 Y15.2400
G01 X51.6509 Y15.1560
G01 X51.6386 Y15.0732
G01 X51.6182 Y14.9919
G01 X51.5899 Y14.9127
G01 X51.5541 Y14.8371
G01 X51.5441 Y14.8204
G01 X51.5305 Y14.7894
G01 X51.4884 Y14.7029
G01 X51.4818 Y14.6824
G01 X51.4617 Y14.6158
G01 X51.4351 Y14.4582
G01 X51.4345 Y14.4346
G01 X51.4345 Y6.9657
G01 X51.4357 Y6.9386
G01 X51.4387 Y6.9031
G01 X51.4461 Y6.8735
G01 X51.4678 Y6.7275
G01 X51.4750 Y6.5800
G01 X51.4750 Y3.5800
G01 X51.4678 Y3.4325
G01 X51.4461 Y3.2865
G01 X51.4387 Y3.2569
G01 X51.4357 Y3.2214
G01 X51.4345 Y3.1943
G01 X51.4345 Y0.1245
G01 X51.4249 Y0.0800
G01 X52.0778 Y0.0800
G01 X52.0650 Y0.1245
G01 X52.0650 Y3.1807
G01 X52.0669 Y3.2027
G01 X52.0943 Y3.3617
G01 X52.1005 Y3.4828
G01 X52.1005 Y6.6772
G01 X52.0943 Y6.7983
G01 X52.0669 Y6.9573
G01 X52.0650 Y6.9793
G01 X52.0650 Y14.4319
G01 X52.0856 Y14.5008
G01 X52.1065 Y14.5329
G01 X52.2051 Y14.7576
G01 X52.2653 Y14.9955
G01 X52.2856 Y15.2400
G01 X52.2653 Y15.4845
G01 X52.2051 Y15.7224
G01 X52.1065 Y15.9471
G01 X52.0851 Y15.9800
G01 X52.0650 Y16.0484
G01 X52.0650 Y16.9719
G01 X52.0856 Y17.0408
G01 X52.1065 Y17.0729
G01 X52.2051 Y17.2976
G01 X52.2653 Y17.5355
G01 X52.2856 Y17.7800
G01 X52.2653 Y18.0245
G01 X52.2051 Y18.2624
G01 X52.1065 Y18.4871
G01 X52.0851 Y18.5200
G01 X52.0650 Y18.5889
G01 X52.0650 Y24.8227
G01 X52.0730 Y24.8672
G01 X52.1150 Y24.9242
G01 X52.1171 Y24.9259
G01 X52.1833 Y24.9510
G01 X52.3259 Y24.9623
G01 X52.5754 Y25.0222
G01 X52.8125 Y25.1204
G01 X53.0314 Y25.2545
G01 X53.2265 Y25.4212
G01 X53.3932 Y25.6163
G01 X53.5273 Y25.8352
G01 X53.6255 Y26.0723
G01 X53.6854 Y26.3218
G01 X53.7055 Y26.5777
G01 X53.6854 Y26.8335
G01 X53.6255 Y27.0831
G01 X53.5273 Y27.3202
G01 X53.3932 Y27.5390
G01 X53.2265 Y27.7342
G01 X53.0313 Y27.9009
G01 X52.8125 Y28.0350
G01 X52.5754 Y28.1332
G01 X52.3259 Y28.1931
G01 X52.1836 Y28.2043
G01 X52.1410 Y28.2153
G01 X52.1392 Y28.2163
G01 X52.0864 Y28.2620
G01 X52.0851 Y28.2639
G01 X52.0650 Y28.3329
G01 X52.0650 Y30.5727
G01 X51.0700 Y30.5727
G01 X51.0672 Y30.5735
G01 X51.0654 Y30.5757
G01 X51.0650 Y30.5777
G01 X51.0650 Y32.5778
G01 X51.0654 Y32.5797
G01 X51.0666 Y32.5813
G01 X51.0682 Y32.5823
G01 X51.0700 Y32.5827
G01 X52.0650 Y32.5827
G01 X52.0650 Y39.8798
G01 X52.0758 Y39.9313
G01 X52.1751 Y40.1576
G01 X52.2353 Y40.3955
G01 X52.2556 Y40.6400
G01 X52.2353 Y40.8845
G01 X52.1751 Y41.1224
G01 X52.0758 Y41.3487
G01 X52.0650 Y41.4002
G01 X52.0650 Y42.4201
G01 X52.0758 Y42.4713
G01 X52.1751 Y42.6976
G01 X52.2353 Y42.9355
G01 X52.2556 Y43.1800
G01 X52.2353 Y43.4245
G01 X52.1751 Y43.6624
G01 X52.0758 Y43.8887
G01 X52.0650 Y43.9402
G01 X52.0650 Y50.2231
G01 X52.0730 Y50.2672
G01 X52.1150 Y50.3242
G01 X52.1171 Y50.3259
G01 X52.1833 Y50.3510
G01 X52.3259 Y50.3623
G01 X52.5754 Y50.4222
G01 X52.8125 Y50.5204
G01 X53.0314 Y50.6545
G01 X53.2265 Y50.8212
G01 X53.3932 Y51.0163
G01 X53.5273 Y51.2352
G01 X53.6255 Y51.4723
G01 X53.6854 Y51.7218
G01 X53.7055 Y51.9777
G01 X53.6854 Y52.2335
G01 X53.6255 Y52.4831
G01 X53.5273 Y52.7202
G01 X53.3932 Y52.9390
G01 X53.2265 Y53.1342
G01 X53.0313 Y53.3009
G01 X52.8125 Y53.4350
G01 X52.5754 Y53.5332
G01 X52.3259 Y53.5931
G01 X52.1836 Y53.6043
G01 X52.1410 Y53.6153
G01 X52.1392 Y53.6163
G01 X52.0864 Y53.6620
G01 X52.0851 Y53.6639
G01 X52.0650 Y53.7329
G01 X52.0650 Y55.9727
G01 X51.0700 Y55.9727
G01 X51.0672 Y55.9735
G01 X51.0654 Y55.9757
G01 X51.0650 Y55.9777
G01 X51.0650 Y57.9778
G01 X51.0654 Y57.9797
G01 X51.0666 Y57.9813
G01 X51.0682 Y57.9823
G01 X51.0700 Y57.9827
G01 X52.0650 Y57.9827
G01 X52.0650 Y65.2321
G01 X52.0856 Y65.3008
G01 X52.1065 Y65.3329
G01 X52.2051 Y65.5576
G01 X52.2653 Y65.7955
G01 X52.2856 Y66.0400
G01 X52.2653 Y66.2845
G01 X52.2051 Y66.5224
G01 X52.1065 Y66.7471
G01 X52.0851 Y66.7800
G01 X52.0650 Y66.8489
G01 X52.0650 Y67.7725
G01 X52.0856 Y67.8408
G01 X52.1065 Y67.8729
G01 X52.2051 Y68.0976
G01 X52.2653 Y68.3355
G01 X52.2856 Y68.5800
G01 X52.2653 Y68.8245
G01 X52.2051 Y69.0624
G01 X52.1065 Y69.2871
G01 X52.0851 Y69.3200
G01 X52.0650 Y69.3889
G01 X52.0650 Y75.6231
G01 X52.0730 Y75.6672
G01 X52.1150 Y75.7242
G01 X52.1171 Y75.7259
G01 X52.1833 Y75.7510
G01 X52.3259 Y75.7623
G01 X52.5754 Y75.8222
G01 X52.8125 Y75.9204
G01 X53.0314 Y76.0545
G01 X53.2265 Y76.2212
G01 X53.3932 Y76.4163
G01 X53.5273 Y76.6352
G01 X53.6255 Y76.8723
G01 X53.6854 Y77.1218
G01 X53.7055 Y77.3777
G01 X53.6854 Y77.6335
G01 X53.6255 Y77.8831
G01 X53.5273 Y78.1202
G01 X53.3932 Y78.3390
G01 X53.2265 Y78.5342
G01 X53.0313 Y78.7009
G01 X52.8125 Y78.8350
G01 X52.5754 Y78.9332
G01 X52.3259 Y78.9931
G01 X52.1836 Y79.0043
G01 X52.1410 Y79.0153
G01 X52.1392 Y79.0163
G01 X52.0864 Y79.0620
G01 X52.0851 Y79.0639
G01 X52.0650 Y79.1329
G01 X52.0650 Y81.3727
G01 X51.0700 Y81.3727
G01 X51.0682 Y81.3730
G01 X51.0666 Y81.3740
G01 X51.0655 Y81.3754
G01 X51.0650 Y81.3772
G01 X51.0650 Y83.3777
G01 X51.0655 Y83.3799
G01 X51.0674 Y83.3820
G01 X51.0700 Y83.3827
G01 X52.0650 Y83.3827
G01 X52.0650 Y90.6321
G01 X52.0856 Y90.7008
G01 X52.1065 Y90.7329
G01 X52.2051 Y90.9576
G01 X52.2653 Y91.1955
G01 X52.2856 Y91.4400
G01 X52.2653 Y91.6845
G01 X52.2051 Y91.9224
G01 X52.1065 Y92.1471
G01 X52.0851 Y92.1800
G01 X52.0650 Y92.2489
G01 X52.0650 Y93.1725
G01 X52.0856 Y93.2408
G01 X52.1065 Y93.2729
G01 X52.2051 Y93.4976
G01 X52.2653 Y93.7355
G01 X52.2856 Y93.9800
G01 X52.2653 Y94.2245
G01 X52.2051 Y94.4624
G01 X52.1065 Y94.6871
G01 X52.0851 Y94.7200
G01 X52.0650 Y94.7888
G01 X52.0650 Y98.9355
G01 X52.0746 Y98.9800
G01 X51.4217 Y98.9800
G01 X51.4345 Y98.9354
G00 Z2.0000
G00 X25.9343 Y84.4073
G01 F80.00
G01 Z-0.2000
G01 F100.00
G01 X22.1040 Y88.2375
G01 X22.0575 Y88.2796
G01 X22.0073 Y88.3169
G01 X21.9532 Y88.3494
G01 X21.8961 Y88.3763
G01 X21.8372 Y88.3974
G01 X21.7762 Y88.4127
G01 X21.7141 Y88.4219
G01 X21.6513 Y88.4250
G01 X10.0215 Y88.4250
G01 X9.9986 Y88.4457
G01 X9.9314 Y88.4955
G01 X9.8595 Y88.5387
G01 X9.7835 Y88.5746
G01 X9.7043 Y88.6029
G01 X9.6231 Y88.6232
G01 X9.5400 Y88.6356
G01 X9.4564 Y88.6397
G01 X9.2062 Y88.6397
G01 X9.1225 Y88.6356
G01 X9.0395 Y88.6232
G01 X8.9581 Y88.6029
G01 X8.8794 Y88.5747
G01 X8.8031 Y88.5386
G01 X8.7313 Y88.4956
G01 X8.6639 Y88.4456
G01 X8.6017 Y88.3893
G01 X8.5456 Y88.3273
G01 X8.4953 Y88.2595
G01 X8.4523 Y88.1877
G01 X8.4164 Y88.1119
G01 X8.3881 Y88.0329
G01 X8.3678 Y87.9515
G01 X8.3554 Y87.8685
G01 X8.3513 Y87.7847
G01 X8.3554 Y87.7009
G01 X8.3678 Y87.6176
G01 X8.3882 Y87.5363
G01 X8.4164 Y87.4575
G01 X8.4522 Y87.3819
G01 X8.4954 Y87.3097
G01 X8.5452 Y87.2425
G01 X8.6017 Y87.1801
G01 X8.6639 Y87.1238
G01 X8.7313 Y87.0738
G01 X8.8033 Y87.0306
G01 X8.8791 Y86.9948
G01 X8.9581 Y86.9665
G01 X9.0395 Y86.9461
G01 X9.1226 Y86.9338
G01 X9.2062 Y86.9297
G01 X9.4564 Y86.9297
G01 X9.5401 Y86.9338
G01 X9.6232 Y86.9461
G01 X9.7047 Y86.9666
G01 X9.7835 Y86.9948
G01 X9.8593 Y87.0306
G01 X9.9314 Y87.0738
G01 X9.9986 Y87.1237
G01 X10.0215 Y87.1444
G01 X21.3861 Y87.1444
G01 X25.0286 Y83.5019
G01 X25.0751 Y83.4597
G01 X25.1258 Y83.4221
G01 X25.1795 Y83.3900
G01 X25.2363 Y83.3631
G01 X25.2954 Y83.3419
G01 X25.3564 Y83.3267
G01 X25.4186 Y83.3174
G01 X25.4813 Y83.3144
G01 X25.5441 Y83.3174
G01 X25.6060 Y83.3266
G01 X25.6672 Y83.3419
G01 X25.7261 Y83.3630
G01 X25.7834 Y83.3901
G01 X25.8371 Y83.4223
G01 X25.8875 Y83.4597
G01 X25.9341 Y83.5019
G01 X25.9763 Y83.5485
G01 X26.0137 Y83.5989
G01 X26.0460 Y83.6528
G01 X26.0729 Y83.7096
G01 X26.0940 Y83.7686
G01 X26.1093 Y83.8298
G01 X26.1185 Y83.8917
G01 X26.1216 Y83.9549
G01 X26.1186 Y84.0174
G01 X26.1093 Y84.0796
G01 X26.0941 Y84.1406
G01 X26.0729 Y84.1997
G01 X26.0460 Y84.2565
G01 X26.0137 Y84.3104
G01 X25.9763 Y84.3609
G01 X25.9343 Y84.4073
G00 Z2.0000
G00 X10.0563 Y84.4297
G01 F80.00
G01 Z-0.2000
G01 F100.00
G01 X10.0813 Y84.4309
G01 X10.1061 Y84.4346
G01 X10.1303 Y84.4407
G01 X10.1537 Y84.4490
G01 X10.1765 Y84.4598
G01 X10.1978 Y84.4725
G01 X10.2183 Y84.4877
G01 X10.2366 Y84.5044
G01 X10.2534 Y84.5229
G01 X10.2683 Y84.5430
G01 X10.2812 Y84.5645
G01 X10.2919 Y84.5871
G01 X10.3003 Y84.6107
G01 X10.3064 Y84.6349
G01 X10.3101 Y84.6597
G01 X10.3113 Y84.6847
G01 X10.3113 Y85.8847
G01 X10.3101 Y85.9094
G01 X10.3064 Y85.9347
G01 X10.3003 Y85.9587
G01 X10.2918 Y85.9825
G01 X10.2812 Y86.0049
G01 X10.2683 Y86.0263
G01 X10.2534 Y86.0464
G01 X10.2366 Y86.0650
G01 X10.2181 Y86.0818
G01 X10.1980 Y86.0967
G01 X10.1765 Y86.1096
G01 X10.1539 Y86.1203
G01 X10.1303 Y86.1287
G01 X10.1061 Y86.1348
G01 X10.0813 Y86.1384
G01 X10.0563 Y86.1397
G01 X8.6061 Y86.1397
G01 X8.5813 Y86.1384
G01 X8.5566 Y86.1348
G01 X8.5323 Y86.1287
G01 X8.5087 Y86.1203
G01 X8.4861 Y86.1096
G01 X8.4647 Y86.0967
G01 X8.4446 Y86.0818
G01 X8.4260 Y86.0650
G01 X8.4092 Y86.0464
G01 X8.3943 Y86.0263
G01 X8.3814 Y86.0049
G01 X8.3707 Y85.9823
G01 X8.3623 Y85.9587
G01 X8.3562 Y85.9344
G01 X8.3526 Y85.9097
G01 X8.3513 Y85.8847
G01 X8.3513 Y84.6847
G01 X8.3525 Y84.6599
G01 X8.3563 Y84.6347
G01 X8.3623 Y84.6107
G01 X8.3708 Y84.5869
G01 X8.3814 Y84.5645
G01 X8.3943 Y84.5430
G01 X8.4092 Y84.5229
G01 X8.4260 Y84.5044
G01 X8.4446 Y84.4876
G01 X8.4647 Y84.4727
G01 X8.4861 Y84.4598
G01 X8.5087 Y84.4491
G01 X8.5323 Y84.4407
G01 X8.5566 Y84.4346
G01 X8.5813 Y84.4309
G01 X8.6061 Y84.4297
G01 X10.0563 Y84.4297
G00 Z2.0000
G00 X4.0368 Y89.7674
G01 F80.00
G01 Z-0.2000
G01 F100.00
G01 X3.9580 Y89.9773
G01 X3.8430 Y90.1697
G01 X3.6955 Y90.3386
G01 X3.5202 Y90.4783
G01 X3.3228 Y90.5846
G01 X3.1096 Y90.6539
G01 X2.8874 Y90.6840
G01 X2.6635 Y90.6739
G01 X2.4449 Y90.6240
G01 X2.2387 Y90.5359
G01 X2.0516 Y90.4124
G01 X1.8896 Y90.2574
G01 X1.7578 Y90.0761
G01 X1.6605 Y89.8741
G01 X1.6009 Y89.6580
G01 X1.5858 Y89.4906
G01 X1.5858 Y88.5226
G01 X1.6259 Y88.3020
G01 X1.7046 Y88.0921
G01 X1.8196 Y87.8996
G01 X1.9671 Y87.7308
G01 X2.1424 Y87.5910
G01 X2.3398 Y87.4848
G01 X2.5531 Y87.4155
G01 X2.7752 Y87.3854
G01 X2.9992 Y87.3955
G01 X3.2178 Y87.4454
G01 X3.4239 Y87.5335
G01 X3.6110 Y87.6570
G01 X3.7731 Y87.8119
G01 X3.9048 Y87.9933
G01 X4.0021 Y88.1953
G01 X4.0618 Y88.4114
G01 X4.0768 Y88.5788
G01 X4.0768 Y89.5468
G01 X4.0368 Y89.7674
G00 Z2.0000
M05
G00 Z2.0000
G00 Z2.00
G00 X0.0 Y0.0


