(G-CODE GENERATED BY FLATCAM v8.994 - www.flatcam.org - Version Date: 2020/11/7)

(Name: blackMD_mother.drl_mill_mill_cnc)
(Type: G-code from Geometry)
(Units: MM)

(Created on Wednesday, 06 March 2024 at 16:41)

(This preprocessor is the default preprocessor used by FlatCAM.)
(It is made to work with MACH3 compatible motion controllers.)

(TOOL DIAMETER: 0.8 mm)
(Feedrate_XY: 100.0 mm/min)
(Feedrate_Z: 80.0 mm/min)
(Feedrate rapids 1500.0 mm/min)

(Z_Cut: -1.6 mm)
(DepthPerCut: 0.2 mm <=>8 passes)
(Z_Move: 2.0 mm)
(Z Start: None mm)
(Z End: 2.0 mm)
(X,Y End: 0.0000, 0.0000 mm)
(Steps per circle: 64)
(Preprocessor Geometry: default)

(X range:   46.6200 ...   94.3500  mm)
(Y range:    3.2300 ...    8.2000  mm)

(Spindle Speed: 7000.0 RPM)
G21
G90
G94

G01 F100.00


G00 Z2.0000

M03 S7000.0
G01 F100.00
G00 X50.3200 Y5.0800
G01 F80.00
G01 Z-0.2000
G01 F100.00
G01 X50.3111 Y4.8987
G01 X50.2845 Y4.7191
G01 X50.2403 Y4.5430
G01 X50.1792 Y4.3720
G01 X50.1016 Y4.2079
G01 X50.0082 Y4.0522
G01 X49.9001 Y3.9064
G01 X49.7781 Y3.7719
G01 X49.6436 Y3.6499
G01 X49.4978 Y3.5418
G01 X49.3421 Y3.4484
G01 X49.1780 Y3.3708
G01 X49.0070 Y3.3097
G01 X48.8309 Y3.2655
G01 X48.6513 Y3.2389
G01 X48.4700 Y3.2300
G01 X48.2887 Y3.2389
G01 X48.1091 Y3.2655
G01 X47.9330 Y3.3097
G01 X47.7620 Y3.3708
G01 X47.5979 Y3.4484
G01 X47.4422 Y3.5418
G01 X47.2964 Y3.6499
G01 X47.1619 Y3.7719
G01 X47.0399 Y3.9064
G01 X46.9318 Y4.0522
G01 X46.8384 Y4.2079
G01 X46.7608 Y4.3720
G01 X46.6997 Y4.5430
G01 X46.6555 Y4.7191
G01 X46.6289 Y4.8987
G01 X46.6200 Y5.0800
G01 X46.6289 Y5.2613
G01 X46.6555 Y5.4409
G01 X46.6997 Y5.6170
G01 X46.7608 Y5.7880
G01 X46.8384 Y5.9521
G01 X46.9318 Y6.1078
G01 X47.0399 Y6.2536
G01 X47.1619 Y6.3881
G01 X47.2964 Y6.5101
G01 X47.4422 Y6.6182
G01 X47.5979 Y6.7116
G01 X47.7620 Y6.7892
G01 X47.9330 Y6.8503
G01 X48.1091 Y6.8945
G01 X48.2887 Y6.9211
G01 X48.4700 Y6.9300
G01 X48.6513 Y6.9211
G01 X48.8309 Y6.8945
G01 X49.0070 Y6.8503
G01 X49.1780 Y6.7892
G01 X49.3421 Y6.7116
G01 X49.4978 Y6.6182
G01 X49.6436 Y6.5101
G01 X49.7781 Y6.3881
G01 X49.9001 Y6.2536
G01 X50.0082 Y6.1078
G01 X50.1016 Y5.9521
G01 X50.1792 Y5.7880
G01 X50.2403 Y5.6170
G01 X50.2845 Y5.4409
G01 X50.3111 Y5.2613
G01 X50.3200 Y5.0800
G00 X50.3200 Y5.0800
G01 F80.00
G01 Z-0.4000
G01 F100.00
G01 X50.3111 Y4.8987
G01 X50.2845 Y4.7191
G01 X50.2403 Y4.5430
G01 X50.1792 Y4.3720
G01 X50.1016 Y4.2079
G01 X50.0082 Y4.0522
G01 X49.9001 Y3.9064
G01 X49.7781 Y3.7719
G01 X49.6436 Y3.6499
G01 X49.4978 Y3.5418
G01 X49.3421 Y3.4484
G01 X49.1780 Y3.3708
G01 X49.0070 Y3.3097
G01 X48.8309 Y3.2655
G01 X48.6513 Y3.2389
G01 X48.4700 Y3.2300
G01 X48.2887 Y3.2389
G01 X48.1091 Y3.2655
G01 X47.9330 Y3.3097
G01 X47.7620 Y3.3708
G01 X47.5979 Y3.4484
G01 X47.4422 Y3.5418
G01 X47.2964 Y3.6499
G01 X47.1619 Y3.7719
G01 X47.0399 Y3.9064
G01 X46.9318 Y4.0522
G01 X46.8384 Y4.2079
G01 X46.7608 Y4.3720
G01 X46.6997 Y4.5430
G01 X46.6555 Y4.7191
G01 X46.6289 Y4.8987
G01 X46.6200 Y5.0800
G01 X46.6289 Y5.2613
G01 X46.6555 Y5.4409
G01 X46.6997 Y5.6170
G01 X46.7608 Y5.7880
G01 X46.8384 Y5.9521
G01 X46.9318 Y6.1078
G01 X47.0399 Y6.2536
G01 X47.1619 Y6.3881
G01 X47.2964 Y6.5101
G01 X47.4422 Y6.6182
G01 X47.5979 Y6.7116
G01 X47.7620 Y6.7892
G01 X47.9330 Y6.8503
G01 X48.1091 Y6.8945
G01 X48.2887 Y6.9211
G01 X48.4700 Y6.9300
G01 X48.6513 Y6.9211
G01 X48.8309 Y6.8945
G01 X49.0070 Y6.8503
G01 X49.1780 Y6.7892
G01 X49.3421 Y6.7116
G01 X49.4978 Y6.6182
G01 X49.6436 Y6.5101
G01 X49.7781 Y6.3881
G01 X49.9001 Y6.2536
G01 X50.0082 Y6.1078
G01 X50.1016 Y5.9521
G01 X50.1792 Y5.7880
G01 X50.2403 Y5.6170
G01 X50.2845 Y5.4409
G01 X50.3111 Y5.2613
G01 X50.3200 Y5.0800
G00 X50.3200 Y5.0800
G01 F80.00
G01 Z-0.6000
G01 F100.00
G01 X50.3111 Y4.8987
G01 X50.2845 Y4.7191
G01 X50.2403 Y4.5430
G01 X50.1792 Y4.3720
G01 X50.1016 Y4.2079
G01 X50.0082 Y4.0522
G01 X49.9001 Y3.9064
G01 X49.7781 Y3.7719
G01 X49.6436 Y3.6499
G01 X49.4978 Y3.5418
G01 X49.3421 Y3.4484
G01 X49.1780 Y3.3708
G01 X49.0070 Y3.3097
G01 X48.8309 Y3.2655
G01 X48.6513 Y3.2389
G01 X48.4700 Y3.2300
G01 X48.2887 Y3.2389
G01 X48.1091 Y3.2655
G01 X47.9330 Y3.3097
G01 X47.7620 Y3.3708
G01 X47.5979 Y3.4484
G01 X47.4422 Y3.5418
G01 X47.2964 Y3.6499
G01 X47.1619 Y3.7719
G01 X47.0399 Y3.9064
G01 X46.9318 Y4.0522
G01 X46.8384 Y4.2079
G01 X46.7608 Y4.3720
G01 X46.6997 Y4.5430
G01 X46.6555 Y4.7191
G01 X46.6289 Y4.8987
G01 X46.6200 Y5.0800
G01 X46.6289 Y5.2613
G01 X46.6555 Y5.4409
G01 X46.6997 Y5.6170
G01 X46.7608 Y5.7880
G01 X46.8384 Y5.9521
G01 X46.9318 Y6.1078
G01 X47.0399 Y6.2536
G01 X47.1619 Y6.3881
G01 X47.2964 Y6.5101
G01 X47.4422 Y6.6182
G01 X47.5979 Y6.7116
G01 X47.7620 Y6.7892
G01 X47.9330 Y6.8503
G01 X48.1091 Y6.8945
G01 X48.2887 Y6.9211
G01 X48.4700 Y6.9300
G01 X48.6513 Y6.9211
G01 X48.8309 Y6.8945
G01 X49.0070 Y6.8503
G01 X49.1780 Y6.7892
G01 X49.3421 Y6.7116
G01 X49.4978 Y6.6182
G01 X49.6436 Y6.5101
G01 X49.7781 Y6.3881
G01 X49.9001 Y6.2536
G01 X50.0082 Y6.1078
G01 X50.1016 Y5.9521
G01 X50.1792 Y5.7880
G01 X50.2403 Y5.6170
G01 X50.2845 Y5.4409
G01 X50.3111 Y5.2613
G01 X50.3200 Y5.0800
G00 X50.3200 Y5.0800
G01 F80.00
G01 Z-0.8000
G01 F100.00
G01 X50.3111 Y4.8987
G01 X50.2845 Y4.7191
G01 X50.2403 Y4.5430
G01 X50.1792 Y4.3720
G01 X50.1016 Y4.2079
G01 X50.0082 Y4.0522
G01 X49.9001 Y3.9064
G01 X49.7781 Y3.7719
G01 X49.6436 Y3.6499
G01 X49.4978 Y3.5418
G01 X49.3421 Y3.4484
G01 X49.1780 Y3.3708
G01 X49.0070 Y3.3097
G01 X48.8309 Y3.2655
G01 X48.6513 Y3.2389
G01 X48.4700 Y3.2300
G01 X48.2887 Y3.2389
G01 X48.1091 Y3.2655
G01 X47.9330 Y3.3097
G01 X47.7620 Y3.3708
G01 X47.5979 Y3.4484
G01 X47.4422 Y3.5418
G01 X47.2964 Y3.6499
G01 X47.1619 Y3.7719
G01 X47.0399 Y3.9064
G01 X46.9318 Y4.0522
G01 X46.8384 Y4.2079
G01 X46.7608 Y4.3720
G01 X46.6997 Y4.5430
G01 X46.6555 Y4.7191
G01 X46.6289 Y4.8987
G01 X46.6200 Y5.0800
G01 X46.6289 Y5.2613
G01 X46.6555 Y5.4409
G01 X46.6997 Y5.6170
G01 X46.7608 Y5.7880
G01 X46.8384 Y5.9521
G01 X46.9318 Y6.1078
G01 X47.0399 Y6.2536
G01 X47.1619 Y6.3881
G01 X47.2964 Y6.5101
G01 X47.4422 Y6.6182
G01 X47.5979 Y6.7116
G01 X47.7620 Y6.7892
G01 X47.9330 Y6.8503
G01 X48.1091 Y6.8945
G01 X48.2887 Y6.9211
G01 X48.4700 Y6.9300
G01 X48.6513 Y6.9211
G01 X48.8309 Y6.8945
G01 X49.0070 Y6.8503
G01 X49.1780 Y6.7892
G01 X49.3421 Y6.7116
G01 X49.4978 Y6.6182
G01 X49.6436 Y6.5101
G01 X49.7781 Y6.3881
G01 X49.9001 Y6.2536
G01 X50.0082 Y6.1078
G01 X50.1016 Y5.9521
G01 X50.1792 Y5.7880
G01 X50.2403 Y5.6170
G01 X50.2845 Y5.4409
G01 X50.3111 Y5.2613
G01 X50.3200 Y5.0800
G00 X50.3200 Y5.0800
G01 F80.00
G01 Z-1.0000
G01 F100.00
G01 X50.3111 Y4.8987
G01 X50.2845 Y4.7191
G01 X50.2403 Y4.5430
G01 X50.1792 Y4.3720
G01 X50.1016 Y4.2079
G01 X50.0082 Y4.0522
G01 X49.9001 Y3.9064
G01 X49.7781 Y3.7719
G01 X49.6436 Y3.6499
G01 X49.4978 Y3.5418
G01 X49.3421 Y3.4484
G01 X49.1780 Y3.3708
G01 X49.0070 Y3.3097
G01 X48.8309 Y3.2655
G01 X48.6513 Y3.2389
G01 X48.4700 Y3.2300
G01 X48.2887 Y3.2389
G01 X48.1091 Y3.2655
G01 X47.9330 Y3.3097
G01 X47.7620 Y3.3708
G01 X47.5979 Y3.4484
G01 X47.4422 Y3.5418
G01 X47.2964 Y3.6499
G01 X47.1619 Y3.7719
G01 X47.0399 Y3.9064
G01 X46.9318 Y4.0522
G01 X46.8384 Y4.2079
G01 X46.7608 Y4.3720
G01 X46.6997 Y4.5430
G01 X46.6555 Y4.7191
G01 X46.6289 Y4.8987
G01 X46.6200 Y5.0800
G01 X46.6289 Y5.2613
G01 X46.6555 Y5.4409
G01 X46.6997 Y5.6170
G01 X46.7608 Y5.7880
G01 X46.8384 Y5.9521
G01 X46.9318 Y6.1078
G01 X47.0399 Y6.2536
G01 X47.1619 Y6.3881
G01 X47.2964 Y6.5101
G01 X47.4422 Y6.6182
G01 X47.5979 Y6.7116
G01 X47.7620 Y6.7892
G01 X47.9330 Y6.8503
G01 X48.1091 Y6.8945
G01 X48.2887 Y6.9211
G01 X48.4700 Y6.9300
G01 X48.6513 Y6.9211
G01 X48.8309 Y6.8945
G01 X49.0070 Y6.8503
G01 X49.1780 Y6.7892
G01 X49.3421 Y6.7116
G01 X49.4978 Y6.6182
G01 X49.6436 Y6.5101
G01 X49.7781 Y6.3881
G01 X49.9001 Y6.2536
G01 X50.0082 Y6.1078
G01 X50.1016 Y5.9521
G01 X50.1792 Y5.7880
G01 X50.2403 Y5.6170
G01 X50.2845 Y5.4409
G01 X50.3111 Y5.2613
G01 X50.3200 Y5.0800
G00 X50.3200 Y5.0800
G01 F80.00
G01 Z-1.2000
G01 F100.00
G01 X50.3111 Y4.8987
G01 X50.2845 Y4.7191
G01 X50.2403 Y4.5430
G01 X50.1792 Y4.3720
G01 X50.1016 Y4.2079
G01 X50.0082 Y4.0522
G01 X49.9001 Y3.9064
G01 X49.7781 Y3.7719
G01 X49.6436 Y3.6499
G01 X49.4978 Y3.5418
G01 X49.3421 Y3.4484
G01 X49.1780 Y3.3708
G01 X49.0070 Y3.3097
G01 X48.8309 Y3.2655
G01 X48.6513 Y3.2389
G01 X48.4700 Y3.2300
G01 X48.2887 Y3.2389
G01 X48.1091 Y3.2655
G01 X47.9330 Y3.3097
G01 X47.7620 Y3.3708
G01 X47.5979 Y3.4484
G01 X47.4422 Y3.5418
G01 X47.2964 Y3.6499
G01 X47.1619 Y3.7719
G01 X47.0399 Y3.9064
G01 X46.9318 Y4.0522
G01 X46.8384 Y4.2079
G01 X46.7608 Y4.3720
G01 X46.6997 Y4.5430
G01 X46.6555 Y4.7191
G01 X46.6289 Y4.8987
G01 X46.6200 Y5.0800
G01 X46.6289 Y5.2613
G01 X46.6555 Y5.4409
G01 X46.6997 Y5.6170
G01 X46.7608 Y5.7880
G01 X46.8384 Y5.9521
G01 X46.9318 Y6.1078
G01 X47.0399 Y6.2536
G01 X47.1619 Y6.3881
G01 X47.2964 Y6.5101
G01 X47.4422 Y6.6182
G01 X47.5979 Y6.7116
G01 X47.7620 Y6.7892
G01 X47.9330 Y6.8503
G01 X48.1091 Y6.8945
G01 X48.2887 Y6.9211
G01 X48.4700 Y6.9300
G01 X48.6513 Y6.9211
G01 X48.8309 Y6.8945
G01 X49.0070 Y6.8503
G01 X49.1780 Y6.7892
G01 X49.3421 Y6.7116
G01 X49.4978 Y6.6182
G01 X49.6436 Y6.5101
G01 X49.7781 Y6.3881
G01 X49.9001 Y6.2536
G01 X50.0082 Y6.1078
G01 X50.1016 Y5.9521
G01 X50.1792 Y5.7880
G01 X50.2403 Y5.6170
G01 X50.2845 Y5.4409
G01 X50.3111 Y5.2613
G01 X50.3200 Y5.0800
G00 X50.3200 Y5.0800
G01 F80.00
G01 Z-1.4000
G01 F100.00
G01 X50.3111 Y4.8987
G01 X50.2845 Y4.7191
G01 X50.2403 Y4.5430
G01 X50.1792 Y4.3720
G01 X50.1016 Y4.2079
G01 X50.0082 Y4.0522
G01 X49.9001 Y3.9064
G01 X49.7781 Y3.7719
G01 X49.6436 Y3.6499
G01 X49.4978 Y3.5418
G01 X49.3421 Y3.4484
G01 X49.1780 Y3.3708
G01 X49.0070 Y3.3097
G01 X48.8309 Y3.2655
G01 X48.6513 Y3.2389
G01 X48.4700 Y3.2300
G01 X48.2887 Y3.2389
G01 X48.1091 Y3.2655
G01 X47.9330 Y3.3097
G01 X47.7620 Y3.3708
G01 X47.5979 Y3.4484
G01 X47.4422 Y3.5418
G01 X47.2964 Y3.6499
G01 X47.1619 Y3.7719
G01 X47.0399 Y3.9064
G01 X46.9318 Y4.0522
G01 X46.8384 Y4.2079
G01 X46.7608 Y4.3720
G01 X46.6997 Y4.5430
G01 X46.6555 Y4.7191
G01 X46.6289 Y4.8987
G01 X46.6200 Y5.0800
G01 X46.6289 Y5.2613
G01 X46.6555 Y5.4409
G01 X46.6997 Y5.6170
G01 X46.7608 Y5.7880
G01 X46.8384 Y5.9521
G01 X46.9318 Y6.1078
G01 X47.0399 Y6.2536
G01 X47.1619 Y6.3881
G01 X47.2964 Y6.5101
G01 X47.4422 Y6.6182
G01 X47.5979 Y6.7116
G01 X47.7620 Y6.7892
G01 X47.9330 Y6.8503
G01 X48.1091 Y6.8945
G01 X48.2887 Y6.9211
G01 X48.4700 Y6.9300
G01 X48.6513 Y6.9211
G01 X48.8309 Y6.8945
G01 X49.0070 Y6.8503
G01 X49.1780 Y6.7892
G01 X49.3421 Y6.7116
G01 X49.4978 Y6.6182
G01 X49.6436 Y6.5101
G01 X49.7781 Y6.3881
G01 X49.9001 Y6.2536
G01 X50.0082 Y6.1078
G01 X50.1016 Y5.9521
G01 X50.1792 Y5.7880
G01 X50.2403 Y5.6170
G01 X50.2845 Y5.4409
G01 X50.3111 Y5.2613
G01 X50.3200 Y5.0800
G00 X50.3200 Y5.0800
G01 F80.00
G01 Z-1.6000
G01 F100.00
G01 X50.3111 Y4.8987
G01 X50.2845 Y4.7191
G01 X50.2403 Y4.5430
G01 X50.1792 Y4.3720
G01 X50.1016 Y4.2079
G01 X50.0082 Y4.0522
G01 X49.9001 Y3.9064
G01 X49.7781 Y3.7719
G01 X49.6436 Y3.6499
G01 X49.4978 Y3.5418
G01 X49.3421 Y3.4484
G01 X49.1780 Y3.3708
G01 X49.0070 Y3.3097
G01 X48.8309 Y3.2655
G01 X48.6513 Y3.2389
G01 X48.4700 Y3.2300
G01 X48.2887 Y3.2389
G01 X48.1091 Y3.2655
G01 X47.9330 Y3.3097
G01 X47.7620 Y3.3708
G01 X47.5979 Y3.4484
G01 X47.4422 Y3.5418
G01 X47.2964 Y3.6499
G01 X47.1619 Y3.7719
G01 X47.0399 Y3.9064
G01 X46.9318 Y4.0522
G01 X46.8384 Y4.2079
G01 X46.7608 Y4.3720
G01 X46.6997 Y4.5430
G01 X46.6555 Y4.7191
G01 X46.6289 Y4.8987
G01 X46.6200 Y5.0800
G01 X46.6289 Y5.2613
G01 X46.6555 Y5.4409
G01 X46.6997 Y5.6170
G01 X46.7608 Y5.7880
G01 X46.8384 Y5.9521
G01 X46.9318 Y6.1078
G01 X47.0399 Y6.2536
G01 X47.1619 Y6.3881
G01 X47.2964 Y6.5101
G01 X47.4422 Y6.6182
G01 X47.5979 Y6.7116
G01 X47.7620 Y6.7892
G01 X47.9330 Y6.8503
G01 X48.1091 Y6.8945
G01 X48.2887 Y6.9211
G01 X48.4700 Y6.9300
G01 X48.6513 Y6.9211
G01 X48.8309 Y6.8945
G01 X49.0070 Y6.8503
G01 X49.1780 Y6.7892
G01 X49.3421 Y6.7116
G01 X49.4978 Y6.6182
G01 X49.6436 Y6.5101
G01 X49.7781 Y6.3881
G01 X49.9001 Y6.2536
G01 X50.0082 Y6.1078
G01 X50.1016 Y5.9521
G01 X50.1792 Y5.7880
G01 X50.2403 Y5.6170
G01 X50.2845 Y5.4409
G01 X50.3111 Y5.2613
G01 X50.3200 Y5.0800
G00 Z2.0000
G00 X57.5200 Y5.0800
G01 F80.00
G01 Z-0.2000
G01 F100.00
G01 X57.5111 Y4.8987
G01 X57.4845 Y4.7191
G01 X57.4403 Y4.5430
G01 X57.3792 Y4.3720
G01 X57.3016 Y4.2079
G01 X57.2082 Y4.0522
G01 X57.1001 Y3.9064
G01 X56.9781 Y3.7719
G01 X56.8436 Y3.6499
G01 X56.6978 Y3.5418
G01 X56.5421 Y3.4484
G01 X56.3780 Y3.3708
G01 X56.2070 Y3.3097
G01 X56.0309 Y3.2655
G01 X55.8513 Y3.2389
G01 X55.6700 Y3.2300
G01 X55.4887 Y3.2389
G01 X55.3091 Y3.2655
G01 X55.1330 Y3.3097
G01 X54.9620 Y3.3708
G01 X54.7979 Y3.4484
G01 X54.6422 Y3.5418
G01 X54.4964 Y3.6499
G01 X54.3619 Y3.7719
G01 X54.2399 Y3.9064
G01 X54.1318 Y4.0522
G01 X54.0384 Y4.2079
G01 X53.9608 Y4.3720
G01 X53.8997 Y4.5430
G01 X53.8555 Y4.7191
G01 X53.8289 Y4.8987
G01 X53.8200 Y5.0800
G01 X53.8289 Y5.2613
G01 X53.8555 Y5.4409
G01 X53.8997 Y5.6170
G01 X53.9608 Y5.7880
G01 X54.0384 Y5.9521
G01 X54.1318 Y6.1078
G01 X54.2399 Y6.2536
G01 X54.3619 Y6.3881
G01 X54.4964 Y6.5101
G01 X54.6422 Y6.6182
G01 X54.7979 Y6.7116
G01 X54.9620 Y6.7892
G01 X55.1330 Y6.8503
G01 X55.3091 Y6.8945
G01 X55.4887 Y6.9211
G01 X55.6700 Y6.9300
G01 X55.8513 Y6.9211
G01 X56.0309 Y6.8945
G01 X56.2070 Y6.8503
G01 X56.3780 Y6.7892
G01 X56.5421 Y6.7116
G01 X56.6978 Y6.6182
G01 X56.8436 Y6.5101
G01 X56.9781 Y6.3881
G01 X57.1001 Y6.2536
G01 X57.2082 Y6.1078
G01 X57.3016 Y5.9521
G01 X57.3792 Y5.7880
G01 X57.4403 Y5.6170
G01 X57.4845 Y5.4409
G01 X57.5111 Y5.2613
G01 X57.5200 Y5.0800
G00 X57.5200 Y5.0800
G01 F80.00
G01 Z-0.4000
G01 F100.00
G01 X57.5111 Y4.8987
G01 X57.4845 Y4.7191
G01 X57.4403 Y4.5430
G01 X57.3792 Y4.3720
G01 X57.3016 Y4.2079
G01 X57.2082 Y4.0522
G01 X57.1001 Y3.9064
G01 X56.9781 Y3.7719
G01 X56.8436 Y3.6499
G01 X56.6978 Y3.5418
G01 X56.5421 Y3.4484
G01 X56.3780 Y3.3708
G01 X56.2070 Y3.3097
G01 X56.0309 Y3.2655
G01 X55.8513 Y3.2389
G01 X55.6700 Y3.2300
G01 X55.4887 Y3.2389
G01 X55.3091 Y3.2655
G01 X55.1330 Y3.3097
G01 X54.9620 Y3.3708
G01 X54.7979 Y3.4484
G01 X54.6422 Y3.5418
G01 X54.4964 Y3.6499
G01 X54.3619 Y3.7719
G01 X54.2399 Y3.9064
G01 X54.1318 Y4.0522
G01 X54.0384 Y4.2079
G01 X53.9608 Y4.3720
G01 X53.8997 Y4.5430
G01 X53.8555 Y4.7191
G01 X53.8289 Y4.8987
G01 X53.8200 Y5.0800
G01 X53.8289 Y5.2613
G01 X53.8555 Y5.4409
G01 X53.8997 Y5.6170
G01 X53.9608 Y5.7880
G01 X54.0384 Y5.9521
G01 X54.1318 Y6.1078
G01 X54.2399 Y6.2536
G01 X54.3619 Y6.3881
G01 X54.4964 Y6.5101
G01 X54.6422 Y6.6182
G01 X54.7979 Y6.7116
G01 X54.9620 Y6.7892
G01 X55.1330 Y6.8503
G01 X55.3091 Y6.8945
G01 X55.4887 Y6.9211
G01 X55.6700 Y6.9300
G01 X55.8513 Y6.9211
G01 X56.0309 Y6.8945
G01 X56.2070 Y6.8503
G01 X56.3780 Y6.7892
G01 X56.5421 Y6.7116
G01 X56.6978 Y6.6182
G01 X56.8436 Y6.5101
G01 X56.9781 Y6.3881
G01 X57.1001 Y6.2536
G01 X57.2082 Y6.1078
G01 X57.3016 Y5.9521
G01 X57.3792 Y5.7880
G01 X57.4403 Y5.6170
G01 X57.4845 Y5.4409
G01 X57.5111 Y5.2613
G01 X57.5200 Y5.0800
G00 X57.5200 Y5.0800
G01 F80.00
G01 Z-0.6000
G01 F100.00
G01 X57.5111 Y4.8987
G01 X57.4845 Y4.7191
G01 X57.4403 Y4.5430
G01 X57.3792 Y4.3720
G01 X57.3016 Y4.2079
G01 X57.2082 Y4.0522
G01 X57.1001 Y3.9064
G01 X56.9781 Y3.7719
G01 X56.8436 Y3.6499
G01 X56.6978 Y3.5418
G01 X56.5421 Y3.4484
G01 X56.3780 Y3.3708
G01 X56.2070 Y3.3097
G01 X56.0309 Y3.2655
G01 X55.8513 Y3.2389
G01 X55.6700 Y3.2300
G01 X55.4887 Y3.2389
G01 X55.3091 Y3.2655
G01 X55.1330 Y3.3097
G01 X54.9620 Y3.3708
G01 X54.7979 Y3.4484
G01 X54.6422 Y3.5418
G01 X54.4964 Y3.6499
G01 X54.3619 Y3.7719
G01 X54.2399 Y3.9064
G01 X54.1318 Y4.0522
G01 X54.0384 Y4.2079
G01 X53.9608 Y4.3720
G01 X53.8997 Y4.5430
G01 X53.8555 Y4.7191
G01 X53.8289 Y4.8987
G01 X53.8200 Y5.0800
G01 X53.8289 Y5.2613
G01 X53.8555 Y5.4409
G01 X53.8997 Y5.6170
G01 X53.9608 Y5.7880
G01 X54.0384 Y5.9521
G01 X54.1318 Y6.1078
G01 X54.2399 Y6.2536
G01 X54.3619 Y6.3881
G01 X54.4964 Y6.5101
G01 X54.6422 Y6.6182
G01 X54.7979 Y6.7116
G01 X54.9620 Y6.7892
G01 X55.1330 Y6.8503
G01 X55.3091 Y6.8945
G01 X55.4887 Y6.9211
G01 X55.6700 Y6.9300
G01 X55.8513 Y6.9211
G01 X56.0309 Y6.8945
G01 X56.2070 Y6.8503
G01 X56.3780 Y6.7892
G01 X56.5421 Y6.7116
G01 X56.6978 Y6.6182
G01 X56.8436 Y6.5101
G01 X56.9781 Y6.3881
G01 X57.1001 Y6.2536
G01 X57.2082 Y6.1078
G01 X57.3016 Y5.9521
G01 X57.3792 Y5.7880
G01 X57.4403 Y5.6170
G01 X57.4845 Y5.4409
G01 X57.5111 Y5.2613
G01 X57.5200 Y5.0800
G00 X57.5200 Y5.0800
G01 F80.00
G01 Z-0.8000
G01 F100.00
G01 X57.5111 Y4.8987
G01 X57.4845 Y4.7191
G01 X57.4403 Y4.5430
G01 X57.3792 Y4.3720
G01 X57.3016 Y4.2079
G01 X57.2082 Y4.0522
G01 X57.1001 Y3.9064
G01 X56.9781 Y3.7719
G01 X56.8436 Y3.6499
G01 X56.6978 Y3.5418
G01 X56.5421 Y3.4484
G01 X56.3780 Y3.3708
G01 X56.2070 Y3.3097
G01 X56.0309 Y3.2655
G01 X55.8513 Y3.2389
G01 X55.6700 Y3.2300
G01 X55.4887 Y3.2389
G01 X55.3091 Y3.2655
G01 X55.1330 Y3.3097
G01 X54.9620 Y3.3708
G01 X54.7979 Y3.4484
G01 X54.6422 Y3.5418
G01 X54.4964 Y3.6499
G01 X54.3619 Y3.7719
G01 X54.2399 Y3.9064
G01 X54.1318 Y4.0522
G01 X54.0384 Y4.2079
G01 X53.9608 Y4.3720
G01 X53.8997 Y4.5430
G01 X53.8555 Y4.7191
G01 X53.8289 Y4.8987
G01 X53.8200 Y5.0800
G01 X53.8289 Y5.2613
G01 X53.8555 Y5.4409
G01 X53.8997 Y5.6170
G01 X53.9608 Y5.7880
G01 X54.0384 Y5.9521
G01 X54.1318 Y6.1078
G01 X54.2399 Y6.2536
G01 X54.3619 Y6.3881
G01 X54.4964 Y6.5101
G01 X54.6422 Y6.6182
G01 X54.7979 Y6.7116
G01 X54.9620 Y6.7892
G01 X55.1330 Y6.8503
G01 X55.3091 Y6.8945
G01 X55.4887 Y6.9211
G01 X55.6700 Y6.9300
G01 X55.8513 Y6.9211
G01 X56.0309 Y6.8945
G01 X56.2070 Y6.8503
G01 X56.3780 Y6.7892
G01 X56.5421 Y6.7116
G01 X56.6978 Y6.6182
G01 X56.8436 Y6.5101
G01 X56.9781 Y6.3881
G01 X57.1001 Y6.2536
G01 X57.2082 Y6.1078
G01 X57.3016 Y5.9521
G01 X57.3792 Y5.7880
G01 X57.4403 Y5.6170
G01 X57.4845 Y5.4409
G01 X57.5111 Y5.2613
G01 X57.5200 Y5.0800
G00 X57.5200 Y5.0800
G01 F80.00
G01 Z-1.0000
G01 F100.00
G01 X57.5111 Y4.8987
G01 X57.4845 Y4.7191
G01 X57.4403 Y4.5430
G01 X57.3792 Y4.3720
G01 X57.3016 Y4.2079
G01 X57.2082 Y4.0522
G01 X57.1001 Y3.9064
G01 X56.9781 Y3.7719
G01 X56.8436 Y3.6499
G01 X56.6978 Y3.5418
G01 X56.5421 Y3.4484
G01 X56.3780 Y3.3708
G01 X56.2070 Y3.3097
G01 X56.0309 Y3.2655
G01 X55.8513 Y3.2389
G01 X55.6700 Y3.2300
G01 X55.4887 Y3.2389
G01 X55.3091 Y3.2655
G01 X55.1330 Y3.3097
G01 X54.9620 Y3.3708
G01 X54.7979 Y3.4484
G01 X54.6422 Y3.5418
G01 X54.4964 Y3.6499
G01 X54.3619 Y3.7719
G01 X54.2399 Y3.9064
G01 X54.1318 Y4.0522
G01 X54.0384 Y4.2079
G01 X53.9608 Y4.3720
G01 X53.8997 Y4.5430
G01 X53.8555 Y4.7191
G01 X53.8289 Y4.8987
G01 X53.8200 Y5.0800
G01 X53.8289 Y5.2613
G01 X53.8555 Y5.4409
G01 X53.8997 Y5.6170
G01 X53.9608 Y5.7880
G01 X54.0384 Y5.9521
G01 X54.1318 Y6.1078
G01 X54.2399 Y6.2536
G01 X54.3619 Y6.3881
G01 X54.4964 Y6.5101
G01 X54.6422 Y6.6182
G01 X54.7979 Y6.7116
G01 X54.9620 Y6.7892
G01 X55.1330 Y6.8503
G01 X55.3091 Y6.8945
G01 X55.4887 Y6.9211
G01 X55.6700 Y6.9300
G01 X55.8513 Y6.9211
G01 X56.0309 Y6.8945
G01 X56.2070 Y6.8503
G01 X56.3780 Y6.7892
G01 X56.5421 Y6.7116
G01 X56.6978 Y6.6182
G01 X56.8436 Y6.5101
G01 X56.9781 Y6.3881
G01 X57.1001 Y6.2536
G01 X57.2082 Y6.1078
G01 X57.3016 Y5.9521
G01 X57.3792 Y5.7880
G01 X57.4403 Y5.6170
G01 X57.4845 Y5.4409
G01 X57.5111 Y5.2613
G01 X57.5200 Y5.0800
G00 X57.5200 Y5.0800
G01 F80.00
G01 Z-1.2000
G01 F100.00
G01 X57.5111 Y4.8987
G01 X57.4845 Y4.7191
G01 X57.4403 Y4.5430
G01 X57.3792 Y4.3720
G01 X57.3016 Y4.2079
G01 X57.2082 Y4.0522
G01 X57.1001 Y3.9064
G01 X56.9781 Y3.7719
G01 X56.8436 Y3.6499
G01 X56.6978 Y3.5418
G01 X56.5421 Y3.4484
G01 X56.3780 Y3.3708
G01 X56.2070 Y3.3097
G01 X56.0309 Y3.2655
G01 X55.8513 Y3.2389
G01 X55.6700 Y3.2300
G01 X55.4887 Y3.2389
G01 X55.3091 Y3.2655
G01 X55.1330 Y3.3097
G01 X54.9620 Y3.3708
G01 X54.7979 Y3.4484
G01 X54.6422 Y3.5418
G01 X54.4964 Y3.6499
G01 X54.3619 Y3.7719
G01 X54.2399 Y3.9064
G01 X54.1318 Y4.0522
G01 X54.0384 Y4.2079
G01 X53.9608 Y4.3720
G01 X53.8997 Y4.5430
G01 X53.8555 Y4.7191
G01 X53.8289 Y4.8987
G01 X53.8200 Y5.0800
G01 X53.8289 Y5.2613
G01 X53.8555 Y5.4409
G01 X53.8997 Y5.6170
G01 X53.9608 Y5.7880
G01 X54.0384 Y5.9521
G01 X54.1318 Y6.1078
G01 X54.2399 Y6.2536
G01 X54.3619 Y6.3881
G01 X54.4964 Y6.5101
G01 X54.6422 Y6.6182
G01 X54.7979 Y6.7116
G01 X54.9620 Y6.7892
G01 X55.1330 Y6.8503
G01 X55.3091 Y6.8945
G01 X55.4887 Y6.9211
G01 X55.6700 Y6.9300
G01 X55.8513 Y6.9211
G01 X56.0309 Y6.8945
G01 X56.2070 Y6.8503
G01 X56.3780 Y6.7892
G01 X56.5421 Y6.7116
G01 X56.6978 Y6.6182
G01 X56.8436 Y6.5101
G01 X56.9781 Y6.3881
G01 X57.1001 Y6.2536
G01 X57.2082 Y6.1078
G01 X57.3016 Y5.9521
G01 X57.3792 Y5.7880
G01 X57.4403 Y5.6170
G01 X57.4845 Y5.4409
G01 X57.5111 Y5.2613
G01 X57.5200 Y5.0800
G00 X57.5200 Y5.0800
G01 F80.00
G01 Z-1.4000
G01 F100.00
G01 X57.5111 Y4.8987
G01 X57.4845 Y4.7191
G01 X57.4403 Y4.5430
G01 X57.3792 Y4.3720
G01 X57.3016 Y4.2079
G01 X57.2082 Y4.0522
G01 X57.1001 Y3.9064
G01 X56.9781 Y3.7719
G01 X56.8436 Y3.6499
G01 X56.6978 Y3.5418
G01 X56.5421 Y3.4484
G01 X56.3780 Y3.3708
G01 X56.2070 Y3.3097
G01 X56.0309 Y3.2655
G01 X55.8513 Y3.2389
G01 X55.6700 Y3.2300
G01 X55.4887 Y3.2389
G01 X55.3091 Y3.2655
G01 X55.1330 Y3.3097
G01 X54.9620 Y3.3708
G01 X54.7979 Y3.4484
G01 X54.6422 Y3.5418
G01 X54.4964 Y3.6499
G01 X54.3619 Y3.7719
G01 X54.2399 Y3.9064
G01 X54.1318 Y4.0522
G01 X54.0384 Y4.2079
G01 X53.9608 Y4.3720
G01 X53.8997 Y4.5430
G01 X53.8555 Y4.7191
G01 X53.8289 Y4.8987
G01 X53.8200 Y5.0800
G01 X53.8289 Y5.2613
G01 X53.8555 Y5.4409
G01 X53.8997 Y5.6170
G01 X53.9608 Y5.7880
G01 X54.0384 Y5.9521
G01 X54.1318 Y6.1078
G01 X54.2399 Y6.2536
G01 X54.3619 Y6.3881
G01 X54.4964 Y6.5101
G01 X54.6422 Y6.6182
G01 X54.7979 Y6.7116
G01 X54.9620 Y6.7892
G01 X55.1330 Y6.8503
G01 X55.3091 Y6.8945
G01 X55.4887 Y6.9211
G01 X55.6700 Y6.9300
G01 X55.8513 Y6.9211
G01 X56.0309 Y6.8945
G01 X56.2070 Y6.8503
G01 X56.3780 Y6.7892
G01 X56.5421 Y6.7116
G01 X56.6978 Y6.6182
G01 X56.8436 Y6.5101
G01 X56.9781 Y6.3881
G01 X57.1001 Y6.2536
G01 X57.2082 Y6.1078
G01 X57.3016 Y5.9521
G01 X57.3792 Y5.7880
G01 X57.4403 Y5.6170
G01 X57.4845 Y5.4409
G01 X57.5111 Y5.2613
G01 X57.5200 Y5.0800
G00 X57.5200 Y5.0800
G01 F80.00
G01 Z-1.6000
G01 F100.00
G01 X57.5111 Y4.8987
G01 X57.4845 Y4.7191
G01 X57.4403 Y4.5430
G01 X57.3792 Y4.3720
G01 X57.3016 Y4.2079
G01 X57.2082 Y4.0522
G01 X57.1001 Y3.9064
G01 X56.9781 Y3.7719
G01 X56.8436 Y3.6499
G01 X56.6978 Y3.5418
G01 X56.5421 Y3.4484
G01 X56.3780 Y3.3708
G01 X56.2070 Y3.3097
G01 X56.0309 Y3.2655
G01 X55.8513 Y3.2389
G01 X55.6700 Y3.2300
G01 X55.4887 Y3.2389
G01 X55.3091 Y3.2655
G01 X55.1330 Y3.3097
G01 X54.9620 Y3.3708
G01 X54.7979 Y3.4484
G01 X54.6422 Y3.5418
G01 X54.4964 Y3.6499
G01 X54.3619 Y3.7719
G01 X54.2399 Y3.9064
G01 X54.1318 Y4.0522
G01 X54.0384 Y4.2079
G01 X53.9608 Y4.3720
G01 X53.8997 Y4.5430
G01 X53.8555 Y4.7191
G01 X53.8289 Y4.8987
G01 X53.8200 Y5.0800
G01 X53.8289 Y5.2613
G01 X53.8555 Y5.4409
G01 X53.8997 Y5.6170
G01 X53.9608 Y5.7880
G01 X54.0384 Y5.9521
G01 X54.1318 Y6.1078
G01 X54.2399 Y6.2536
G01 X54.3619 Y6.3881
G01 X54.4964 Y6.5101
G01 X54.6422 Y6.6182
G01 X54.7979 Y6.7116
G01 X54.9620 Y6.7892
G01 X55.1330 Y6.8503
G01 X55.3091 Y6.8945
G01 X55.4887 Y6.9211
G01 X55.6700 Y6.9300
G01 X55.8513 Y6.9211
G01 X56.0309 Y6.8945
G01 X56.2070 Y6.8503
G01 X56.3780 Y6.7892
G01 X56.5421 Y6.7116
G01 X56.6978 Y6.6182
G01 X56.8436 Y6.5101
G01 X56.9781 Y6.3881
G01 X57.1001 Y6.2536
G01 X57.2082 Y6.1078
G01 X57.3016 Y5.9521
G01 X57.3792 Y5.7880
G01 X57.4403 Y5.6170
G01 X57.4845 Y5.4409
G01 X57.5111 Y5.2613
G01 X57.5200 Y5.0800
G00 Z2.0000
G00 X87.1500 Y6.3500
G01 F80.00
G01 Z-0.2000
G01 F100.00
G01 X87.1411 Y6.1687
G01 X87.1145 Y5.9891
G01 X87.0703 Y5.8130
G01 X87.0092 Y5.6420
G01 X86.9316 Y5.4779
G01 X86.8382 Y5.3222
G01 X86.7301 Y5.1764
G01 X86.6081 Y5.0419
G01 X86.4736 Y4.9199
G01 X86.3278 Y4.8118
G01 X86.1721 Y4.7184
G01 X86.0080 Y4.6408
G01 X85.8370 Y4.5797
G01 X85.6609 Y4.5355
G01 X85.4813 Y4.5089
G01 X85.3000 Y4.5000
G01 X85.1187 Y4.5089
G01 X84.9391 Y4.5355
G01 X84.7630 Y4.5797
G01 X84.5920 Y4.6408
G01 X84.4279 Y4.7184
G01 X84.2722 Y4.8118
G01 X84.1264 Y4.9199
G01 X83.9919 Y5.0419
G01 X83.8699 Y5.1764
G01 X83.7618 Y5.3222
G01 X83.6684 Y5.4779
G01 X83.5908 Y5.6420
G01 X83.5297 Y5.8130
G01 X83.4855 Y5.9891
G01 X83.4589 Y6.1687
G01 X83.4500 Y6.3500
G01 X83.4589 Y6.5313
G01 X83.4855 Y6.7109
G01 X83.5297 Y6.8870
G01 X83.5908 Y7.0580
G01 X83.6684 Y7.2221
G01 X83.7618 Y7.3778
G01 X83.8699 Y7.5236
G01 X83.9919 Y7.6581
G01 X84.1264 Y7.7801
G01 X84.2722 Y7.8882
G01 X84.4279 Y7.9816
G01 X84.5920 Y8.0592
G01 X84.7630 Y8.1203
G01 X84.9391 Y8.1645
G01 X85.1187 Y8.1911
G01 X85.3000 Y8.2000
G01 X85.4813 Y8.1911
G01 X85.6609 Y8.1645
G01 X85.8370 Y8.1203
G01 X86.0080 Y8.0592
G01 X86.1721 Y7.9816
G01 X86.3278 Y7.8882
G01 X86.4736 Y7.7801
G01 X86.6081 Y7.6581
G01 X86.7301 Y7.5236
G01 X86.8382 Y7.3778
G01 X86.9316 Y7.2221
G01 X87.0092 Y7.0580
G01 X87.0703 Y6.8870
G01 X87.1145 Y6.7109
G01 X87.1411 Y6.5313
G01 X87.1500 Y6.3500
G00 X87.1500 Y6.3500
G01 F80.00
G01 Z-0.4000
G01 F100.00
G01 X87.1411 Y6.1687
G01 X87.1145 Y5.9891
G01 X87.0703 Y5.8130
G01 X87.0092 Y5.6420
G01 X86.9316 Y5.4779
G01 X86.8382 Y5.3222
G01 X86.7301 Y5.1764
G01 X86.6081 Y5.0419
G01 X86.4736 Y4.9199
G01 X86.3278 Y4.8118
G01 X86.1721 Y4.7184
G01 X86.0080 Y4.6408
G01 X85.8370 Y4.5797
G01 X85.6609 Y4.5355
G01 X85.4813 Y4.5089
G01 X85.3000 Y4.5000
G01 X85.1187 Y4.5089
G01 X84.9391 Y4.5355
G01 X84.7630 Y4.5797
G01 X84.5920 Y4.6408
G01 X84.4279 Y4.7184
G01 X84.2722 Y4.8118
G01 X84.1264 Y4.9199
G01 X83.9919 Y5.0419
G01 X83.8699 Y5.1764
G01 X83.7618 Y5.3222
G01 X83.6684 Y5.4779
G01 X83.5908 Y5.6420
G01 X83.5297 Y5.8130
G01 X83.4855 Y5.9891
G01 X83.4589 Y6.1687
G01 X83.4500 Y6.3500
G01 X83.4589 Y6.5313
G01 X83.4855 Y6.7109
G01 X83.5297 Y6.8870
G01 X83.5908 Y7.0580
G01 X83.6684 Y7.2221
G01 X83.7618 Y7.3778
G01 X83.8699 Y7.5236
G01 X83.9919 Y7.6581
G01 X84.1264 Y7.7801
G01 X84.2722 Y7.8882
G01 X84.4279 Y7.9816
G01 X84.5920 Y8.0592
G01 X84.7630 Y8.1203
G01 X84.9391 Y8.1645
G01 X85.1187 Y8.1911
G01 X85.3000 Y8.2000
G01 X85.4813 Y8.1911
G01 X85.6609 Y8.1645
G01 X85.8370 Y8.1203
G01 X86.0080 Y8.0592
G01 X86.1721 Y7.9816
G01 X86.3278 Y7.8882
G01 X86.4736 Y7.7801
G01 X86.6081 Y7.6581
G01 X86.7301 Y7.5236
G01 X86.8382 Y7.3778
G01 X86.9316 Y7.2221
G01 X87.0092 Y7.0580
G01 X87.0703 Y6.8870
G01 X87.1145 Y6.7109
G01 X87.1411 Y6.5313
G01 X87.1500 Y6.3500
G00 X87.1500 Y6.3500
G01 F80.00
G01 Z-0.6000
G01 F100.00
G01 X87.1411 Y6.1687
G01 X87.1145 Y5.9891
G01 X87.0703 Y5.8130
G01 X87.0092 Y5.6420
G01 X86.9316 Y5.4779
G01 X86.8382 Y5.3222
G01 X86.7301 Y5.1764
G01 X86.6081 Y5.0419
G01 X86.4736 Y4.9199
G01 X86.3278 Y4.8118
G01 X86.1721 Y4.7184
G01 X86.0080 Y4.6408
G01 X85.8370 Y4.5797
G01 X85.6609 Y4.5355
G01 X85.4813 Y4.5089
G01 X85.3000 Y4.5000
G01 X85.1187 Y4.5089
G01 X84.9391 Y4.5355
G01 X84.7630 Y4.5797
G01 X84.5920 Y4.6408
G01 X84.4279 Y4.7184
G01 X84.2722 Y4.8118
G01 X84.1264 Y4.9199
G01 X83.9919 Y5.0419
G01 X83.8699 Y5.1764
G01 X83.7618 Y5.3222
G01 X83.6684 Y5.4779
G01 X83.5908 Y5.6420
G01 X83.5297 Y5.8130
G01 X83.4855 Y5.9891
G01 X83.4589 Y6.1687
G01 X83.4500 Y6.3500
G01 X83.4589 Y6.5313
G01 X83.4855 Y6.7109
G01 X83.5297 Y6.8870
G01 X83.5908 Y7.0580
G01 X83.6684 Y7.2221
G01 X83.7618 Y7.3778
G01 X83.8699 Y7.5236
G01 X83.9919 Y7.6581
G01 X84.1264 Y7.7801
G01 X84.2722 Y7.8882
G01 X84.4279 Y7.9816
G01 X84.5920 Y8.0592
G01 X84.7630 Y8.1203
G01 X84.9391 Y8.1645
G01 X85.1187 Y8.1911
G01 X85.3000 Y8.2000
G01 X85.4813 Y8.1911
G01 X85.6609 Y8.1645
G01 X85.8370 Y8.1203
G01 X86.0080 Y8.0592
G01 X86.1721 Y7.9816
G01 X86.3278 Y7.8882
G01 X86.4736 Y7.7801
G01 X86.6081 Y7.6581
G01 X86.7301 Y7.5236
G01 X86.8382 Y7.3778
G01 X86.9316 Y7.2221
G01 X87.0092 Y7.0580
G01 X87.0703 Y6.8870
G01 X87.1145 Y6.7109
G01 X87.1411 Y6.5313
G01 X87.1500 Y6.3500
G00 X87.1500 Y6.3500
G01 F80.00
G01 Z-0.8000
G01 F100.00
G01 X87.1411 Y6.1687
G01 X87.1145 Y5.9891
G01 X87.0703 Y5.8130
G01 X87.0092 Y5.6420
G01 X86.9316 Y5.4779
G01 X86.8382 Y5.3222
G01 X86.7301 Y5.1764
G01 X86.6081 Y5.0419
G01 X86.4736 Y4.9199
G01 X86.3278 Y4.8118
G01 X86.1721 Y4.7184
G01 X86.0080 Y4.6408
G01 X85.8370 Y4.5797
G01 X85.6609 Y4.5355
G01 X85.4813 Y4.5089
G01 X85.3000 Y4.5000
G01 X85.1187 Y4.5089
G01 X84.9391 Y4.5355
G01 X84.7630 Y4.5797
G01 X84.5920 Y4.6408
G01 X84.4279 Y4.7184
G01 X84.2722 Y4.8118
G01 X84.1264 Y4.9199
G01 X83.9919 Y5.0419
G01 X83.8699 Y5.1764
G01 X83.7618 Y5.3222
G01 X83.6684 Y5.4779
G01 X83.5908 Y5.6420
G01 X83.5297 Y5.8130
G01 X83.4855 Y5.9891
G01 X83.4589 Y6.1687
G01 X83.4500 Y6.3500
G01 X83.4589 Y6.5313
G01 X83.4855 Y6.7109
G01 X83.5297 Y6.8870
G01 X83.5908 Y7.0580
G01 X83.6684 Y7.2221
G01 X83.7618 Y7.3778
G01 X83.8699 Y7.5236
G01 X83.9919 Y7.6581
G01 X84.1264 Y7.7801
G01 X84.2722 Y7.8882
G01 X84.4279 Y7.9816
G01 X84.5920 Y8.0592
G01 X84.7630 Y8.1203
G01 X84.9391 Y8.1645
G01 X85.1187 Y8.1911
G01 X85.3000 Y8.2000
G01 X85.4813 Y8.1911
G01 X85.6609 Y8.1645
G01 X85.8370 Y8.1203
G01 X86.0080 Y8.0592
G01 X86.1721 Y7.9816
G01 X86.3278 Y7.8882
G01 X86.4736 Y7.7801
G01 X86.6081 Y7.6581
G01 X86.7301 Y7.5236
G01 X86.8382 Y7.3778
G01 X86.9316 Y7.2221
G01 X87.0092 Y7.0580
G01 X87.0703 Y6.8870
G01 X87.1145 Y6.7109
G01 X87.1411 Y6.5313
G01 X87.1500 Y6.3500
G00 X87.1500 Y6.3500
G01 F80.00
G01 Z-1.0000
G01 F100.00
G01 X87.1411 Y6.1687
G01 X87.1145 Y5.9891
G01 X87.0703 Y5.8130
G01 X87.0092 Y5.6420
G01 X86.9316 Y5.4779
G01 X86.8382 Y5.3222
G01 X86.7301 Y5.1764
G01 X86.6081 Y5.0419
G01 X86.4736 Y4.9199
G01 X86.3278 Y4.8118
G01 X86.1721 Y4.7184
G01 X86.0080 Y4.6408
G01 X85.8370 Y4.5797
G01 X85.6609 Y4.5355
G01 X85.4813 Y4.5089
G01 X85.3000 Y4.5000
G01 X85.1187 Y4.5089
G01 X84.9391 Y4.5355
G01 X84.7630 Y4.5797
G01 X84.5920 Y4.6408
G01 X84.4279 Y4.7184
G01 X84.2722 Y4.8118
G01 X84.1264 Y4.9199
G01 X83.9919 Y5.0419
G01 X83.8699 Y5.1764
G01 X83.7618 Y5.3222
G01 X83.6684 Y5.4779
G01 X83.5908 Y5.6420
G01 X83.5297 Y5.8130
G01 X83.4855 Y5.9891
G01 X83.4589 Y6.1687
G01 X83.4500 Y6.3500
G01 X83.4589 Y6.5313
G01 X83.4855 Y6.7109
G01 X83.5297 Y6.8870
G01 X83.5908 Y7.0580
G01 X83.6684 Y7.2221
G01 X83.7618 Y7.3778
G01 X83.8699 Y7.5236
G01 X83.9919 Y7.6581
G01 X84.1264 Y7.7801
G01 X84.2722 Y7.8882
G01 X84.4279 Y7.9816
G01 X84.5920 Y8.0592
G01 X84.7630 Y8.1203
G01 X84.9391 Y8.1645
G01 X85.1187 Y8.1911
G01 X85.3000 Y8.2000
G01 X85.4813 Y8.1911
G01 X85.6609 Y8.1645
G01 X85.8370 Y8.1203
G01 X86.0080 Y8.0592
G01 X86.1721 Y7.9816
G01 X86.3278 Y7.8882
G01 X86.4736 Y7.7801
G01 X86.6081 Y7.6581
G01 X86.7301 Y7.5236
G01 X86.8382 Y7.3778
G01 X86.9316 Y7.2221
G01 X87.0092 Y7.0580
G01 X87.0703 Y6.8870
G01 X87.1145 Y6.7109
G01 X87.1411 Y6.5313
G01 X87.1500 Y6.3500
G00 X87.1500 Y6.3500
G01 F80.00
G01 Z-1.2000
G01 F100.00
G01 X87.1411 Y6.1687
G01 X87.1145 Y5.9891
G01 X87.0703 Y5.8130
G01 X87.0092 Y5.6420
G01 X86.9316 Y5.4779
G01 X86.8382 Y5.3222
G01 X86.7301 Y5.1764
G01 X86.6081 Y5.0419
G01 X86.4736 Y4.9199
G01 X86.3278 Y4.8118
G01 X86.1721 Y4.7184
G01 X86.0080 Y4.6408
G01 X85.8370 Y4.5797
G01 X85.6609 Y4.5355
G01 X85.4813 Y4.5089
G01 X85.3000 Y4.5000
G01 X85.1187 Y4.5089
G01 X84.9391 Y4.5355
G01 X84.7630 Y4.5797
G01 X84.5920 Y4.6408
G01 X84.4279 Y4.7184
G01 X84.2722 Y4.8118
G01 X84.1264 Y4.9199
G01 X83.9919 Y5.0419
G01 X83.8699 Y5.1764
G01 X83.7618 Y5.3222
G01 X83.6684 Y5.4779
G01 X83.5908 Y5.6420
G01 X83.5297 Y5.8130
G01 X83.4855 Y5.9891
G01 X83.4589 Y6.1687
G01 X83.4500 Y6.3500
G01 X83.4589 Y6.5313
G01 X83.4855 Y6.7109
G01 X83.5297 Y6.8870
G01 X83.5908 Y7.0580
G01 X83.6684 Y7.2221
G01 X83.7618 Y7.3778
G01 X83.8699 Y7.5236
G01 X83.9919 Y7.6581
G01 X84.1264 Y7.7801
G01 X84.2722 Y7.8882
G01 X84.4279 Y7.9816
G01 X84.5920 Y8.0592
G01 X84.7630 Y8.1203
G01 X84.9391 Y8.1645
G01 X85.1187 Y8.1911
G01 X85.3000 Y8.2000
G01 X85.4813 Y8.1911
G01 X85.6609 Y8.1645
G01 X85.8370 Y8.1203
G01 X86.0080 Y8.0592
G01 X86.1721 Y7.9816
G01 X86.3278 Y7.8882
G01 X86.4736 Y7.7801
G01 X86.6081 Y7.6581
G01 X86.7301 Y7.5236
G01 X86.8382 Y7.3778
G01 X86.9316 Y7.2221
G01 X87.0092 Y7.0580
G01 X87.0703 Y6.8870
G01 X87.1145 Y6.7109
G01 X87.1411 Y6.5313
G01 X87.1500 Y6.3500
G00 X87.1500 Y6.3500
G01 F80.00
G01 Z-1.4000
G01 F100.00
G01 X87.1411 Y6.1687
G01 X87.1145 Y5.9891
G01 X87.0703 Y5.8130
G01 X87.0092 Y5.6420
G01 X86.9316 Y5.4779
G01 X86.8382 Y5.3222
G01 X86.7301 Y5.1764
G01 X86.6081 Y5.0419
G01 X86.4736 Y4.9199
G01 X86.3278 Y4.8118
G01 X86.1721 Y4.7184
G01 X86.0080 Y4.6408
G01 X85.8370 Y4.5797
G01 X85.6609 Y4.5355
G01 X85.4813 Y4.5089
G01 X85.3000 Y4.5000
G01 X85.1187 Y4.5089
G01 X84.9391 Y4.5355
G01 X84.7630 Y4.5797
G01 X84.5920 Y4.6408
G01 X84.4279 Y4.7184
G01 X84.2722 Y4.8118
G01 X84.1264 Y4.9199
G01 X83.9919 Y5.0419
G01 X83.8699 Y5.1764
G01 X83.7618 Y5.3222
G01 X83.6684 Y5.4779
G01 X83.5908 Y5.6420
G01 X83.5297 Y5.8130
G01 X83.4855 Y5.9891
G01 X83.4589 Y6.1687
G01 X83.4500 Y6.3500
G01 X83.4589 Y6.5313
G01 X83.4855 Y6.7109
G01 X83.5297 Y6.8870
G01 X83.5908 Y7.0580
G01 X83.6684 Y7.2221
G01 X83.7618 Y7.3778
G01 X83.8699 Y7.5236
G01 X83.9919 Y7.6581
G01 X84.1264 Y7.7801
G01 X84.2722 Y7.8882
G01 X84.4279 Y7.9816
G01 X84.5920 Y8.0592
G01 X84.7630 Y8.1203
G01 X84.9391 Y8.1645
G01 X85.1187 Y8.1911
G01 X85.3000 Y8.2000
G01 X85.4813 Y8.1911
G01 X85.6609 Y8.1645
G01 X85.8370 Y8.1203
G01 X86.0080 Y8.0592
G01 X86.1721 Y7.9816
G01 X86.3278 Y7.8882
G01 X86.4736 Y7.7801
G01 X86.6081 Y7.6581
G01 X86.7301 Y7.5236
G01 X86.8382 Y7.3778
G01 X86.9316 Y7.2221
G01 X87.0092 Y7.0580
G01 X87.0703 Y6.8870
G01 X87.1145 Y6.7109
G01 X87.1411 Y6.5313
G01 X87.1500 Y6.3500
G00 X87.1500 Y6.3500
G01 F80.00
G01 Z-1.6000
G01 F100.00
G01 X87.1411 Y6.1687
G01 X87.1145 Y5.9891
G01 X87.0703 Y5.8130
G01 X87.0092 Y5.6420
G01 X86.9316 Y5.4779
G01 X86.8382 Y5.3222
G01 X86.7301 Y5.1764
G01 X86.6081 Y5.0419
G01 X86.4736 Y4.9199
G01 X86.3278 Y4.8118
G01 X86.1721 Y4.7184
G01 X86.0080 Y4.6408
G01 X85.8370 Y4.5797
G01 X85.6609 Y4.5355
G01 X85.4813 Y4.5089
G01 X85.3000 Y4.5000
G01 X85.1187 Y4.5089
G01 X84.9391 Y4.5355
G01 X84.7630 Y4.5797
G01 X84.5920 Y4.6408
G01 X84.4279 Y4.7184
G01 X84.2722 Y4.8118
G01 X84.1264 Y4.9199
G01 X83.9919 Y5.0419
G01 X83.8699 Y5.1764
G01 X83.7618 Y5.3222
G01 X83.6684 Y5.4779
G01 X83.5908 Y5.6420
G01 X83.5297 Y5.8130
G01 X83.4855 Y5.9891
G01 X83.4589 Y6.1687
G01 X83.4500 Y6.3500
G01 X83.4589 Y6.5313
G01 X83.4855 Y6.7109
G01 X83.5297 Y6.8870
G01 X83.5908 Y7.0580
G01 X83.6684 Y7.2221
G01 X83.7618 Y7.3778
G01 X83.8699 Y7.5236
G01 X83.9919 Y7.6581
G01 X84.1264 Y7.7801
G01 X84.2722 Y7.8882
G01 X84.4279 Y7.9816
G01 X84.5920 Y8.0592
G01 X84.7630 Y8.1203
G01 X84.9391 Y8.1645
G01 X85.1187 Y8.1911
G01 X85.3000 Y8.2000
G01 X85.4813 Y8.1911
G01 X85.6609 Y8.1645
G01 X85.8370 Y8.1203
G01 X86.0080 Y8.0592
G01 X86.1721 Y7.9816
G01 X86.3278 Y7.8882
G01 X86.4736 Y7.7801
G01 X86.6081 Y7.6581
G01 X86.7301 Y7.5236
G01 X86.8382 Y7.3778
G01 X86.9316 Y7.2221
G01 X87.0092 Y7.0580
G01 X87.0703 Y6.8870
G01 X87.1145 Y6.7109
G01 X87.1411 Y6.5313
G01 X87.1500 Y6.3500
G00 Z2.0000
G00 X94.3500 Y6.3500
G01 F80.00
G01 Z-0.2000
G01 F100.00
G01 X94.3411 Y6.1687
G01 X94.3145 Y5.9891
G01 X94.2703 Y5.8130
G01 X94.2092 Y5.6420
G01 X94.1316 Y5.4779
G01 X94.0382 Y5.3222
G01 X93.9301 Y5.1764
G01 X93.8081 Y5.0419
G01 X93.6736 Y4.9199
G01 X93.5278 Y4.8118
G01 X93.3721 Y4.7184
G01 X93.2080 Y4.6408
G01 X93.0370 Y4.5797
G01 X92.8609 Y4.5355
G01 X92.6813 Y4.5089
G01 X92.5000 Y4.5000
G01 X92.3187 Y4.5089
G01 X92.1391 Y4.5355
G01 X91.9630 Y4.5797
G01 X91.7920 Y4.6408
G01 X91.6279 Y4.7184
G01 X91.4722 Y4.8118
G01 X91.3264 Y4.9199
G01 X91.1919 Y5.0419
G01 X91.0699 Y5.1764
G01 X90.9618 Y5.3222
G01 X90.8684 Y5.4779
G01 X90.7908 Y5.6420
G01 X90.7297 Y5.8130
G01 X90.6855 Y5.9891
G01 X90.6589 Y6.1687
G01 X90.6500 Y6.3500
G01 X90.6589 Y6.5313
G01 X90.6855 Y6.7109
G01 X90.7297 Y6.8870
G01 X90.7908 Y7.0580
G01 X90.8684 Y7.2221
G01 X90.9618 Y7.3778
G01 X91.0699 Y7.5236
G01 X91.1919 Y7.6581
G01 X91.3264 Y7.7801
G01 X91.4722 Y7.8882
G01 X91.6279 Y7.9816
G01 X91.7920 Y8.0592
G01 X91.9630 Y8.1203
G01 X92.1391 Y8.1645
G01 X92.3187 Y8.1911
G01 X92.5000 Y8.2000
G01 X92.6813 Y8.1911
G01 X92.8609 Y8.1645
G01 X93.0370 Y8.1203
G01 X93.2080 Y8.0592
G01 X93.3721 Y7.9816
G01 X93.5278 Y7.8882
G01 X93.6736 Y7.7801
G01 X93.8081 Y7.6581
G01 X93.9301 Y7.5236
G01 X94.0382 Y7.3778
G01 X94.1316 Y7.2221
G01 X94.2092 Y7.0580
G01 X94.2703 Y6.8870
G01 X94.3145 Y6.7109
G01 X94.3411 Y6.5313
G01 X94.3500 Y6.3500
G00 X94.3500 Y6.3500
G01 F80.00
G01 Z-0.4000
G01 F100.00
G01 X94.3411 Y6.1687
G01 X94.3145 Y5.9891
G01 X94.2703 Y5.8130
G01 X94.2092 Y5.6420
G01 X94.1316 Y5.4779
G01 X94.0382 Y5.3222
G01 X93.9301 Y5.1764
G01 X93.8081 Y5.0419
G01 X93.6736 Y4.9199
G01 X93.5278 Y4.8118
G01 X93.3721 Y4.7184
G01 X93.2080 Y4.6408
G01 X93.0370 Y4.5797
G01 X92.8609 Y4.5355
G01 X92.6813 Y4.5089
G01 X92.5000 Y4.5000
G01 X92.3187 Y4.5089
G01 X92.1391 Y4.5355
G01 X91.9630 Y4.5797
G01 X91.7920 Y4.6408
G01 X91.6279 Y4.7184
G01 X91.4722 Y4.8118
G01 X91.3264 Y4.9199
G01 X91.1919 Y5.0419
G01 X91.0699 Y5.1764
G01 X90.9618 Y5.3222
G01 X90.8684 Y5.4779
G01 X90.7908 Y5.6420
G01 X90.7297 Y5.8130
G01 X90.6855 Y5.9891
G01 X90.6589 Y6.1687
G01 X90.6500 Y6.3500
G01 X90.6589 Y6.5313
G01 X90.6855 Y6.7109
G01 X90.7297 Y6.8870
G01 X90.7908 Y7.0580
G01 X90.8684 Y7.2221
G01 X90.9618 Y7.3778
G01 X91.0699 Y7.5236
G01 X91.1919 Y7.6581
G01 X91.3264 Y7.7801
G01 X91.4722 Y7.8882
G01 X91.6279 Y7.9816
G01 X91.7920 Y8.0592
G01 X91.9630 Y8.1203
G01 X92.1391 Y8.1645
G01 X92.3187 Y8.1911
G01 X92.5000 Y8.2000
G01 X92.6813 Y8.1911
G01 X92.8609 Y8.1645
G01 X93.0370 Y8.1203
G01 X93.2080 Y8.0592
G01 X93.3721 Y7.9816
G01 X93.5278 Y7.8882
G01 X93.6736 Y7.7801
G01 X93.8081 Y7.6581
G01 X93.9301 Y7.5236
G01 X94.0382 Y7.3778
G01 X94.1316 Y7.2221
G01 X94.2092 Y7.0580
G01 X94.2703 Y6.8870
G01 X94.3145 Y6.7109
G01 X94.3411 Y6.5313
G01 X94.3500 Y6.3500
G00 X94.3500 Y6.3500
G01 F80.00
G01 Z-0.6000
G01 F100.00
G01 X94.3411 Y6.1687
G01 X94.3145 Y5.9891
G01 X94.2703 Y5.8130
G01 X94.2092 Y5.6420
G01 X94.1316 Y5.4779
G01 X94.0382 Y5.3222
G01 X93.9301 Y5.1764
G01 X93.8081 Y5.0419
G01 X93.6736 Y4.9199
G01 X93.5278 Y4.8118
G01 X93.3721 Y4.7184
G01 X93.2080 Y4.6408
G01 X93.0370 Y4.5797
G01 X92.8609 Y4.5355
G01 X92.6813 Y4.5089
G01 X92.5000 Y4.5000
G01 X92.3187 Y4.5089
G01 X92.1391 Y4.5355
G01 X91.9630 Y4.5797
G01 X91.7920 Y4.6408
G01 X91.6279 Y4.7184
G01 X91.4722 Y4.8118
G01 X91.3264 Y4.9199
G01 X91.1919 Y5.0419
G01 X91.0699 Y5.1764
G01 X90.9618 Y5.3222
G01 X90.8684 Y5.4779
G01 X90.7908 Y5.6420
G01 X90.7297 Y5.8130
G01 X90.6855 Y5.9891
G01 X90.6589 Y6.1687
G01 X90.6500 Y6.3500
G01 X90.6589 Y6.5313
G01 X90.6855 Y6.7109
G01 X90.7297 Y6.8870
G01 X90.7908 Y7.0580
G01 X90.8684 Y7.2221
G01 X90.9618 Y7.3778
G01 X91.0699 Y7.5236
G01 X91.1919 Y7.6581
G01 X91.3264 Y7.7801
G01 X91.4722 Y7.8882
G01 X91.6279 Y7.9816
G01 X91.7920 Y8.0592
G01 X91.9630 Y8.1203
G01 X92.1391 Y8.1645
G01 X92.3187 Y8.1911
G01 X92.5000 Y8.2000
G01 X92.6813 Y8.1911
G01 X92.8609 Y8.1645
G01 X93.0370 Y8.1203
G01 X93.2080 Y8.0592
G01 X93.3721 Y7.9816
G01 X93.5278 Y7.8882
G01 X93.6736 Y7.7801
G01 X93.8081 Y7.6581
G01 X93.9301 Y7.5236
G01 X94.0382 Y7.3778
G01 X94.1316 Y7.2221
G01 X94.2092 Y7.0580
G01 X94.2703 Y6.8870
G01 X94.3145 Y6.7109
G01 X94.3411 Y6.5313
G01 X94.3500 Y6.3500
G00 X94.3500 Y6.3500
G01 F80.00
G01 Z-0.8000
G01 F100.00
G01 X94.3411 Y6.1687
G01 X94.3145 Y5.9891
G01 X94.2703 Y5.8130
G01 X94.2092 Y5.6420
G01 X94.1316 Y5.4779
G01 X94.0382 Y5.3222
G01 X93.9301 Y5.1764
G01 X93.8081 Y5.0419
G01 X93.6736 Y4.9199
G01 X93.5278 Y4.8118
G01 X93.3721 Y4.7184
G01 X93.2080 Y4.6408
G01 X93.0370 Y4.5797
G01 X92.8609 Y4.5355
G01 X92.6813 Y4.5089
G01 X92.5000 Y4.5000
G01 X92.3187 Y4.5089
G01 X92.1391 Y4.5355
G01 X91.9630 Y4.5797
G01 X91.7920 Y4.6408
G01 X91.6279 Y4.7184
G01 X91.4722 Y4.8118
G01 X91.3264 Y4.9199
G01 X91.1919 Y5.0419
G01 X91.0699 Y5.1764
G01 X90.9618 Y5.3222
G01 X90.8684 Y5.4779
G01 X90.7908 Y5.6420
G01 X90.7297 Y5.8130
G01 X90.6855 Y5.9891
G01 X90.6589 Y6.1687
G01 X90.6500 Y6.3500
G01 X90.6589 Y6.5313
G01 X90.6855 Y6.7109
G01 X90.7297 Y6.8870
G01 X90.7908 Y7.0580
G01 X90.8684 Y7.2221
G01 X90.9618 Y7.3778
G01 X91.0699 Y7.5236
G01 X91.1919 Y7.6581
G01 X91.3264 Y7.7801
G01 X91.4722 Y7.8882
G01 X91.6279 Y7.9816
G01 X91.7920 Y8.0592
G01 X91.9630 Y8.1203
G01 X92.1391 Y8.1645
G01 X92.3187 Y8.1911
G01 X92.5000 Y8.2000
G01 X92.6813 Y8.1911
G01 X92.8609 Y8.1645
G01 X93.0370 Y8.1203
G01 X93.2080 Y8.0592
G01 X93.3721 Y7.9816
G01 X93.5278 Y7.8882
G01 X93.6736 Y7.7801
G01 X93.8081 Y7.6581
G01 X93.9301 Y7.5236
G01 X94.0382 Y7.3778
G01 X94.1316 Y7.2221
G01 X94.2092 Y7.0580
G01 X94.2703 Y6.8870
G01 X94.3145 Y6.7109
G01 X94.3411 Y6.5313
G01 X94.3500 Y6.3500
G00 X94.3500 Y6.3500
G01 F80.00
G01 Z-1.0000
G01 F100.00
G01 X94.3411 Y6.1687
G01 X94.3145 Y5.9891
G01 X94.2703 Y5.8130
G01 X94.2092 Y5.6420
G01 X94.1316 Y5.4779
G01 X94.0382 Y5.3222
G01 X93.9301 Y5.1764
G01 X93.8081 Y5.0419
G01 X93.6736 Y4.9199
G01 X93.5278 Y4.8118
G01 X93.3721 Y4.7184
G01 X93.2080 Y4.6408
G01 X93.0370 Y4.5797
G01 X92.8609 Y4.5355
G01 X92.6813 Y4.5089
G01 X92.5000 Y4.5000
G01 X92.3187 Y4.5089
G01 X92.1391 Y4.5355
G01 X91.9630 Y4.5797
G01 X91.7920 Y4.6408
G01 X91.6279 Y4.7184
G01 X91.4722 Y4.8118
G01 X91.3264 Y4.9199
G01 X91.1919 Y5.0419
G01 X91.0699 Y5.1764
G01 X90.9618 Y5.3222
G01 X90.8684 Y5.4779
G01 X90.7908 Y5.6420
G01 X90.7297 Y5.8130
G01 X90.6855 Y5.9891
G01 X90.6589 Y6.1687
G01 X90.6500 Y6.3500
G01 X90.6589 Y6.5313
G01 X90.6855 Y6.7109
G01 X90.7297 Y6.8870
G01 X90.7908 Y7.0580
G01 X90.8684 Y7.2221
G01 X90.9618 Y7.3778
G01 X91.0699 Y7.5236
G01 X91.1919 Y7.6581
G01 X91.3264 Y7.7801
G01 X91.4722 Y7.8882
G01 X91.6279 Y7.9816
G01 X91.7920 Y8.0592
G01 X91.9630 Y8.1203
G01 X92.1391 Y8.1645
G01 X92.3187 Y8.1911
G01 X92.5000 Y8.2000
G01 X92.6813 Y8.1911
G01 X92.8609 Y8.1645
G01 X93.0370 Y8.1203
G01 X93.2080 Y8.0592
G01 X93.3721 Y7.9816
G01 X93.5278 Y7.8882
G01 X93.6736 Y7.7801
G01 X93.8081 Y7.6581
G01 X93.9301 Y7.5236
G01 X94.0382 Y7.3778
G01 X94.1316 Y7.2221
G01 X94.2092 Y7.0580
G01 X94.2703 Y6.8870
G01 X94.3145 Y6.7109
G01 X94.3411 Y6.5313
G01 X94.3500 Y6.3500
G00 X94.3500 Y6.3500
G01 F80.00
G01 Z-1.2000
G01 F100.00
G01 X94.3411 Y6.1687
G01 X94.3145 Y5.9891
G01 X94.2703 Y5.8130
G01 X94.2092 Y5.6420
G01 X94.1316 Y5.4779
G01 X94.0382 Y5.3222
G01 X93.9301 Y5.1764
G01 X93.8081 Y5.0419
G01 X93.6736 Y4.9199
G01 X93.5278 Y4.8118
G01 X93.3721 Y4.7184
G01 X93.2080 Y4.6408
G01 X93.0370 Y4.5797
G01 X92.8609 Y4.5355
G01 X92.6813 Y4.5089
G01 X92.5000 Y4.5000
G01 X92.3187 Y4.5089
G01 X92.1391 Y4.5355
G01 X91.9630 Y4.5797
G01 X91.7920 Y4.6408
G01 X91.6279 Y4.7184
G01 X91.4722 Y4.8118
G01 X91.3264 Y4.9199
G01 X91.1919 Y5.0419
G01 X91.0699 Y5.1764
G01 X90.9618 Y5.3222
G01 X90.8684 Y5.4779
G01 X90.7908 Y5.6420
G01 X90.7297 Y5.8130
G01 X90.6855 Y5.9891
G01 X90.6589 Y6.1687
G01 X90.6500 Y6.3500
G01 X90.6589 Y6.5313
G01 X90.6855 Y6.7109
G01 X90.7297 Y6.8870
G01 X90.7908 Y7.0580
G01 X90.8684 Y7.2221
G01 X90.9618 Y7.3778
G01 X91.0699 Y7.5236
G01 X91.1919 Y7.6581
G01 X91.3264 Y7.7801
G01 X91.4722 Y7.8882
G01 X91.6279 Y7.9816
G01 X91.7920 Y8.0592
G01 X91.9630 Y8.1203
G01 X92.1391 Y8.1645
G01 X92.3187 Y8.1911
G01 X92.5000 Y8.2000
G01 X92.6813 Y8.1911
G01 X92.8609 Y8.1645
G01 X93.0370 Y8.1203
G01 X93.2080 Y8.0592
G01 X93.3721 Y7.9816
G01 X93.5278 Y7.8882
G01 X93.6736 Y7.7801
G01 X93.8081 Y7.6581
G01 X93.9301 Y7.5236
G01 X94.0382 Y7.3778
G01 X94.1316 Y7.2221
G01 X94.2092 Y7.0580
G01 X94.2703 Y6.8870
G01 X94.3145 Y6.7109
G01 X94.3411 Y6.5313
G01 X94.3500 Y6.3500
G00 X94.3500 Y6.3500
G01 F80.00
G01 Z-1.4000
G01 F100.00
G01 X94.3411 Y6.1687
G01 X94.3145 Y5.9891
G01 X94.2703 Y5.8130
G01 X94.2092 Y5.6420
G01 X94.1316 Y5.4779
G01 X94.0382 Y5.3222
G01 X93.9301 Y5.1764
G01 X93.8081 Y5.0419
G01 X93.6736 Y4.9199
G01 X93.5278 Y4.8118
G01 X93.3721 Y4.7184
G01 X93.2080 Y4.6408
G01 X93.0370 Y4.5797
G01 X92.8609 Y4.5355
G01 X92.6813 Y4.5089
G01 X92.5000 Y4.5000
G01 X92.3187 Y4.5089
G01 X92.1391 Y4.5355
G01 X91.9630 Y4.5797
G01 X91.7920 Y4.6408
G01 X91.6279 Y4.7184
G01 X91.4722 Y4.8118
G01 X91.3264 Y4.9199
G01 X91.1919 Y5.0419
G01 X91.0699 Y5.1764
G01 X90.9618 Y5.3222
G01 X90.8684 Y5.4779
G01 X90.7908 Y5.6420
G01 X90.7297 Y5.8130
G01 X90.6855 Y5.9891
G01 X90.6589 Y6.1687
G01 X90.6500 Y6.3500
G01 X90.6589 Y6.5313
G01 X90.6855 Y6.7109
G01 X90.7297 Y6.8870
G01 X90.7908 Y7.0580
G01 X90.8684 Y7.2221
G01 X90.9618 Y7.3778
G01 X91.0699 Y7.5236
G01 X91.1919 Y7.6581
G01 X91.3264 Y7.7801
G01 X91.4722 Y7.8882
G01 X91.6279 Y7.9816
G01 X91.7920 Y8.0592
G01 X91.9630 Y8.1203
G01 X92.1391 Y8.1645
G01 X92.3187 Y8.1911
G01 X92.5000 Y8.2000
G01 X92.6813 Y8.1911
G01 X92.8609 Y8.1645
G01 X93.0370 Y8.1203
G01 X93.2080 Y8.0592
G01 X93.3721 Y7.9816
G01 X93.5278 Y7.8882
G01 X93.6736 Y7.7801
G01 X93.8081 Y7.6581
G01 X93.9301 Y7.5236
G01 X94.0382 Y7.3778
G01 X94.1316 Y7.2221
G01 X94.2092 Y7.0580
G01 X94.2703 Y6.8870
G01 X94.3145 Y6.7109
G01 X94.3411 Y6.5313
G01 X94.3500 Y6.3500
G00 X94.3500 Y6.3500
G01 F80.00
G01 Z-1.6000
G01 F100.00
G01 X94.3411 Y6.1687
G01 X94.3145 Y5.9891
G01 X94.2703 Y5.8130
G01 X94.2092 Y5.6420
G01 X94.1316 Y5.4779
G01 X94.0382 Y5.3222
G01 X93.9301 Y5.1764
G01 X93.8081 Y5.0419
G01 X93.6736 Y4.9199
G01 X93.5278 Y4.8118
G01 X93.3721 Y4.7184
G01 X93.2080 Y4.6408
G01 X93.0370 Y4.5797
G01 X92.8609 Y4.5355
G01 X92.6813 Y4.5089
G01 X92.5000 Y4.5000
G01 X92.3187 Y4.5089
G01 X92.1391 Y4.5355
G01 X91.9630 Y4.5797
G01 X91.7920 Y4.6408
G01 X91.6279 Y4.7184
G01 X91.4722 Y4.8118
G01 X91.3264 Y4.9199
G01 X91.1919 Y5.0419
G01 X91.0699 Y5.1764
G01 X90.9618 Y5.3222
G01 X90.8684 Y5.4779
G01 X90.7908 Y5.6420
G01 X90.7297 Y5.8130
G01 X90.6855 Y5.9891
G01 X90.6589 Y6.1687
G01 X90.6500 Y6.3500
G01 X90.6589 Y6.5313
G01 X90.6855 Y6.7109
G01 X90.7297 Y6.8870
G01 X90.7908 Y7.0580
G01 X90.8684 Y7.2221
G01 X90.9618 Y7.3778
G01 X91.0699 Y7.5236
G01 X91.1919 Y7.6581
G01 X91.3264 Y7.7801
G01 X91.4722 Y7.8882
G01 X91.6279 Y7.9816
G01 X91.7920 Y8.0592
G01 X91.9630 Y8.1203
G01 X92.1391 Y8.1645
G01 X92.3187 Y8.1911
G01 X92.5000 Y8.2000
G01 X92.6813 Y8.1911
G01 X92.8609 Y8.1645
G01 X93.0370 Y8.1203
G01 X93.2080 Y8.0592
G01 X93.3721 Y7.9816
G01 X93.5278 Y7.8882
G01 X93.6736 Y7.7801
G01 X93.8081 Y7.6581
G01 X93.9301 Y7.5236
G01 X94.0382 Y7.3778
G01 X94.1316 Y7.2221
G01 X94.2092 Y7.0580
G01 X94.2703 Y6.8870
G01 X94.3145 Y6.7109
G01 X94.3411 Y6.5313
G01 X94.3500 Y6.3500
G00 Z2.0000
M05
G00 Z2.0000
G00 Z2.00
G00 X0.0 Y0.0


